%
O01001
(Using high feed G1 F650. instead of G0.)
(T2 D=0.1875 CR=0. TAPER=118deg - ZMIN=-0.1871 - center drill)
(T3 D=0.1875 CR=0. TAPER=118deg - ZMIN=-0.3313 - drill)
(T7 D=0.125 CR=0. - ZMIN=-0.1465 - flat end mill)
(T9 D=0.25 CR=0. - ZMIN=-0.257 - flat end mill)
N10 G90 G94 G17
N15 G20
N20 G53 G0 Z0.

(2D Adaptive3)
N25 T9 M6
N30 S1528 M3
N35 G17 G90 G94
N40 G54
N45 G1 X-1.3404 Y-1.3431 F650.
N50 G0 G43 Z0.65 H9
N55 G0 Z-0.04
N60 G1 Z-0.065 F9.167
N65 X-1.3403 Y-1.3428 Z-0.0689
N70 X-1.3401 Y-1.3419 Z-0.0727
N75 X-1.3397 Y-1.3404 Z-0.0763
N80 X-1.3392 Y-1.3385 Z-0.0797
N85 X-1.3385 Y-1.336 Z-0.0827
N90 X-1.3378 Y-1.3331 Z-0.0852
N95 X-1.337 Y-1.3299 Z-0.0873
N100 X-1.3361 Y-1.3263 Z-0.0888
N105 X-1.3351 Y-1.3227 Z-0.0897
N110 X-1.3342 Y-1.3189 Z-0.09
N115 G3 X-1.3146 Y-1.1828 I-0.6183 J0.1584
N120 G1 Y-1.1737
N125 X-1.3118 Y-1.1558
N130 X-1.3078 Y-1.1476
N135 X-1.3033 Y-1.1363
N140 X-1.2981 Y-1.1189
N145 X-1.2942 Y-1.1012
N150 G3 X-1.285 Y-1.0292 I-0.7503 J0.1328
N155 X-1.2778 Y-0.8842 I-2.1847 J0.1803
N160 X-1.2755 Y-0.6665 I-9.4661 J0.2105
N165 X-1.2754 Y-0.5395 I-8.141 J0.0684
N170 X-1.2872 Y-0.4132 I-0.8095 J-0.0117
N175 X-1.3061 Y-0.3059 I-7.8267 J-1.3271
N180 G2 X-1.3269 Y-0.1623 I2.1829 J0.3887
N185 X-1.3331 Y0.0733 I1.4529 J0.1566
N190 X-1.3072 Y0.271 I1.3783 J-0.0804
N195 G3 X-1.2937 Y0.3423 I-2.393 J0.4907
N200 X-1.2821 Y0.4505 I-1.0517 J0.1668
N205 X-1.2767 Y0.6137 I-3.2352 J0.1884
N210 X-1.2754 Y0.777 I-11.371 J0.1736
N215 G2 X-1.275 Y0.8859 I24.1279 J-0.0424
N220 X-1.2705 Y0.9583 I0.7086 J-0.0076
N225 G1 X-1.2679 Y0.9763
N230 X-1.2646 Y0.9941
N235 X-1.2606 Y1.0118
N240 X-1.2557 Y1.0293
N245 X-1.2499 Y1.0465
N250 X-1.2433 Y1.0634
N255 X-1.2359 Y1.0799
N260 X-1.2275 Y1.096
N265 X-1.2183 Y1.1117
N270 X-1.2081 Y1.1267
N275 X-1.1972 Y1.1412
N280 X-1.1854 Y1.1549
N285 X-1.1728 Y1.168
N290 X-1.1594 Y1.1803
N295 X-1.1453 Y1.1917
N300 X-1.1306 Y1.2023
N305 X-1.1152 Y1.2119
N310 X-1.0993 Y1.2206
N315 X-1.0828 Y1.2282
N320 X-1.0659 Y1.2349
N325 X-1.0487 Y1.2407
N330 X-1.0313 Y1.2456
N335 G2 X-0.96 Y1.2593 I0.1508 J-0.5923
N340 X-0.8335 Y1.2698 I0.1754 J-1.3496
N345 X-0.6702 Y1.2737 I0.1863 J-4.3325
N350 G1 X-0.6521 Y1.274
N355 G3 X-0.5432 Y1.2748 I-0.2118 J33.6206
N360 X-0.4168 Y1.2864 I-0.0123 J0.8295
N365 X-0.3096 Y1.3054 I-1.2458 J7.3395
N370 G2 X-0.1841 Y1.3244 I0.4222 J-2.3665
N375 X0.0151 Y1.3352 I0.1816 J-1.5051
N380 X0.2673 Y1.3079 I-0.0209 J-1.3723
N385 G3 X0.3386 Y1.2943 I0.5297 J2.5748
N390 G1 X0.3565 Y1.2915
N395 G3 X0.4649 Y1.2813 I0.1629 J1.1509
N400 X0.6281 Y1.2765 I0.1876 J3.6471
N405 X0.864 Y1.2752 I0.2161 J17.6497
N410 G2 X0.9365 Y1.2727 I0.0017 J-0.9999
N415 G1 X0.9546 Y1.2709
N420 X0.9726 Y1.2685
N425 X0.9904 Y1.2654
N430 X1.0081 Y1.2615
N435 X1.0257 Y1.2568
N440 X1.0429 Y1.2512
N445 X1.0599 Y1.2448
N450 X1.0765 Y1.2375
N455 X1.0927 Y1.2293
N460 X1.1085 Y1.2203
N465 X1.1236 Y1.2103
N470 X1.1382 Y1.1995
N475 X1.1521 Y1.1879
N480 X1.1654 Y1.1755
N485 X1.1778 Y1.1622
N490 X1.1894 Y1.1483
N495 X1.2002 Y1.1337
N500 X1.21 Y1.1184
N505 X1.2189 Y1.1026
N510 X1.2267 Y1.0862
N515 X1.2336 Y1.0695
N520 X1.2395 Y1.0523
N525 X1.2446 Y1.0349
N530 G2 X1.2588 Y0.9637 I-0.5727 J-0.1508
N535 X1.2696 Y0.8372 I-1.3063 J-0.1754
N540 X1.2737 Y0.674 I-4.1934 J-0.1864
N545 G1 X1.2748 Y0.547
N550 G3 X1.2858 Y0.4206 I0.8278 J0.0084
N555 X1.3048 Y0.3133 I6.2621 J1.0525
N560 G2 X1.324 Y0.1878 I-2.4669 J-0.4417
N565 X1.3342 Y0.0612 I-1.602 J-0.1938
N570 X1.3087 Y-0.2636 I-1.3722 J-0.0554
N575 G3 X1.2949 Y-0.3349 I3.4026 J-0.696
N580 X1.2826 Y-0.443 I1.0051 J-0.1689
N585 X1.2769 Y-0.6062 I3.0458 J-0.1888
N590 X1.2753 Y-0.8602 I15.7572 J-0.2268
N595 G1 X1.275 Y-0.8784
N600 G2 X1.2714 Y-0.9508 I-0.7282 J0.0007
N605 G1 X1.2691 Y-0.9688
N610 X1.2661 Y-0.9867
N615 X1.2623 Y-1.0045
N620 X1.2578 Y-1.0221
N625 X1.2524 Y-1.0394
N630 X1.2462 Y-1.0564
N635 X1.2391 Y-1.0731
N640 X1.2311 Y-1.0894
N645 X1.2222 Y-1.1052
N650 X1.2124 Y-1.1205
N655 X1.2018 Y-1.1352
N660 X1.1904 Y-1.1493
N665 X1.1781 Y-1.1627
N670 X1.165 Y-1.1753
N675 X1.1513 Y-1.1871
N680 X1.1368 Y-1.198
N685 X1.1216 Y-1.208
N690 X1.1059 Y-1.2171
N695 X1.0897 Y-1.2252
N700 X1.073 Y-1.2323
N705 X1.0559 Y-1.2384
N710 X1.0385 Y-1.2436
N715 G2 X0.9675 Y-1.2582 I-0.1507 J0.5535
N720 X0.8591 Y-1.2685 I-0.1667 J1.1836
N725 X0.6959 Y-1.2734 I-0.1894 J3.5839
N730 X0.5507 Y-1.2747 I-0.2098 J15.5137
N735 G3 X0.4783 Y-1.2783 I0.0102 J-0.9432
N740 G2 X0.4462 Y-1.281 I-0.051 J0.3997
N745 G3 X0.3521 Y-1.2924 I0.1132 J-1.3306
N750 G1 X0.2803 Y-1.3033
N755 G2 X0.1181 Y-1.3223 I-0.3385 J2.1806
N760 X-0.0632 Y-1.3246 I-0.1096 J1.4887
N765 X-0.2789 Y-1.2963 I0.0725 J1.3861
N770 G3 X-0.3445 Y-1.2843 I-0.3317 J-1.6361
N775 X-0.4643 Y-1.2727 I-0.1798 J-1.2296
N780 X-0.608 Y-1.2679 I-0.1774 J-3.1782
N785 X-0.862 Y-1.2663 I-0.2313 J-15.7248
N790 G2 X-0.9345 Y-1.2638 I-0.0012 J1.0179
N795 G1 X-0.9526 Y-1.262
N800 X-0.9706 Y-1.2595
N805 X-0.9884 Y-1.2564
N810 X-1.0062 Y-1.2524
N815 X-1.0237 Y-1.2477
N820 X-1.0409 Y-1.2421
N825 X-1.0579 Y-1.2356
N830 X-1.0744 Y-1.2282
N835 X-1.0905 Y-1.2198
N840 X-1.1039 Y-1.2076
N845 X-1.1151 Y-1.1932
N850 X-1.1243 Y-1.1776
N855 X-1.132 Y-1.1612
N860 X-1.1383 Y-1.1442
N865 X-1.1436 Y-1.1268
N870 X-1.1479 Y-1.1092
N875 G2 X-1.1571 Y-1.0521 I0.5526 J0.1182
N880 X-1.164 Y-0.9435 I1.2833 J0.1369
N885 X-1.1658 Y-0.8346 I3.9878 J0.1205
N890 X-1.1662 Y-0.635 I31.0262 J0.158
N895 G3 X-1.171 Y-0.5074 I-1.7501 J-0.0018
N900 X-1.1902 Y-0.3516 I-2.3017 J-0.2046
N905 G2 X-1.2079 Y-0.2258 I6.8491 J1.0268
N910 X-1.2213 Y-0.0631 I1.8247 J0.2322
N915 X-1.2061 Y0.1901 I1.3635 J0.0454
N920 G3 X-1.193 Y0.2799 I-34.5659 J5.1148
N925 X-1.1725 Y0.5148 I-2.3434 J0.3224
N930 X-1.1678 Y0.6962 I-5.29 J0.2269
N935 G2 X-1.1663 Y0.8232 I30.7905 J-0.3195
N940 X-1.162 Y0.8888 I0.8235 J-0.0206
N945 G1 X-1.1596 Y0.9068
N950 X-1.1566 Y0.9247
N955 X-1.1526 Y0.9424
N960 X-1.1477 Y0.9599
N965 X-1.1418 Y0.977
N970 X-1.1347 Y0.9937
N975 X-1.1264 Y1.0099
N980 X-1.1168 Y1.0253
N985 X-1.1059 Y1.0398
N990 X-1.0938 Y1.0533
N995 X-1.0805 Y1.0657
N1000 X-1.0663 Y1.077
N1005 X-1.0513 Y1.0872
N1010 X-1.0357 Y1.0964
N1015 X-1.0195 Y1.1047
N1020 X-1.003 Y1.112
N1025 X-0.986 Y1.1186
N1030 G2 X-0.9162 Y1.138 I0.1749 J-0.4929
N1035 X-0.8085 Y1.1536 I0.1882 J-0.9208
N1040 X-0.6636 Y1.1619 I0.1999 J-2.2176
N1045 G3 X-0.5686 Y1.1654 I-0.2178 J7.2395
N1050 X-0.4018 Y1.1824 I-0.0971 J1.7784
N1055 X-0.312 Y1.1957 I-0.8927 J6.3386
N1060 G2 X-0.1681 Y1.2143 I0.4529 J-2.9458
N1065 X-0.005 Y1.222 I0.1567 J-1.5787
N1070 X0.1937 Y1.2056 I-0.0131 J-1.3712
N1075 G3 X0.2835 Y1.1925 I3.4817 J23.5179
N1080 X0.5003 Y1.1731 I0.3154 J2.3116
N1085 X0.718 Y1.1676 I0.2501 J5.5613
N1090 G1 X0.8087 Y1.1665
N1095 G2 X0.871 Y1.1637 I-0.0138 J-0.9924
N1100 G1 X0.8891 Y1.162
N1105 X0.9071 Y1.1596
N1110 X0.9249 Y1.1565
N1115 X0.9426 Y1.1526
N1120 X0.9601 Y1.1477
N1125 X0.9772 Y1.1417
N1130 X0.9939 Y1.1346
N1135 X1.0101 Y1.1262
N1140 X1.0254 Y1.1166
N1145 X1.04 Y1.1057
N1150 X1.0534 Y1.0936
N1155 X1.0658 Y1.0803
N1160 X1.0771 Y1.0661
N1165 X1.0874 Y1.0512
N1170 X1.0965 Y1.0355
N1175 X1.1048 Y1.0193
N1180 X1.1121 Y1.0027
N1185 X1.1187 Y0.9858
N1190 G2 X1.1381 Y0.9159 I-0.4937 J-0.1748
N1195 X1.1536 Y0.8082 I-0.9227 J-0.1882
N1200 X1.1619 Y0.6633 I-2.2231 J-0.2
N1205 G3 X1.1655 Y0.5673 I7.1908 J0.2165
N1210 X1.1822 Y0.4031 I1.7836 J0.0991
N1215 X1.1982 Y0.2954 I10.5525 J1.5096
N1220 G2 X1.2158 Y0.1514 I-2.6238 J-0.3943
N1225 X1.2213 Y-0.0299 I-1.5053 J-0.1361
N1230 X1.2058 Y-0.1924 I-1.3948 J0.0508
N1235 G3 X1.1902 Y-0.3001 I9.236 J-1.3925
N1240 X1.1724 Y-0.5171 I2.4035 J-0.3066
N1245 X1.1676 Y-0.7166 I5.7549 J-0.2377
N1250 G1 X1.1666 Y-0.8073
N1255 G2 X1.1638 Y-0.8696 I-1.0082 J0.0131
N1260 G1 X1.162 Y-0.8888
N1265 X1.1596 Y-0.9068
N1270 X1.1566 Y-0.9247
N1275 X1.1526 Y-0.9424
N1280 X1.1477 Y-0.9599
N1285 X1.1418 Y-0.977
N1290 X1.1347 Y-0.9937
N1295 X1.1263 Y-1.0099
N1300 X1.1168 Y-1.0253
N1305 X1.1059 Y-1.0398
N1310 X1.0937 Y-1.0533
N1315 X1.0805 Y-1.0657
N1320 X1.0663 Y-1.077
N1325 X1.0513 Y-1.0872
N1330 X1.0357 Y-1.0964
N1335 X1.0195 Y-1.1047
N1340 X1.0029 Y-1.112
N1345 X0.986 Y-1.1186
N1350 G2 X0.9161 Y-1.138 I-0.1749 J0.4932
N1355 X0.8085 Y-1.1536 I-0.1882 J0.9213
N1360 X0.6636 Y-1.1619 I-0.1999 J2.2178
N1365 G3 X0.5638 Y-1.1656 I0.2012 J-6.7562
N1370 X0.3544 Y-1.1846 I0.1212 J-2.501
N1375 G2 X0.2283 Y-1.2003 I-1.6221 J12.4861
N1380 X0.0655 Y-1.2127 I-0.2358 J2.0224
N1385 X-0.1877 Y-1.1974 I-0.0428 J1.3895
N1390 G3 X-0.2955 Y-1.1819 I-1.4502 J-9.7325
N1395 X-0.5057 Y-1.1641 I-0.3168 J-2.4856
N1400 X-0.7234 Y-1.1586 I-0.2532 J-5.7478
N1405 G2 X-0.8141 Y-1.1575 I0.2148 J20.3644
N1410 X-0.8921 Y-1.1524 I0.0132 J0.8157
N1415 G1 X-0.9101 Y-1.1498
N1420 X-0.9273 Y-1.144
N1425 X-0.9432 Y-1.1353
N1430 X-0.9504 Y-1.1298
N1435 X-0.9566 Y-1.1232
N1440 X-0.9618 Y-1.1157
N1445 X-0.9657 Y-1.1075
N1450 X-0.9683 Y-1.0989
N1455 X-0.9696 Y-1.0899
N1460 X-0.9694 Y-1.0808
N1465 X-0.9678 Y-1.0719
N1470 X-0.9619 Y-1.0547
N1475 G3 X-0.9454 Y-1.0229 I-0.0799 J0.0617
N1480 X-0.944 Y-1.0006 I-0.0521 J0.0145
N1485 G1 X-0.9444 Y-0.9992
N1490 X-0.9449 Y-0.9977
N1495 X-0.9453 Y-0.9963
N1500 X-0.9459 Y-0.9949
N1505 X-0.9466 Y-0.9936
N1510 X-0.9474 Y-0.9923
N1515 X-0.9623 Y-0.9819
N1520 X-0.9753 Y-0.9693
N1525 X-0.9867 Y-0.9552
N1530 X-0.9966 Y-0.94
N1535 X-1.0052 Y-0.924
N1540 X-1.0125 Y-0.9074
N1545 X-1.0189 Y-0.8904
N1550 X-1.0244 Y-0.8731
N1555 G2 X-1.0396 Y-0.8022 I0.5293 J0.1505
N1560 X-1.0496 Y-0.7063 I1.1284 J0.1663
N1565 X-1.0563 Y-0.5977 I10.6049 J0.7102
N1570 G1 X-1.0566 Y-0.5943
N1575 G3 X-1.0597 Y-0.5845 Z-0.0879 I-0.0249 J-0.0025
N1580 G1 X-1.061 Y-0.582 Z-0.0873
N1585 X-1.0619 Y-0.5793 Z-0.0867
N1590 X-1.0626 Y-0.5765 Z-0.0861
N1595 X-1.0645 Y-0.5653 Z-0.0838
N1600 X-1.066 Y-0.5564 Z-0.082
N1605 X-1.2378 Y0.4387
N1610 G2 X-1.2136 Y0.468 I0.0246 J0.0043
N1615 G1 X-1.2109 Y0.4679 Z-0.0826
N1620 X-1.2081 Y0.4675 Z-0.0831
N1625 X-1.2055 Y0.4668 Z-0.0837
N1630 X-1.2048 Y0.4666 Z-0.0838
N1635 G3 X-1.1752 Y0.4604 Z-0.09 I0.0437 J0.1367
N1640 G1 X-1.1741
N1645 G3 X-1.1555 Y0.4697 I-0.0114 J0.0461
N1650 X-1.1306 Y0.4955 I-0.0664 J0.0888
N1655 X-1.1063 Y0.5396 I-0.165 J0.1198
N1660 X-1.0862 Y0.6027 I-0.3345 J0.1411
N1665 X-1.0721 Y0.6849 I-0.6687 J0.157
N1670 X-1.0634 Y0.7717 I-2.2889 J0.2746
N1675 G1 X-1.0624 Y0.7808
N1680 X-1.0601 Y0.7896
N1685 X-1.0565 Y0.7979
N1690 X-1.0516 Y0.8055
N1695 X-1.0396 Y0.8191
N1700 X-1.0253 Y0.8303
N1705 G3 X-0.9883 Y0.8589 I-0.3507 J0.4916
N1710 X-0.9604 Y0.8886 I-0.121 J0.1417
N1715 X-0.9501 Y0.9068 I-0.0935 J0.0652
N1720 G1 X-0.9431 Y0.9236
N1725 X-0.9336 Y0.939
N1730 X-0.922 Y0.953
N1735 X-0.9088 Y0.9655
N1740 X-0.8944 Y0.9766
N1745 X-0.8792 Y0.9864
N1750 X-0.8633 Y0.9952
N1755 X-0.8469 Y1.0029
N1760 X-0.83 Y1.0096
N1765 X-0.8129 Y1.0156
N1770 G2 X-0.7302 Y1.035 I0.1721 J-0.5482
N1775 X-0.6402 Y1.0468 I0.2186 J-1.3185
N1780 G1 X-0.6222 Y1.0487
N1785 X-0.5985 Y1.051
N1790 G3 X-0.5888 Y1.0545 Z-0.0879 I-0.0034 J0.0248
N1795 G1 X-0.5861 Y1.0559 Z-0.0873
N1800 X-0.5832 Y1.057 Z-0.0866
N1805 X-0.5803 Y1.0577 Z-0.086
N1810 X-0.5697 Y1.0596 Z-0.0838
N1815 X-0.5608 Y1.0612 Z-0.082
N1820 X0.4243 Y1.2388
N1825 G2 X0.4537 Y1.2145 I0.0044 J-0.0246
N1830 G1 X0.4536 Y1.2117 Z-0.0826
N1835 X0.4532 Y1.209 Z-0.0831
N1840 X0.4525 Y1.2064 Z-0.0837
N1845 X0.4522 Y1.2057 Z-0.0838
N1850 G3 X0.446 Y1.1761 Z-0.09 I0.1365 J-0.0444
N1855 G1 X0.4456 Y1.1716
N1860 G3 X0.46 Y1.149 I0.0615 J0.0232
N1865 X0.4926 Y1.1228 I0.101 J0.0922
N1870 X0.5419 Y1.0998 I0.1274 J0.2091
N1875 X0.6087 Y1.0819 I0.1455 J0.4089
N1880 X0.6976 Y1.0692 I0.1641 J0.8343
N1885 X0.7798 Y1.0619 I0.4645 J4.7329
N1890 G1 X0.7886 Y1.0596
N1895 X0.7969 Y1.056
N1900 X0.8046 Y1.0512
N1905 X0.8183 Y1.0393
N1910 X0.8296 Y1.0251
N1915 G3 X0.8588 Y0.9877 I0.4994 J0.3606
N1920 X0.8887 Y0.96 I0.1412 J0.1221
N1925 X0.9069 Y0.9497 I0.0646 J0.0938
N1930 G1 X0.9238 Y0.9429
N1935 X0.9392 Y0.9333
N1940 X0.9531 Y0.9217
N1945 X0.9656 Y0.9085
N1950 X0.9767 Y0.8941
N1955 X0.9865 Y0.8789
N1960 X0.9952 Y0.863
N1965 X1.0029 Y0.8465
N1970 X1.0097 Y0.8297
N1975 X1.0156 Y0.8126
N1980 G2 X1.035 Y0.7298 I-0.5493 J-0.1722
N1985 X1.0468 Y0.6399 I-1.3211 J-0.2188
N1990 G1 X1.0487 Y0.6218
N1995 X1.0511 Y0.5981
N2000 G3 X1.0545 Y0.5885 Z-0.0879 I0.0248 J0.0034
N2005 G1 X1.0559 Y0.5858 Z-0.0873
N2010 X1.057 Y0.5829 Z-0.0866
N2015 X1.0577 Y0.5799 Z-0.086
N2020 X1.0597 Y0.5693 Z-0.0838
N2025 X1.0613 Y0.5605 Z-0.082
N2030 X1.2389 Y-0.4229
N2035 G2 X1.2146 Y-0.4524 I-0.0246 J-0.0044
N2040 G1 X1.2118 Y-0.4523 Z-0.0826
N2045 X1.2091 Y-0.4518 Z-0.0831
N2050 X1.2064 Y-0.4511 Z-0.0837
N2055 X1.2058 Y-0.4509 Z-0.0838
N2060 G3 X1.1762 Y-0.4446 Z-0.09 I-0.0445 J-0.1365
N2065 G1 X1.1717 Y-0.4443
N2070 G3 X1.1491 Y-0.4587 I0.0232 J-0.0615
N2075 X1.1228 Y-0.4913 I0.0921 J-0.101
N2080 X1.0999 Y-0.5405 I0.209 J-0.1274
N2085 X1.082 Y-0.6072 I0.4085 J-0.1455
N2090 X1.0693 Y-0.6955 I0.8294 J-0.1636
N2095 X1.0627 Y-0.7704 I2.8759 J-0.2943
N2100 G1 X1.0617 Y-0.7806
N2105 X1.0594 Y-0.7894
N2110 X1.0559 Y-0.7977
N2115 X1.0511 Y-0.8054
N2120 X1.0392 Y-0.8191
N2125 X1.0249 Y-0.8303
N2130 G3 X0.988 Y-0.8589 I0.3513 J-0.4898
N2135 X0.9602 Y-0.8887 I0.1213 J-0.1412
N2140 X0.9499 Y-0.9069 I0.0935 J-0.0648
N2145 G1 X0.943 Y-0.9237
N2150 X0.9335 Y-0.9391
N2155 X0.9218 Y-0.9531
N2160 X0.9086 Y-0.9655
N2165 X0.8943 Y-0.9766
N2170 X0.8791 Y-0.9865
N2175 X0.8631 Y-0.9952
N2180 X0.8467 Y-1.0029
N2185 X0.8299 Y-1.0097
N2190 X0.8127 Y-1.0156
N2195 G2 X0.73 Y-1.035 I-0.1722 J0.549
N2200 X0.64 Y-1.0467 I-0.2147 J1.2927
N2205 G1 X0.622 Y-1.0486
N2210 X0.6028 Y-1.0504
N2215 X0.6017 Y-1.0505
N2220 G3 X0.592 Y-1.0539 Z-0.0879 I0.0032 J-0.0248
N2225 G1 X0.5892 Y-1.0553 Z-0.0873
N2230 X0.5863 Y-1.0564 Z-0.0866
N2235 X0.5833 Y-1.0571 Z-0.086
N2240 X0.5728 Y-1.0588 Z-0.0838
N2245 X0.5639 Y-1.0603 Z-0.082
N2250 X-0.4478 Y-1.2285
N2255 G2 X-0.4769 Y-1.2043 I-0.0041 J0.0247
N2260 G1 X-0.4768 Y-1.2016 Z-0.0826
N2265 X-0.4764 Y-1.1989 Z-0.0831
N2270 X-0.4757 Y-1.1962 Z-0.0837
N2275 X-0.4755 Y-1.1956 Z-0.0838
N2280 G3 X-0.4695 Y-1.1659 Z-0.09 I-0.1368 J0.0434
N2285 G1 X-0.4692 Y-1.1625
N2290 G3 X-0.4823 Y-1.1409 I-0.0574 J-0.0199
N2295 X-0.512 Y-1.1158 I-0.0966 J-0.0844
N2300 X-0.5599 Y-1.0924 I-0.1251 J-0.1949
N2305 X-0.6262 Y-1.0738 I-0.1441 J-0.386
N2310 X-0.7099 Y-1.061 I-0.1659 J-0.8088
N2315 G1 X-0.7267 Y-1.0541
N2320 X-0.7419 Y-1.0443
N2325 X-0.756 Y-1.0328
N2330 X-0.7692 Y-1.0204
N2335 X-0.782 Y-1.0075
N2340 G3 X-0.8181 Y-0.9709 I-0.8071 J-0.7615
N2345 G1 X-0.8307 Y-0.9577
N2350 X-0.8425 Y-0.944
N2355 X-0.8535 Y-0.9295
N2360 X-0.8636 Y-0.9145
N2365 X-0.8729 Y-0.8989
N2370 X-0.8813 Y-0.8828
N2375 X-0.8889 Y-0.8664
N2380 G2 X-0.9101 Y-0.8053 I0.4116 J0.177
N2385 G3 X-0.933 Y-0.7876 I-0.0239 J-0.0072
N2390 G1 X-0.9369 Y-0.7874 Z-0.0897
N2395 X-0.9407 Y-0.7873 Z-0.0888
N2400 X-0.9444 Y-0.7871 Z-0.0873
N2405 X-0.9477 Y-0.787 Z-0.0852
N2410 X-0.9507 Y-0.7868 Z-0.0827
N2415 X-0.9532 Y-0.7867 Z-0.0797
N2420 X-0.9553 Z-0.0763
N2425 X-0.9568 Y-0.7866 Z-0.0727
N2430 X-0.9577 Z-0.0689
N2435 X-0.958 Y-0.7865 Z-0.065
N2440 G0 Z0.15
N2445 G1 X-1.1293 Y0.6691 F650.
N2450 G0 Z-0.04
N2455 G1 Z-0.065 F9.167
N2460 X-1.129 Y0.669 Z-0.0689
N2465 X-1.1282 Y0.6686 Z-0.0727
N2470 X-1.1268 Y0.668 Z-0.0763
N2475 X-1.1249 Y0.6672 Z-0.0797
N2480 X-1.1226 Y0.6662 Z-0.0827
N2485 X-1.1199 Y0.665 Z-0.0852
N2490 X-1.1168 Y0.6636 Z-0.0873
N2495 X-1.1135 Y0.6622 Z-0.0888
N2500 X-1.11 Y0.6606 Z-0.0897
N2505 X-1.1064 Y0.6591 Z-0.09
N2510 G3 X-1.0769 Y0.6498 I0.0576 J0.1315
N2515 G1 X-1.0758 Y0.6496
N2520 G3 X-1.0578 Y0.6566 I-0.0065 J0.0435
N2525 X-1.0445 Y0.6663 I-0.0401 J0.0686
N2530 G2 X-0.9831 Y0.7198 I4.6402 J-5.2728
N2535 G3 X-0.9286 Y0.7733 I-0.4018 J0.4632
N2540 X-0.9118 Y0.7936 I-14.0926 J11.6777
N2545 G1 X-0.8999 Y0.8073
N2550 X-0.8874 Y0.8204
N2555 X-0.874 Y0.8327
N2560 X-0.86 Y0.8442
N2565 X-0.8452 Y0.8547
N2570 X-0.8299 Y0.8645
N2575 X-0.822 Y0.8689
N2580 X-0.818 Y0.871
N2585 X-0.8149 Y0.8725
N2590 G3 X-0.8023 Y0.8986 I-0.012 J0.0219
N2595 G1 X-0.803 Y0.9025 Z-0.0897
N2600 X-0.8036 Y0.9063 Z-0.0888
N2605 X-0.8042 Y0.9098 Z-0.0873
N2610 X-0.8048 Y0.9131 Z-0.0852
N2615 X-0.8053 Y0.9161 Z-0.0827
N2620 X-0.8057 Y0.9186 Z-0.0797
N2625 X-0.8061 Y0.9206 Z-0.0763
N2630 X-0.8063 Y0.9221 Z-0.0727
N2635 X-0.8065 Y0.923 Z-0.0689
N2640 Y0.9233 Z-0.065
N2645 G0 Z0.15
N2650 G1 X0.6654 Y1.128 F650.
N2655 G0 Z-0.04
N2660 G1 Z-0.065 F9.167
N2665 X0.6653 Y1.1277 Z-0.0689
N2670 X0.665 Y1.1268 Z-0.0727
N2675 X0.6644 Y1.1254 Z-0.0763
N2680 X0.6636 Y1.1236 Z-0.0797
N2685 X0.6626 Y1.1212 Z-0.0827
N2690 X0.6614 Y1.1185 Z-0.0852
N2695 X0.6601 Y1.1154 Z-0.0873
N2700 X0.6587 Y1.112 Z-0.0888
N2705 X0.6572 Y1.1085 Z-0.0897
N2710 X0.6557 Y1.1049 Z-0.09
N2715 G3 X0.6468 Y1.0753 I0.1322 J-0.0558
N2720 G1 X0.6465 Y1.0731
N2725 G3 X0.6567 Y1.0516 I0.0521 J0.0116
N2730 X0.6642 Y1.0422 I0.0599 J0.0403
N2735 G2 X0.7252 Y0.9743 I-4.1586 J-3.7987
N2740 G3 X0.7722 Y0.9281 I0.4584 J0.419
N2745 X0.7927 Y0.9113 I2.0567 J2.4906
N2750 G1 X0.8065 Y0.8995
N2755 X0.8197 Y0.887
N2760 X0.8321 Y0.8738
N2765 X0.8436 Y0.8598
N2770 X0.8543 Y0.8451
N2775 X0.864 Y0.8298
N2780 X0.8685 Y0.8219
N2785 X0.8706 Y0.8179
N2790 X0.8722 Y0.8149
N2795 G3 X0.8983 Y0.8023 I0.0219 J0.0121
N2800 G1 X0.9022 Y0.803 Z-0.0897
N2805 X0.9059 Y0.8036 Z-0.0888
N2810 X0.9095 Y0.8043 Z-0.0873
N2815 X0.9128 Y0.8048 Z-0.0852
N2820 X0.9157 Y0.8053 Z-0.0827
N2825 X0.9182 Y0.8058 Z-0.0797
N2830 X0.9203 Y0.8061 Z-0.0763
N2835 X0.9217 Y0.8064 Z-0.0727
N2840 X0.9226 Y0.8065 Z-0.0689
N2845 X0.9229 Y0.8066 Z-0.065
N2850 G0 Z0.15
N2855 G1 X1.128 Y-0.6639 F650.
N2860 G0 Z-0.04
N2865 G1 Z-0.065 F9.167
N2870 X1.1277 Y-0.6638 Z-0.0689
N2875 X1.1269 Y-0.6634 Z-0.0727
N2880 X1.1255 Y-0.6628 Z-0.0763
N2885 X1.1236 Y-0.662 Z-0.0797
N2890 X1.1213 Y-0.6611 Z-0.0827
N2895 X1.1185 Y-0.6599 Z-0.0852
N2900 X1.1154 Y-0.6586 Z-0.0873
N2905 X1.1121 Y-0.6572 Z-0.0888
N2910 X1.1086 Y-0.6557 Z-0.0897
N2915 X1.105 Y-0.6542 Z-0.09
N2920 G3 X1.0754 Y-0.6453 I-0.0558 J-0.1322
N2925 G1 X1.0731 Y-0.645
N2930 G3 X1.0516 Y-0.6552 I0.0116 J-0.0521
N2935 X1.0412 Y-0.6637 I0.0434 J-0.064
N2940 G2 X0.9793 Y-0.7202 I-1.9618 J2.0844
N2945 G3 X0.929 Y-0.771 I0.4405 J-0.4867
N2950 X0.9121 Y-0.7915 I3.2695 J-2.7021
N2955 G1 X0.9004 Y-0.8054
N2960 X0.888 Y-0.8186
N2965 X0.8748 Y-0.8311
N2970 X0.8609 Y-0.8427
N2975 X0.8462 Y-0.8534
N2980 X0.831 Y-0.8633
N2985 G2 X0.8151 Y-0.872 I-0.1406 J0.238
N2990 G3 X0.8026 Y-0.8981 I0.0121 J-0.0219
N2995 G1 X0.8033 Y-0.902 Z-0.0897
N3000 X0.8039 Y-0.9058 Z-0.0888
N3005 X0.8045 Y-0.9093 Z-0.0873
N3010 X0.8051 Y-0.9126 Z-0.0852
N3015 X0.8056 Y-0.9156 Z-0.0827
N3020 X0.806 Y-0.9181 Z-0.0797
N3025 X0.8064 Y-0.9201 Z-0.0763
N3030 X0.8067 Y-0.9216 Z-0.0727
N3035 X0.8068 Y-0.9225 Z-0.0689
N3040 X0.8069 Y-0.9228 Z-0.065
N3045 G0 Z0.15
N3050 G1 X-0.6816 Y-1.1197 F650.
N3055 G0 Z-0.04
N3060 G1 Z-0.065 F9.167
N3065 X-0.6814 Y-1.1194 Z-0.0689
N3070 X-0.6811 Y-1.1186 Z-0.0727
N3075 X-0.6805 Y-1.1172 Z-0.0763
N3080 X-0.6797 Y-1.1153 Z-0.0797
N3085 X-0.6787 Y-1.113 Z-0.0827
N3090 X-0.6775 Y-1.1102 Z-0.0852
N3095 X-0.6762 Y-1.1071 Z-0.0873
N3100 X-0.6747 Y-1.1038 Z-0.0888
N3105 X-0.6732 Y-1.1003 Z-0.0897
N3110 X-0.6717 Y-1.0967 Z-0.09
N3115 G3 X-0.6625 Y-1.0672 I-0.1318 J0.0569
N3120 G1 X-0.6624 Y-1.0661
N3125 X-0.6627 Y-1.0644
N3130 X-0.6664 Y-1.051
N3135 X-0.6727 Y-1.0339
N3140 X-0.6736 Y-1.0319
N3145 X-0.6751 Y-1.0293
N3150 X-0.6769 Y-1.0269
N3155 X-0.6792 Y-1.025 Z-0.0898
N3160 X-0.6814 Y-1.0231 Z-0.0893
N3165 X-0.6836 Y-1.0213 Z-0.0884
N3170 X-0.6866 Y-1.0202 Z-0.0869
N3175 X-0.6894 Y-1.0193 Z-0.085
N3180 X-0.6919 Y-1.0184 Z-0.0827
N3185 X-0.6942 Y-1.0182 Z-0.0801
N3190 X-0.696 Y-1.018 Z-0.0772
N3195 X-0.6974 Y-1.0181 Z-0.0744
N3200 X-0.6984 Y-1.0182 Z-0.0713
N3205 X-0.699 Z-0.0682
N3210 X-0.6992 Z-0.065
N3215 G0 Z0.15
N3220 G1 X-1.3404 Y-1.3431 F650.
N3225 G0 Z-0.059
N3230 G1 Z-0.084 F9.167
N3235 X-1.3403 Y-1.3428 Z-0.0879
N3240 X-1.3401 Y-1.3419 Z-0.0917
N3245 X-1.3397 Y-1.3404 Z-0.0953
N3250 X-1.3392 Y-1.3385 Z-0.0987
N3255 X-1.3385 Y-1.336 Z-0.1017
N3260 X-1.3378 Y-1.3331 Z-0.1042
N3265 X-1.337 Y-1.3299 Z-0.1063
N3270 X-1.3361 Y-1.3263 Z-0.1078
N3275 X-1.3351 Y-1.3227 Z-0.1087
N3280 X-1.3342 Y-1.3189 Z-0.109
N3285 G3 X-1.3146 Y-1.1828 I-0.6183 J0.1584
N3290 G1 Y-1.1737
N3295 X-1.3118 Y-1.1558
N3300 X-1.3078 Y-1.1476
N3305 X-1.3033 Y-1.1363
N3310 X-1.2981 Y-1.1189
N3315 X-1.2942 Y-1.1012
N3320 G3 X-1.285 Y-1.0292 I-0.7503 J0.1328
N3325 X-1.2778 Y-0.8842 I-2.1847 J0.1803
N3330 X-1.2755 Y-0.6665 I-9.4661 J0.2105
N3335 X-1.2754 Y-0.5395 I-8.141 J0.0684
N3340 X-1.2872 Y-0.4132 I-0.8095 J-0.0117
N3345 X-1.3061 Y-0.3059 I-7.8267 J-1.3271
N3350 G2 X-1.3269 Y-0.1623 I2.1829 J0.3887
N3355 X-1.3331 Y0.0733 I1.4529 J0.1566
N3360 X-1.3072 Y0.271 I1.3783 J-0.0804
N3365 G3 X-1.2937 Y0.3423 I-2.393 J0.4907
N3370 X-1.2821 Y0.4505 I-1.0517 J0.1668
N3375 X-1.2767 Y0.6137 I-3.2352 J0.1884
N3380 X-1.2754 Y0.777 I-11.371 J0.1736
N3385 G2 X-1.275 Y0.8859 I24.1279 J-0.0424
N3390 X-1.2705 Y0.9583 I0.7086 J-0.0076
N3395 G1 X-1.2679 Y0.9763
N3400 X-1.2646 Y0.9941
N3405 X-1.2606 Y1.0118
N3410 X-1.2557 Y1.0293
N3415 X-1.2499 Y1.0465
N3420 X-1.2433 Y1.0634
N3425 X-1.2359 Y1.0799
N3430 X-1.2275 Y1.096
N3435 X-1.2183 Y1.1117
N3440 X-1.2081 Y1.1267
N3445 X-1.1972 Y1.1412
N3450 X-1.1854 Y1.1549
N3455 X-1.1728 Y1.168
N3460 X-1.1594 Y1.1803
N3465 X-1.1453 Y1.1917
N3470 X-1.1306 Y1.2023
N3475 X-1.1152 Y1.2119
N3480 X-1.0993 Y1.2206
N3485 X-1.0828 Y1.2282
N3490 X-1.0659 Y1.2349
N3495 X-1.0487 Y1.2407
N3500 X-1.0313 Y1.2456
N3505 G2 X-0.96 Y1.2593 I0.1508 J-0.5923
N3510 X-0.8335 Y1.2698 I0.1754 J-1.3496
N3515 X-0.6702 Y1.2737 I0.1863 J-4.3325
N3520 G1 X-0.6521 Y1.274
N3525 G3 X-0.5432 Y1.2748 I-0.2118 J33.6206
N3530 X-0.4168 Y1.2864 I-0.0123 J0.8295
N3535 X-0.3096 Y1.3054 I-1.2458 J7.3395
N3540 G2 X-0.1841 Y1.3244 I0.4222 J-2.3665
N3545 X0.0151 Y1.3352 I0.1816 J-1.5051
N3550 X0.2673 Y1.3079 I-0.0209 J-1.3723
N3555 G3 X0.3386 Y1.2943 I0.5297 J2.5748
N3560 G1 X0.3565 Y1.2915
N3565 G3 X0.4649 Y1.2813 I0.1629 J1.1509
N3570 X0.6281 Y1.2765 I0.1876 J3.6471
N3575 X0.864 Y1.2752 I0.2161 J17.6497
N3580 G2 X0.9365 Y1.2727 I0.0017 J-0.9999
N3585 G1 X0.9546 Y1.2709
N3590 X0.9726 Y1.2685
N3595 X0.9904 Y1.2654
N3600 X1.0081 Y1.2615
N3605 X1.0257 Y1.2568
N3610 X1.0429 Y1.2512
N3615 X1.0599 Y1.2448
N3620 X1.0765 Y1.2375
N3625 X1.0927 Y1.2293
N3630 X1.1085 Y1.2203
N3635 X1.1236 Y1.2103
N3640 X1.1382 Y1.1995
N3645 X1.1521 Y1.1879
N3650 X1.1654 Y1.1755
N3655 X1.1778 Y1.1622
N3660 X1.1894 Y1.1483
N3665 X1.2002 Y1.1337
N3670 X1.21 Y1.1184
N3675 X1.2189 Y1.1026
N3680 X1.2267 Y1.0862
N3685 X1.2336 Y1.0695
N3690 X1.2395 Y1.0523
N3695 X1.2446 Y1.0349
N3700 G2 X1.2588 Y0.9637 I-0.5727 J-0.1508
N3705 X1.2696 Y0.8372 I-1.3063 J-0.1754
N3710 X1.2737 Y0.674 I-4.1934 J-0.1864
N3715 G1 X1.2748 Y0.547
N3720 G3 X1.2858 Y0.4206 I0.8278 J0.0084
N3725 X1.3048 Y0.3133 I6.2621 J1.0525
N3730 G2 X1.324 Y0.1878 I-2.4669 J-0.4417
N3735 X1.3342 Y0.0612 I-1.602 J-0.1938
N3740 X1.3087 Y-0.2636 I-1.3722 J-0.0554
N3745 G3 X1.2949 Y-0.3349 I3.4026 J-0.696
N3750 X1.2826 Y-0.443 I1.0051 J-0.1689
N3755 X1.2769 Y-0.6062 I3.0458 J-0.1888
N3760 X1.2753 Y-0.8602 I15.7572 J-0.2268
N3765 G1 X1.275 Y-0.8784
N3770 G2 X1.2714 Y-0.9508 I-0.7282 J0.0007
N3775 G1 X1.2691 Y-0.9688
N3780 X1.2661 Y-0.9867
N3785 X1.2623 Y-1.0045
N3790 X1.2578 Y-1.0221
N3795 X1.2524 Y-1.0394
N3800 X1.2462 Y-1.0564
N3805 X1.2391 Y-1.0731
N3810 X1.2311 Y-1.0894
N3815 X1.2222 Y-1.1052
N3820 X1.2124 Y-1.1205
N3825 X1.2018 Y-1.1352
N3830 X1.1904 Y-1.1493
N3835 X1.1781 Y-1.1627
N3840 X1.165 Y-1.1753
N3845 X1.1513 Y-1.1871
N3850 X1.1368 Y-1.198
N3855 X1.1216 Y-1.208
N3860 X1.1059 Y-1.2171
N3865 X1.0897 Y-1.2252
N3870 X1.073 Y-1.2323
N3875 X1.0559 Y-1.2384
N3880 X1.0385 Y-1.2436
N3885 G2 X0.9675 Y-1.2582 I-0.1507 J0.5535
N3890 X0.8591 Y-1.2685 I-0.1667 J1.1836
N3895 X0.6959 Y-1.2734 I-0.1894 J3.5839
N3900 X0.5507 Y-1.2747 I-0.2098 J15.5137
N3905 G3 X0.4783 Y-1.2783 I0.0102 J-0.9432
N3910 G2 X0.4462 Y-1.281 I-0.051 J0.3997
N3915 G3 X0.3521 Y-1.2924 I0.1132 J-1.3306
N3920 G1 X0.2803 Y-1.3033
N3925 G2 X0.1181 Y-1.3223 I-0.3385 J2.1806
N3930 X-0.0632 Y-1.3246 I-0.1096 J1.4887
N3935 X-0.2789 Y-1.2963 I0.0725 J1.3861
N3940 G3 X-0.3445 Y-1.2843 I-0.3317 J-1.6361
N3945 X-0.4643 Y-1.2727 I-0.1798 J-1.2296
N3950 X-0.608 Y-1.2679 I-0.1774 J-3.1782
N3955 X-0.862 Y-1.2663 I-0.2313 J-15.7248
N3960 G2 X-0.9345 Y-1.2638 I-0.0012 J1.0179
N3965 G1 X-0.9526 Y-1.262
N3970 X-0.9706 Y-1.2595
N3975 X-0.9884 Y-1.2564
N3980 X-1.0062 Y-1.2524
N3985 X-1.0237 Y-1.2477
N3990 X-1.0409 Y-1.2421
N3995 X-1.0579 Y-1.2356
N4000 X-1.0744 Y-1.2282
N4005 X-1.0905 Y-1.2198
N4010 X-1.1039 Y-1.2076
N4015 X-1.1151 Y-1.1932
N4020 X-1.1243 Y-1.1776
N4025 X-1.132 Y-1.1612
N4030 X-1.1383 Y-1.1442
N4035 X-1.1436 Y-1.1268
N4040 X-1.1479 Y-1.1092
N4045 G2 X-1.1571 Y-1.0521 I0.5526 J0.1182
N4050 X-1.164 Y-0.9435 I1.2833 J0.1369
N4055 X-1.1658 Y-0.8346 I3.9878 J0.1205
N4060 X-1.1662 Y-0.635 I31.0262 J0.158
N4065 G3 X-1.171 Y-0.5074 I-1.7501 J-0.0018
N4070 X-1.1902 Y-0.3516 I-2.3017 J-0.2046
N4075 G2 X-1.2079 Y-0.2258 I6.8491 J1.0268
N4080 X-1.2213 Y-0.0631 I1.8247 J0.2322
N4085 X-1.2061 Y0.1901 I1.3635 J0.0454
N4090 G3 X-1.193 Y0.2799 I-34.5659 J5.1148
N4095 X-1.1725 Y0.5148 I-2.3434 J0.3224
N4100 X-1.1678 Y0.6962 I-5.29 J0.2269
N4105 G2 X-1.1663 Y0.8232 I30.7905 J-0.3195
N4110 X-1.162 Y0.8888 I0.8235 J-0.0206
N4115 G1 X-1.1596 Y0.9068
N4120 X-1.1566 Y0.9247
N4125 X-1.1526 Y0.9424
N4130 X-1.1477 Y0.9599
N4135 X-1.1418 Y0.977
N4140 X-1.1347 Y0.9937
N4145 X-1.1264 Y1.0099
N4150 X-1.1168 Y1.0253
N4155 X-1.1059 Y1.0398
N4160 X-1.0938 Y1.0533
N4165 X-1.0805 Y1.0657
N4170 X-1.0663 Y1.077
N4175 X-1.0513 Y1.0872
N4180 X-1.0357 Y1.0964
N4185 X-1.0195 Y1.1047
N4190 X-1.003 Y1.112
N4195 X-0.986 Y1.1186
N4200 G2 X-0.9162 Y1.138 I0.1749 J-0.4929
N4205 X-0.8085 Y1.1536 I0.1882 J-0.9208
N4210 X-0.6636 Y1.1619 I0.1999 J-2.2176
N4215 G3 X-0.5686 Y1.1654 I-0.2178 J7.2395
N4220 X-0.4018 Y1.1824 I-0.0971 J1.7784
N4225 X-0.312 Y1.1957 I-0.8927 J6.3386
N4230 G2 X-0.1681 Y1.2143 I0.4529 J-2.9458
N4235 X-0.005 Y1.222 I0.1567 J-1.5787
N4240 X0.1937 Y1.2056 I-0.0131 J-1.3712
N4245 G3 X0.2835 Y1.1925 I3.4817 J23.5179
N4250 X0.5003 Y1.1731 I0.3154 J2.3116
N4255 X0.718 Y1.1676 I0.2501 J5.5613
N4260 G1 X0.8087 Y1.1665
N4265 G2 X0.871 Y1.1637 I-0.0138 J-0.9924
N4270 G1 X0.8891 Y1.162
N4275 X0.9071 Y1.1596
N4280 X0.9249 Y1.1565
N4285 X0.9426 Y1.1526
N4290 X0.9601 Y1.1477
N4295 X0.9772 Y1.1417
N4300 X0.9939 Y1.1346
N4305 X1.0101 Y1.1262
N4310 X1.0254 Y1.1166
N4315 X1.04 Y1.1057
N4320 X1.0534 Y1.0936
N4325 X1.0658 Y1.0803
N4330 X1.0771 Y1.0661
N4335 X1.0874 Y1.0512
N4340 X1.0965 Y1.0355
N4345 X1.1048 Y1.0193
N4350 X1.1121 Y1.0027
N4355 X1.1187 Y0.9858
N4360 G2 X1.1381 Y0.9159 I-0.4937 J-0.1748
N4365 X1.1536 Y0.8082 I-0.9227 J-0.1882
N4370 X1.1619 Y0.6633 I-2.2231 J-0.2
N4375 G3 X1.1655 Y0.5673 I7.1908 J0.2165
N4380 X1.1822 Y0.4031 I1.7836 J0.0991
N4385 X1.1982 Y0.2954 I10.5525 J1.5096
N4390 G2 X1.2158 Y0.1514 I-2.6238 J-0.3943
N4395 X1.2213 Y-0.0299 I-1.5053 J-0.1361
N4400 X1.2058 Y-0.1924 I-1.3948 J0.0508
N4405 G3 X1.1902 Y-0.3001 I9.236 J-1.3925
N4410 X1.1724 Y-0.5171 I2.4035 J-0.3066
N4415 X1.1676 Y-0.7166 I5.7549 J-0.2377
N4420 G1 X1.1666 Y-0.8073
N4425 G2 X1.1638 Y-0.8696 I-1.0082 J0.0131
N4430 G1 X1.162 Y-0.8888
N4435 X1.1596 Y-0.9068
N4440 X1.1566 Y-0.9247
N4445 X1.1526 Y-0.9424
N4450 X1.1477 Y-0.9599
N4455 X1.1418 Y-0.977
N4460 X1.1347 Y-0.9937
N4465 X1.1263 Y-1.0099
N4470 X1.1168 Y-1.0253
N4475 X1.1059 Y-1.0398
N4480 X1.0937 Y-1.0533
N4485 X1.0805 Y-1.0657
N4490 X1.0663 Y-1.077
N4495 X1.0513 Y-1.0872
N4500 X1.0357 Y-1.0964
N4505 X1.0195 Y-1.1047
N4510 X1.0029 Y-1.112
N4515 X0.986 Y-1.1186
N4520 G2 X0.9161 Y-1.138 I-0.1749 J0.4932
N4525 X0.8085 Y-1.1536 I-0.1882 J0.9213
N4530 X0.6636 Y-1.1619 I-0.1999 J2.2178
N4535 G3 X0.5638 Y-1.1656 I0.2012 J-6.7562
N4540 X0.3544 Y-1.1846 I0.1212 J-2.501
N4545 G2 X0.2283 Y-1.2003 I-1.6221 J12.4861
N4550 X0.0655 Y-1.2127 I-0.2358 J2.0224
N4555 X-0.1877 Y-1.1974 I-0.0428 J1.3895
N4560 G3 X-0.2955 Y-1.1819 I-1.4502 J-9.7325
N4565 X-0.5057 Y-1.1641 I-0.3168 J-2.4856
N4570 X-0.7234 Y-1.1586 I-0.2532 J-5.7478
N4575 G2 X-0.8141 Y-1.1575 I0.2148 J20.3644
N4580 X-0.8921 Y-1.1524 I0.0132 J0.8157
N4585 G1 X-0.9101 Y-1.1498
N4590 X-0.9273 Y-1.144
N4595 X-0.9432 Y-1.1353
N4600 X-0.9504 Y-1.1298
N4605 X-0.9566 Y-1.1232
N4610 X-0.9618 Y-1.1157
N4615 X-0.9657 Y-1.1075
N4620 X-0.9683 Y-1.0989
N4625 X-0.9696 Y-1.0899
N4630 X-0.9694 Y-1.0808
N4635 X-0.9678 Y-1.0719
N4640 X-0.9619 Y-1.0547
N4645 G3 X-0.9454 Y-1.0229 I-0.0799 J0.0617
N4650 X-0.944 Y-1.0006 I-0.0521 J0.0145
N4655 G1 X-0.9444 Y-0.9992
N4660 X-0.9449 Y-0.9977
N4665 X-0.9453 Y-0.9963
N4670 X-0.9459 Y-0.9949
N4675 X-0.9466 Y-0.9936
N4680 X-0.9474 Y-0.9923
N4685 X-0.9623 Y-0.9819
N4690 X-0.9753 Y-0.9693
N4695 X-0.9867 Y-0.9552
N4700 X-0.9966 Y-0.94
N4705 X-1.0052 Y-0.924
N4710 X-1.0125 Y-0.9074
N4715 X-1.0189 Y-0.8904
N4720 X-1.0244 Y-0.8731
N4725 G2 X-1.0396 Y-0.8022 I0.5293 J0.1505
N4730 X-1.0496 Y-0.7063 I1.1284 J0.1663
N4735 X-1.0563 Y-0.5977 I10.6049 J0.7102
N4740 G1 X-1.0566 Y-0.5943
N4745 G3 X-1.0597 Y-0.5845 Z-0.1069 I-0.0249 J-0.0025
N4750 G1 X-1.061 Y-0.582 Z-0.1063
N4755 X-1.0619 Y-0.5793 Z-0.1057
N4760 X-1.0626 Y-0.5765 Z-0.1051
N4765 X-1.0645 Y-0.5653 Z-0.1028
N4770 X-1.066 Y-0.5564 Z-0.101
N4775 X-1.2378 Y0.4387
N4780 G2 X-1.2136 Y0.468 I0.0246 J0.0043
N4785 G1 X-1.2109 Y0.4679 Z-0.1016
N4790 X-1.2081 Y0.4675 Z-0.1021
N4795 X-1.2055 Y0.4668 Z-0.1027
N4800 X-1.2048 Y0.4666 Z-0.1028
N4805 G3 X-1.1752 Y0.4604 Z-0.109 I0.0437 J0.1367
N4810 G1 X-1.1741
N4815 G3 X-1.1555 Y0.4697 I-0.0114 J0.0461
N4820 X-1.1306 Y0.4955 I-0.0664 J0.0888
N4825 X-1.1063 Y0.5396 I-0.165 J0.1198
N4830 X-1.0862 Y0.6027 I-0.3345 J0.1411
N4835 X-1.0721 Y0.6849 I-0.6687 J0.157
N4840 X-1.0634 Y0.7717 I-2.2889 J0.2746
N4845 G1 X-1.0624 Y0.7808
N4850 X-1.0601 Y0.7896
N4855 X-1.0565 Y0.7979
N4860 X-1.0516 Y0.8055
N4865 X-1.0396 Y0.8191
N4870 X-1.0253 Y0.8303
N4875 G3 X-0.9883 Y0.8589 I-0.3507 J0.4916
N4880 X-0.9604 Y0.8886 I-0.121 J0.1417
N4885 X-0.9501 Y0.9068 I-0.0935 J0.0652
N4890 G1 X-0.9431 Y0.9236
N4895 X-0.9336 Y0.939
N4900 X-0.922 Y0.953
N4905 X-0.9088 Y0.9655
N4910 X-0.8944 Y0.9766
N4915 X-0.8792 Y0.9864
N4920 X-0.8633 Y0.9952
N4925 X-0.8469 Y1.0029
N4930 X-0.83 Y1.0096
N4935 X-0.8129 Y1.0156
N4940 G2 X-0.7302 Y1.035 I0.1721 J-0.5482
N4945 X-0.6402 Y1.0468 I0.2186 J-1.3185
N4950 G1 X-0.6222 Y1.0487
N4955 X-0.5985 Y1.051
N4960 G3 X-0.5888 Y1.0545 Z-0.1069 I-0.0034 J0.0248
N4965 G1 X-0.5861 Y1.0559 Z-0.1063
N4970 X-0.5832 Y1.057 Z-0.1056
N4975 X-0.5803 Y1.0577 Z-0.105
N4980 X-0.5697 Y1.0596 Z-0.1028
N4985 X-0.5608 Y1.0612 Z-0.101
N4990 X0.4243 Y1.2388
N4995 G2 X0.4537 Y1.2145 I0.0044 J-0.0246
N5000 G1 X0.4536 Y1.2117 Z-0.1016
N5005 X0.4532 Y1.209 Z-0.1021
N5010 X0.4525 Y1.2064 Z-0.1027
N5015 X0.4522 Y1.2057 Z-0.1028
N5020 G3 X0.446 Y1.1761 Z-0.109 I0.1365 J-0.0444
N5025 G1 X0.4456 Y1.1716
N5030 G3 X0.46 Y1.149 I0.0615 J0.0232
N5035 X0.4926 Y1.1228 I0.101 J0.0922
N5040 X0.5419 Y1.0998 I0.1274 J0.2091
N5045 X0.6087 Y1.0819 I0.1455 J0.4089
N5050 X0.6976 Y1.0692 I0.1641 J0.8343
N5055 X0.7798 Y1.0619 I0.4645 J4.7329
N5060 G1 X0.7886 Y1.0596
N5065 X0.7969 Y1.056
N5070 X0.8046 Y1.0512
N5075 X0.8183 Y1.0393
N5080 X0.8296 Y1.0251
N5085 G3 X0.8588 Y0.9877 I0.4994 J0.3606
N5090 X0.8887 Y0.96 I0.1412 J0.1221
N5095 X0.9069 Y0.9497 I0.0646 J0.0938
N5100 G1 X0.9238 Y0.9429
N5105 X0.9392 Y0.9333
N5110 X0.9531 Y0.9217
N5115 X0.9656 Y0.9085
N5120 X0.9767 Y0.8941
N5125 X0.9865 Y0.8789
N5130 X0.9952 Y0.863
N5135 X1.0029 Y0.8465
N5140 X1.0097 Y0.8297
N5145 X1.0156 Y0.8126
N5150 G2 X1.035 Y0.7298 I-0.5493 J-0.1722
N5155 X1.0468 Y0.6399 I-1.3211 J-0.2188
N5160 G1 X1.0487 Y0.6218
N5165 X1.0511 Y0.5981
N5170 G3 X1.0545 Y0.5885 Z-0.1069 I0.0248 J0.0034
N5175 G1 X1.0559 Y0.5858 Z-0.1063
N5180 X1.057 Y0.5829 Z-0.1056
N5185 X1.0577 Y0.5799 Z-0.105
N5190 X1.0597 Y0.5693 Z-0.1028
N5195 X1.0613 Y0.5605 Z-0.101
N5200 X1.2389 Y-0.4229
N5205 G2 X1.2146 Y-0.4524 I-0.0246 J-0.0044
N5210 G1 X1.2118 Y-0.4523 Z-0.1016
N5215 X1.2091 Y-0.4518 Z-0.1021
N5220 X1.2064 Y-0.4511 Z-0.1027
N5225 X1.2058 Y-0.4509 Z-0.1028
N5230 G3 X1.1762 Y-0.4446 Z-0.109 I-0.0445 J-0.1365
N5235 G1 X1.1717 Y-0.4443
N5240 G3 X1.1491 Y-0.4587 I0.0232 J-0.0615
N5245 X1.1228 Y-0.4913 I0.0921 J-0.101
N5250 X1.0999 Y-0.5405 I0.209 J-0.1274
N5255 X1.082 Y-0.6072 I0.4085 J-0.1455
N5260 X1.0693 Y-0.6955 I0.8294 J-0.1636
N5265 X1.0627 Y-0.7704 I2.8759 J-0.2943
N5270 G1 X1.0617 Y-0.7806
N5275 X1.0594 Y-0.7894
N5280 X1.0559 Y-0.7977
N5285 X1.0511 Y-0.8054
N5290 X1.0392 Y-0.8191
N5295 X1.0249 Y-0.8303
N5300 G3 X0.988 Y-0.8589 I0.3513 J-0.4898
N5305 X0.9602 Y-0.8887 I0.1213 J-0.1412
N5310 X0.9499 Y-0.9069 I0.0935 J-0.0648
N5315 G1 X0.943 Y-0.9237
N5320 X0.9335 Y-0.9391
N5325 X0.9218 Y-0.9531
N5330 X0.9086 Y-0.9655
N5335 X0.8943 Y-0.9766
N5340 X0.8791 Y-0.9865
N5345 X0.8631 Y-0.9952
N5350 X0.8467 Y-1.0029
N5355 X0.8299 Y-1.0097
N5360 X0.8127 Y-1.0156
N5365 G2 X0.73 Y-1.035 I-0.1722 J0.549
N5370 X0.64 Y-1.0467 I-0.2147 J1.2927
N5375 G1 X0.622 Y-1.0486
N5380 X0.6028 Y-1.0504
N5385 X0.6017 Y-1.0505
N5390 G3 X0.592 Y-1.0539 Z-0.1069 I0.0032 J-0.0248
N5395 G1 X0.5892 Y-1.0553 Z-0.1063
N5400 X0.5863 Y-1.0564 Z-0.1056
N5405 X0.5833 Y-1.0571 Z-0.105
N5410 X0.5728 Y-1.0588 Z-0.1028
N5415 X0.5639 Y-1.0603 Z-0.101
N5420 X-0.4478 Y-1.2285
N5425 G2 X-0.4769 Y-1.2043 I-0.0041 J0.0247
N5430 G1 X-0.4768 Y-1.2016 Z-0.1016
N5435 X-0.4764 Y-1.1989 Z-0.1021
N5440 X-0.4757 Y-1.1962 Z-0.1027
N5445 X-0.4755 Y-1.1956 Z-0.1028
N5450 G3 X-0.4695 Y-1.1659 Z-0.109 I-0.1368 J0.0434
N5455 G1 X-0.4692 Y-1.1625
N5460 G3 X-0.4823 Y-1.1409 I-0.0574 J-0.0199
N5465 X-0.512 Y-1.1158 I-0.0966 J-0.0844
N5470 X-0.5599 Y-1.0924 I-0.1251 J-0.1949
N5475 X-0.6262 Y-1.0738 I-0.1441 J-0.386
N5480 X-0.7099 Y-1.061 I-0.1659 J-0.8088
N5485 G1 X-0.7267 Y-1.0541
N5490 X-0.7419 Y-1.0443
N5495 X-0.756 Y-1.0328
N5500 X-0.7692 Y-1.0204
N5505 X-0.782 Y-1.0075
N5510 G3 X-0.8181 Y-0.9709 I-0.8071 J-0.7615
N5515 G1 X-0.8307 Y-0.9577
N5520 X-0.8425 Y-0.944
N5525 X-0.8535 Y-0.9295
N5530 X-0.8636 Y-0.9145
N5535 X-0.8729 Y-0.8989
N5540 X-0.8813 Y-0.8828
N5545 X-0.8889 Y-0.8664
N5550 G2 X-0.9101 Y-0.8053 I0.4116 J0.177
N5555 G3 X-0.933 Y-0.7876 I-0.0239 J-0.0072
N5560 G1 X-0.9369 Y-0.7874 Z-0.1087
N5565 X-0.9407 Y-0.7873 Z-0.1078
N5570 X-0.9444 Y-0.7871 Z-0.1063
N5575 X-0.9477 Y-0.787 Z-0.1042
N5580 X-0.9507 Y-0.7868 Z-0.1017
N5585 X-0.9532 Y-0.7867 Z-0.0987
N5590 X-0.9553 Z-0.0953
N5595 X-0.9568 Y-0.7866 Z-0.0917
N5600 X-0.9577 Z-0.0879
N5605 X-0.958 Y-0.7865 Z-0.084
N5610 G0 Z0.15
N5615 G1 X-1.1293 Y0.6691 F650.
N5620 G0 Z-0.059
N5625 G1 Z-0.084 F9.167
N5630 X-1.129 Y0.669 Z-0.0879
N5635 X-1.1282 Y0.6686 Z-0.0917
N5640 X-1.1268 Y0.668 Z-0.0953
N5645 X-1.1249 Y0.6672 Z-0.0987
N5650 X-1.1226 Y0.6662 Z-0.1017
N5655 X-1.1199 Y0.665 Z-0.1042
N5660 X-1.1168 Y0.6636 Z-0.1063
N5665 X-1.1135 Y0.6622 Z-0.1078
N5670 X-1.11 Y0.6606 Z-0.1087
N5675 X-1.1064 Y0.6591 Z-0.109
N5680 G3 X-1.0769 Y0.6498 I0.0576 J0.1315
N5685 G1 X-1.0758 Y0.6496
N5690 G3 X-1.0578 Y0.6566 I-0.0065 J0.0435
N5695 X-1.0445 Y0.6663 I-0.0401 J0.0686
N5700 G2 X-0.9831 Y0.7198 I4.6402 J-5.2728
N5705 G3 X-0.9286 Y0.7733 I-0.4018 J0.4632
N5710 X-0.9118 Y0.7936 I-14.0926 J11.6777
N5715 G1 X-0.8999 Y0.8073
N5720 X-0.8874 Y0.8204
N5725 X-0.874 Y0.8327
N5730 X-0.86 Y0.8442
N5735 X-0.8452 Y0.8547
N5740 X-0.8299 Y0.8645
N5745 X-0.822 Y0.8689
N5750 X-0.818 Y0.871
N5755 X-0.8149 Y0.8725
N5760 G3 X-0.8023 Y0.8986 I-0.012 J0.0219
N5765 G1 X-0.803 Y0.9025 Z-0.1087
N5770 X-0.8036 Y0.9063 Z-0.1078
N5775 X-0.8042 Y0.9098 Z-0.1063
N5780 X-0.8048 Y0.9131 Z-0.1042
N5785 X-0.8053 Y0.9161 Z-0.1017
N5790 X-0.8057 Y0.9186 Z-0.0987
N5795 X-0.8061 Y0.9206 Z-0.0953
N5800 X-0.8063 Y0.9221 Z-0.0917
N5805 X-0.8065 Y0.923 Z-0.0879
N5810 Y0.9233 Z-0.084
N5815 G0 Z0.15
N5820 G1 X0.6654 Y1.128 F650.
N5825 G0 Z-0.059
N5830 G1 Z-0.084 F9.167
N5835 X0.6653 Y1.1277 Z-0.0879
N5840 X0.665 Y1.1268 Z-0.0917
N5845 X0.6644 Y1.1254 Z-0.0953
N5850 X0.6636 Y1.1236 Z-0.0987
N5855 X0.6626 Y1.1212 Z-0.1017
N5860 X0.6614 Y1.1185 Z-0.1042
N5865 X0.6601 Y1.1154 Z-0.1063
N5870 X0.6587 Y1.112 Z-0.1078
N5875 X0.6572 Y1.1085 Z-0.1087
N5880 X0.6557 Y1.1049 Z-0.109
N5885 G3 X0.6468 Y1.0753 I0.1322 J-0.0558
N5890 G1 X0.6465 Y1.0731
N5895 G3 X0.6567 Y1.0516 I0.0521 J0.0116
N5900 X0.6642 Y1.0422 I0.0599 J0.0403
N5905 G2 X0.7252 Y0.9743 I-4.1586 J-3.7987
N5910 G3 X0.7722 Y0.9281 I0.4584 J0.419
N5915 X0.7927 Y0.9113 I2.0567 J2.4906
N5920 G1 X0.8065 Y0.8995
N5925 X0.8197 Y0.887
N5930 X0.8321 Y0.8738
N5935 X0.8436 Y0.8598
N5940 X0.8543 Y0.8451
N5945 X0.864 Y0.8298
N5950 X0.8685 Y0.8219
N5955 X0.8706 Y0.8179
N5960 X0.8722 Y0.8149
N5965 G3 X0.8983 Y0.8023 I0.0219 J0.0121
N5970 G1 X0.9022 Y0.803 Z-0.1087
N5975 X0.9059 Y0.8036 Z-0.1078
N5980 X0.9095 Y0.8043 Z-0.1063
N5985 X0.9128 Y0.8048 Z-0.1042
N5990 X0.9157 Y0.8053 Z-0.1017
N5995 X0.9182 Y0.8058 Z-0.0987
N6000 X0.9203 Y0.8061 Z-0.0953
N6005 X0.9217 Y0.8064 Z-0.0917
N6010 X0.9226 Y0.8065 Z-0.0879
N6015 X0.9229 Y0.8066 Z-0.084
N6020 G0 Z0.15
N6025 G1 X1.128 Y-0.6639 F650.
N6030 G0 Z-0.059
N6035 G1 Z-0.084 F9.167
N6040 X1.1277 Y-0.6638 Z-0.0879
N6045 X1.1269 Y-0.6634 Z-0.0917
N6050 X1.1255 Y-0.6628 Z-0.0953
N6055 X1.1236 Y-0.662 Z-0.0987
N6060 X1.1213 Y-0.6611 Z-0.1017
N6065 X1.1185 Y-0.6599 Z-0.1042
N6070 X1.1154 Y-0.6586 Z-0.1063
N6075 X1.1121 Y-0.6572 Z-0.1078
N6080 X1.1086 Y-0.6557 Z-0.1087
N6085 X1.105 Y-0.6542 Z-0.109
N6090 G3 X1.0754 Y-0.6453 I-0.0558 J-0.1322
N6095 G1 X1.0731 Y-0.645
N6100 G3 X1.0516 Y-0.6552 I0.0116 J-0.0521
N6105 X1.0412 Y-0.6637 I0.0434 J-0.064
N6110 G2 X0.9793 Y-0.7202 I-1.9618 J2.0844
N6115 G3 X0.929 Y-0.771 I0.4405 J-0.4867
N6120 X0.9121 Y-0.7915 I3.2695 J-2.7021
N6125 G1 X0.9004 Y-0.8054
N6130 X0.888 Y-0.8186
N6135 X0.8748 Y-0.8311
N6140 X0.8609 Y-0.8427
N6145 X0.8462 Y-0.8534
N6150 X0.831 Y-0.8633
N6155 G2 X0.8151 Y-0.872 I-0.1406 J0.238
N6160 G3 X0.8026 Y-0.8981 I0.0121 J-0.0219
N6165 G1 X0.8033 Y-0.902 Z-0.1087
N6170 X0.8039 Y-0.9058 Z-0.1078
N6175 X0.8045 Y-0.9093 Z-0.1063
N6180 X0.8051 Y-0.9126 Z-0.1042
N6185 X0.8056 Y-0.9156 Z-0.1017
N6190 X0.806 Y-0.9181 Z-0.0987
N6195 X0.8064 Y-0.9201 Z-0.0953
N6200 X0.8067 Y-0.9216 Z-0.0917
N6205 X0.8068 Y-0.9225 Z-0.0879
N6210 X0.8069 Y-0.9228 Z-0.084
N6215 G0 Z0.15
N6220 G1 X-0.6816 Y-1.1197 F650.
N6225 G0 Z-0.059
N6230 G1 Z-0.084 F9.167
N6235 X-0.6814 Y-1.1194 Z-0.0879
N6240 X-0.6811 Y-1.1186 Z-0.0917
N6245 X-0.6805 Y-1.1172 Z-0.0953
N6250 X-0.6797 Y-1.1153 Z-0.0987
N6255 X-0.6787 Y-1.113 Z-0.1017
N6260 X-0.6775 Y-1.1102 Z-0.1042
N6265 X-0.6762 Y-1.1071 Z-0.1063
N6270 X-0.6747 Y-1.1038 Z-0.1078
N6275 X-0.6732 Y-1.1003 Z-0.1087
N6280 X-0.6717 Y-1.0967 Z-0.109
N6285 G3 X-0.6625 Y-1.0672 I-0.1318 J0.0569
N6290 G1 X-0.6624 Y-1.0661
N6295 X-0.6627 Y-1.0644
N6300 X-0.6664 Y-1.051
N6305 X-0.6727 Y-1.0339
N6310 X-0.6736 Y-1.0319
N6315 G3 X-0.6992 Y-1.0182 I-0.0224 J-0.0111
N6320 G1 X-0.7031 Y-1.0187 Z-0.1087
N6325 X-0.7069 Y-1.0192 Z-0.1078
N6330 X-0.7105 Y-1.0197 Z-0.1063
N6335 X-0.7138 Y-1.0201 Z-0.1042
N6340 X-0.7168 Y-1.0205 Z-0.1017
N6345 X-0.7193 Y-1.0208 Z-0.0987
N6350 X-0.7213 Y-1.0211 Z-0.0953
N6355 X-0.7228 Y-1.0213 Z-0.0917
N6360 X-0.7237 Y-1.0214 Z-0.0879
N6365 X-0.724 Z-0.084
N6370 G0 Z0.65
N6375 G1 X-1.0503 Y-0.6832 F650.
N6380 G0 Z-0.04
N6385 G1 Z-0.065 F9.167
N6390 X-1.0502 Y-0.6829 Z-0.0689
N6395 X-1.05 Y-0.6821 Z-0.0727
N6400 X-1.0496 Y-0.6806 Z-0.0763
N6405 X-1.0491 Y-0.6786 Z-0.0797
N6410 X-1.0485 Y-0.6761 Z-0.0827
N6415 X-1.0477 Y-0.6733 Z-0.0852
N6420 X-1.0469 Y-0.67 Z-0.0873
N6425 X-1.046 Y-0.6665 Z-0.0888
N6430 X-1.0451 Y-0.6628 Z-0.0897
N6435 X-1.0441 Y-0.659 Z-0.09
N6440 G3 X-1.0245 Y-0.5229 I-0.6183 J0.1584
N6445 G1 Y-0.5139
N6450 X-1.0217 Y-0.4959
N6455 X-1.0184 Y-0.4893
N6460 X-1.015 Y-0.4809
N6465 X-1.0118 Y-0.4705
N6470 X-1.0089 Y-0.4576
N6475 X-1.0064 Y-0.4396
N6480 X-1.0052 Y-0.4215
N6485 Y-0.4034
N6490 G3 X-1.0117 Y-0.3311 I-0.6862 J-0.0251
N6495 X-1.0276 Y-0.2234 I-8.2121 J-1.1632
N6500 G2 X-1.0428 Y-0.0791 I1.6906 J0.2509
N6505 X-1.0406 Y0.0841 I1.1768 J0.0658
N6510 X-0.9415 Y0.4499 I1.0544 J-0.0893
N6515 X-0.1929 Y1.0255 I0.9418 J-0.4504
N6520 X1.0334 Y-0.1444 I0.1929 J-1.0255
N6525 X-0.4666 Y-0.9333 I-1.0334 J0.1444
N6530 G1 X-0.4828 Y-0.925
N6535 G2 X-0.6029 Y-0.8436 I0.9107 J1.4741
N6540 X-0.7518 Y-0.711 I0.6916 J0.9263
N6545 X-0.8434 Y-0.5986 I0.7544 J0.7083
N6550 G1 X-0.8517 Y-0.5824
N6555 X-0.8585 Y-0.5656
N6560 X-0.8641 Y-0.5483
N6565 X-0.8687 Y-0.5308
N6570 G2 X-0.8835 Y-0.4505 I0.9384 J0.2146
N6575 X-0.9152 Y-0.2351 I21.0524 J3.2112
N6580 X-0.9281 Y-0.1087 I2.0146 J0.2698
N6585 X-0.929 Y0.0364 I1.2182 J0.0797
N6590 X-0.8932 Y0.2507 I0.9974 J-0.0564
N6595 X-0.6827 Y0.6275 I0.8996 J-0.2554
N6600 X-0.5622 Y0.7374 I0.6884 J-0.6342
N6605 X0.9235 Y0.0825 I0.5622 J-0.7374
N6610 X-0.3231 Y-0.8691 I-0.9236 J-0.0825
N6615 X-0.4216 Y-0.823 I0.2697 J0.7042
N6620 X-0.6768 Y-0.6215 I0.4823 J0.8735
N6625 G1 X-0.6883 Y-0.6075
N6630 X-0.6989 Y-0.5928
N6635 X-0.7086 Y-0.5774
N6640 X-0.7175 Y-0.5616
N6645 X-0.7215 Y-0.5535
N6650 X-0.7234 Y-0.5494
N6655 X-0.7244 Y-0.5473
N6660 X-0.7258 Y-0.5447
N6665 X-0.7276 Y-0.5424
N6670 X-0.7299 Y-0.5404 Z-0.0898
N6675 X-0.7322 Y-0.5385 Z-0.0893
N6680 X-0.7343 Y-0.5367 Z-0.0884
N6685 X-0.7374 Y-0.5356 Z-0.0869
N6690 X-0.7401 Y-0.5346 Z-0.085
N6695 X-0.7426 Y-0.5337 Z-0.0827
N6700 X-0.7449 Y-0.5335 Z-0.0801
N6705 X-0.7468 Y-0.5334 Z-0.0771
N6710 X-0.7481 Y-0.5335 Z-0.0743
N6715 X-0.7491 Z-0.0713
N6720 X-0.7497 Y-0.5336 Z-0.0682
N6725 X-0.7499 Z-0.065
N6730 G0 Z0.15
N6735 G1 X-1.0503 Y-0.6832 F650.
N6740 G0 Z-0.059
N6745 G1 Z-0.084 F9.167
N6750 X-1.0502 Y-0.6829 Z-0.0879
N6755 X-1.05 Y-0.6821 Z-0.0917
N6760 X-1.0496 Y-0.6806 Z-0.0953
N6765 X-1.0491 Y-0.6786 Z-0.0987
N6770 X-1.0485 Y-0.6761 Z-0.1017
N6775 X-1.0477 Y-0.6733 Z-0.1042
N6780 X-1.0469 Y-0.67 Z-0.1063
N6785 X-1.046 Y-0.6665 Z-0.1078
N6790 X-1.0451 Y-0.6628 Z-0.1087
N6795 X-1.0441 Y-0.659 Z-0.109
N6800 G3 X-1.0245 Y-0.5229 I-0.6183 J0.1584
N6805 G1 Y-0.5139
N6810 X-1.0217 Y-0.4959
N6815 X-1.0184 Y-0.4893
N6820 X-1.015 Y-0.4809
N6825 X-1.0118 Y-0.4705
N6830 X-1.0089 Y-0.4576
N6835 X-1.0064 Y-0.4396
N6840 X-1.0052 Y-0.4215
N6845 Y-0.4034
N6850 G3 X-1.0117 Y-0.3311 I-0.6862 J-0.0251
N6855 X-1.0276 Y-0.2234 I-8.2121 J-1.1632
N6860 G2 X-1.0428 Y-0.0791 I1.6906 J0.2509
N6865 X-1.0406 Y0.0841 I1.1768 J0.0658
N6870 X-0.9415 Y0.4499 I1.0544 J-0.0893
N6875 X-0.1929 Y1.0255 I0.9418 J-0.4504
N6880 X1.0334 Y-0.1444 I0.1929 J-1.0255
N6885 X-0.4666 Y-0.9333 I-1.0334 J0.1444
N6890 G1 X-0.4828 Y-0.925
N6895 G2 X-0.6029 Y-0.8436 I0.9107 J1.4741
N6900 X-0.7518 Y-0.711 I0.6916 J0.9263
N6905 X-0.8434 Y-0.5986 I0.7544 J0.7083
N6910 G1 X-0.8517 Y-0.5824
N6915 X-0.8585 Y-0.5656
N6920 X-0.8641 Y-0.5483
N6925 X-0.8687 Y-0.5308
N6930 G2 X-0.8835 Y-0.4505 I0.9384 J0.2146
N6935 X-0.9152 Y-0.2351 I21.0524 J3.2112
N6940 X-0.9281 Y-0.1087 I2.0146 J0.2698
N6945 X-0.929 Y0.0364 I1.2182 J0.0797
N6950 X-0.8932 Y0.2507 I0.9974 J-0.0564
N6955 X-0.6827 Y0.6275 I0.8996 J-0.2554
N6960 X-0.5622 Y0.7374 I0.6884 J-0.6342
N6965 X0.9235 Y0.0825 I0.5622 J-0.7374
N6970 X-0.3231 Y-0.8691 I-0.9236 J-0.0825
N6975 X-0.4216 Y-0.823 I0.2697 J0.7042
N6980 X-0.6768 Y-0.6215 I0.4823 J0.8735
N6985 G1 X-0.6883 Y-0.6075
N6990 X-0.6989 Y-0.5928
N6995 X-0.7086 Y-0.5774
N7000 X-0.7175 Y-0.5616
N7005 X-0.7215 Y-0.5535
N7010 X-0.7234 Y-0.5494
N7015 X-0.7244 Y-0.5473
N7020 G3 X-0.7499 Y-0.5336 I-0.0224 J-0.0111
N7025 G1 X-0.7538 Y-0.5341 Z-0.1087
N7030 X-0.7576 Y-0.5346 Z-0.1078
N7035 X-0.7612 Y-0.535 Z-0.1063
N7040 X-0.7645 Y-0.5354 Z-0.1042
N7045 X-0.7675 Y-0.5358 Z-0.1017
N7050 X-0.77 Y-0.5361 Z-0.0987
N7055 X-0.772 Y-0.5364 Z-0.0953
N7060 X-0.7735 Y-0.5366 Z-0.0917
N7065 X-0.7744 Y-0.5367 Z-0.0879
N7070 X-0.7747 Z-0.084
N7075 G0 Z0.65
N7080 M5
N7085 G53 G0 Z0.

(Drill3)
N7090 M1
N7095 T2 M6
N7100 S4000 M3
N7105 G17 G90 G94
N7110 G54
N7115 G1 X0.9688 Y0.9688 F650.
N7120 G0 G43 Z0.6 H2
N7125 G0 Z0.2
N7130 G98 G81 X0.9688 Y0.9688 Z-0.1871 R0.091 F4.
N7135 X-0.9688
N7140 Y-0.9688
N7145 X0.9688
N7150 G80
N7155 G0 Z0.6
N7160 M5
N7165 G53 G0 Z0.

(Drill4)
N7170 M1
N7175 T3 M6
N7180 S2100 M3
N7185 G17 G90 G94
N7190 G54
N7195 G1 X0.9688 Y0.9688 F650.
N7200 G0 G43 Z0.6 H3
N7205 G0 Z0.2
N7210 G98 G73 X0.9688 Y0.9688 Z-0.3313 R0.091 Q0.0469 F10.5
N7215 X-0.9688
N7220 Y-0.9688
N7225 X0.9688
N7230 G80
N7235 G0 Z0.6
N7240 M5
N7245 G53 G0 Z0.

(2D Contour3)
N7250 M1
N7255 T7 M6
N7260 S3200 M3
N7265 G17 G90 G94
N7270 G54
N7275 G1 X0.6714 Y-0.9028 F650.
N7280 G0 G43 Z0.6 H7
N7285 G0 Z-0.059
N7290 G1 Z-0.0665 F2.
N7295 X0.6712 Y-0.9025 Z-0.0693 F6.4
N7300 X0.6706 Y-0.9018 Z-0.0719
N7305 X0.6698 Y-0.9006 Z-0.0743
N7310 X0.6686 Y-0.899 Z-0.0763
N7315 X0.6672 Y-0.8971 Z-0.0778
N7320 X0.6657 Y-0.8949 Z-0.0787
N7325 X0.664 Y-0.8927 Z-0.079
N7330 X0.6567 Y-0.8826
N7335 G3 X0.6392 Y-0.8798 I-0.0101 J-0.0073
N7340 G2 X0.7135 Y-0.8207 Z-0.1283 I-0.6392 J0.8798 F3.
N7345 X-1.0875 Y0. Z-0.1465 I-0.7135 J0.8207
N7350 X1.0875 I1.0875 J0. F6.4
N7355 X-1.0875 I-1.0875 J0.
N7360 G3 X-1.1 Y0.0125 I-0.0125 J0.
N7365 G1 X-1.1125
N7370 G18 G3 X-1.125 Z-0.134 I0. K0.0125
N7375 G0 Z0.6
N7380 M5
N7385 G53 G0 Z0.

(2D Contour4)
N7390 M1
N7395 T9 M6
N7400 S1528 M3
N7405 G17 G90 G94
N7410 G54
N7415 G1 X-0.6456 Y0.1916 F650.
N7420 G0 G43 Z0.6 H9
N7425 G0 Z0.1
N7430 G1 Z0.095 F3.
N7435 X-0.6459 Y0.1917 Z0.0911 F9.167
N7440 X-0.6468 Y0.1919 Z0.0873
N7445 X-0.6483 Y0.1923 Z0.0837
N7450 X-0.6503 Y0.1928 Z0.0803
N7455 X-0.6527 Y0.1934 Z0.0773
N7460 X-0.6556 Y0.1941 Z0.0748
N7465 X-0.6589 Y0.195 Z0.0727
N7470 X-0.6624 Y0.1959 Z0.0712
N7475 X-0.6661 Y0.1968 Z0.0703
N7480 X-0.6699 Y0.1978 Z0.07
N7485 X-0.6941 Y0.204
N7490 G3 X-0.7245 Y0.186 I-0.0062 J-0.0242
N7495 X-0.7055 Y0.2485 Z0.0207 I0.7245 J-0.186 F4.
N7500 X-0.6812 Y0.309 Z-0.0286 I0.7055 J-0.2485
N7505 X-0.6517 Y0.3672 Z-0.0779 I0.6812 J-0.309
N7510 X-0.6172 Y0.4226 Z-0.1272 I0.6517 J-0.3672
N7515 X-0.578 Y0.4748 Z-0.1765 I0.6172 J-0.4226
N7520 X-0.5344 Y0.5233 Z-0.2258 I0.578 J-0.4748
N7525 X0.748 Y0. Z-0.257 I0.5344 J-0.5233
N7530 X-0.748 I-0.748 J0. F9.167
N7535 X0.748 I0.748 J0.
N7540 X0.723 Y0.025 I-0.025 J0.
N7545 G1 X0.698
N7550 G18 G3 X0.673 Z-0.232 I0. K0.025
N7555 G0 Z0.6

(2D Contour5)
N7560 G17
N7565 G1 X-1.3596 Y-1.2507 F650.
N7570 G0 Z0.6
N7575 Z0.1
N7580 G1 Z0.075 F3.
N7585 X-1.3593 Y-1.2505 Z0.0711 F9.167
N7590 X-1.3585 Y-1.25 Z0.0673
N7595 X-1.3573 Y-1.2492 Z0.0637
N7600 X-1.3555 Y-1.2481 Z0.0603
N7605 X-1.3534 Y-1.2467 Z0.0573
N7610 X-1.3509 Y-1.2451 Z0.0548
N7615 X-1.3481 Y-1.2433 Z0.0527
N7620 X-1.345 Y-1.2413 Z0.0512
N7625 X-1.3418 Y-1.2393 Z0.0503
N7630 X-1.3386 Y-1.2371 Z0.05
N7635 X-1.3175 Y-1.2236
N7640 G3 X-1.3101 Y-1.189 I-0.0136 J0.021
N7645 G2 X-1.375 Y-0.9687 Z0.0487 I0.3413 J0.2203 F4.
N7650 G1 Y-0.4677 Z0.0457
N7655 G3 X-1.3854 Y-0.3927 Z0.0453 I-0.275 J0.
N7660 G2 Y0.3927 Z0.0407 I1.3854 J0.3927
N7665 G3 X-1.375 Y0.4677 Z0.0403 I-0.2646 J0.075
N7670 G1 Y0.9688 Z0.0373
N7675 G2 X-0.9688 Y1.375 Z0.0337 I0.4062 J0.
N7680 G1 X-0.4677 Z0.0307
N7685 G3 X-0.3927 Y1.3854 Z0.0303 I0. J0.275
N7690 G2 X0.3927 Z0.0257 I0.3927 J-1.3854
N7695 G3 X0.4677 Y1.375 Z0.0253 I0.075 J0.2646
N7700 G1 X0.9687 Z0.0223
N7705 G2 X1.375 Y0.9688 Z0.0187 I0. J-0.4062
N7710 G1 Y0.4677 Z0.0157
N7715 G3 X1.3854 Y0.3927 Z0.0153 I0.275 J0.
N7720 G2 Y-0.3927 Z0.0107 I-1.3854 J-0.3927
N7725 G3 X1.375 Y-0.4677 Z0.0103 I0.2646 J-0.075
N7730 G1 Y-0.9687 Z0.0073
N7735 G2 X0.9687 Y-1.375 Z0.0037 I-0.4063 J0.
N7740 G1 X0.4677 Z0.0007
N7745 G3 X0.3927 Y-1.3854 Z0.0003 I0. J-0.275
N7750 G2 X-0.3927 Z-0.0043 I-0.3927 J1.3854
N7755 G3 X-0.4677 Y-1.375 Z-0.0047 I-0.075 J-0.2646
N7760 G1 X-0.9688 Z-0.0077
N7765 G2 X-1.375 Y-0.9687 Z-0.0113 I0. J0.4062
N7770 G1 Y-0.4677 Z-0.0143
N7775 G3 X-1.3854 Y-0.3927 Z-0.0147 I-0.275 J0.
N7780 G2 Y0.3927 Z-0.0193 I1.3854 J0.3927
N7785 G3 X-1.375 Y0.4677 Z-0.0197 I-0.2646 J0.075
N7790 G1 Y0.9688 Z-0.0227
N7795 G2 X-0.9688 Y1.375 Z-0.0263 I0.4062 J0.
N7800 G1 X-0.4677 Z-0.0293
N7805 G3 X-0.3927 Y1.3854 Z-0.0297 I0. J0.275
N7810 G2 X0.3927 Z-0.0343 I0.3927 J-1.3854
N7815 G3 X0.4677 Y1.375 Z-0.0347 I0.075 J0.2646
N7820 G1 X0.9687 Z-0.0377
N7825 G2 X1.375 Y0.9688 Z-0.0413 I0. J-0.4062
N7830 G1 Y0.4677 Z-0.0443
N7835 G3 X1.3854 Y0.3927 Z-0.0447 I0.275 J0.
N7840 G2 Y-0.3927 Z-0.0493 I-1.3854 J-0.3927
N7845 G3 X1.375 Y-0.4677 Z-0.0497 I0.2646 J-0.075
N7850 G1 Y-0.9687 Z-0.0527
N7855 G2 X0.9687 Y-1.375 Z-0.0563 I-0.4063 J0.
N7860 G1 X0.4677 Z-0.0593
N7865 G3 X0.3927 Y-1.3854 Z-0.0597 I0. J-0.275
N7870 G2 X-0.3927 Z-0.0643 I-0.3927 J1.3854
N7875 G3 X-0.4677 Y-1.375 Z-0.0647 I-0.075 J-0.2646
N7880 G1 X-0.9688 Z-0.0677
N7885 G2 X-1.375 Y-0.9687 Z-0.0713 I0. J0.4062
N7890 G1 Y-0.4677 Z-0.0743
N7895 G3 X-1.3854 Y-0.3927 Z-0.0747 I-0.275 J0.
N7900 G2 Y0.3927 Z-0.0793 I1.3854 J0.3927
N7905 G3 X-1.375 Y0.4677 Z-0.0797 I-0.2646 J0.075
N7910 G1 Y0.9688 Z-0.0827
N7915 G2 X-0.9688 Y1.375 Z-0.0863 I0.4062 J0.
N7920 G1 X-0.4677 Z-0.0893
N7925 G3 X-0.3927 Y1.3854 Z-0.0897 I0. J0.275
N7930 G2 X0.3927 Z-0.0943 I0.3927 J-1.3854
N7935 G3 X0.4677 Y1.375 Z-0.0947 I0.075 J0.2646
N7940 G1 X0.9687 Z-0.0977
N7945 G2 X1.375 Y0.9688 Z-0.1013 I0. J-0.4062
N7950 G1 Y0.4677 Z-0.1043
N7955 G3 X1.3854 Y0.3927 Z-0.1047 I0.275 J0.
N7960 G2 Y-0.3927 Z-0.1093 I-1.3854 J-0.3927
N7965 G3 X1.375 Y-0.4677 Z-0.1097 I0.2646 J-0.075
N7970 G1 Y-0.9687 Z-0.1127
N7975 G2 X0.9687 Y-1.375 Z-0.1163 I-0.4063 J0.
N7980 G1 X0.4677 Z-0.1193
N7985 G3 X0.3927 Y-1.3854 Z-0.1197 I0. J-0.275
N7990 G2 X-0.3927 Z-0.1243 I-0.3927 J1.3854
N7995 G3 X-0.4677 Y-1.375 Z-0.1247 I-0.075 J-0.2646
N8000 G1 X-0.9688 Z-0.1277
N8005 G2 X-1.375 Y-0.9687 Z-0.1313 I0. J0.4062
N8010 G1 Y-0.4677 Z-0.1343
N8015 G3 X-1.3854 Y-0.3927 Z-0.1347 I-0.275 J0.
N8020 G2 Y0.3927 Z-0.1393 I1.3854 J0.3927
N8025 G3 X-1.375 Y0.4677 Z-0.1397 I-0.2646 J0.075
N8030 G1 Y0.9688 Z-0.1427
N8035 G2 X-0.9688 Y1.375 Z-0.1463 I0.4062 J0.
N8040 G1 X-0.4677 Z-0.1493
N8045 G3 X-0.3927 Y1.3854 Z-0.1497 I0. J0.275
N8050 G2 X0.3927 Z-0.1543 I0.3927 J-1.3854
N8055 G3 X0.4677 Y1.375 Z-0.1547 I0.075 J0.2646
N8060 G1 X0.9687 Z-0.1577
N8065 G2 X1.375 Y0.9688 Z-0.1613 I0. J-0.4062
N8070 G1 Y0.4677 Z-0.1643
N8075 G3 X1.3854 Y0.3927 Z-0.1647 I0.275 J0.
N8080 G2 Y-0.3927 Z-0.1693 I-1.3854 J-0.3927
N8085 G3 X1.375 Y-0.4677 Z-0.1697 I0.2646 J-0.075
N8090 G1 Y-0.9687 Z-0.1727
N8095 G2 X0.9687 Y-1.375 Z-0.1763 I-0.4063 J0.
N8100 G1 X0.4677 Z-0.1793
N8105 G3 X0.3927 Y-1.3854 Z-0.1797 I0. J-0.275
N8110 G2 X-0.3927 Z-0.1843 I-0.3927 J1.3854
N8115 G3 X-0.4677 Y-1.375 Z-0.1847 I-0.075 J-0.2646
N8120 G1 X-0.9688 Z-0.1877
N8125 G2 X-1.375 Y-0.9687 Z-0.1913 I0. J0.4062
N8130 G1 Y-0.4677 Z-0.1943
N8135 G3 X-1.3854 Y-0.3927 Z-0.1947 I-0.275 J0.
N8140 G2 Y0.3927 Z-0.1993 I1.3854 J0.3927
N8145 G3 X-1.375 Y0.4677 Z-0.1997 I-0.2646 J0.075
N8150 G1 Y0.9688 Z-0.2027
N8155 G2 X-0.9688 Y1.375 Z-0.2063 I0.4062 J0.
N8160 G1 X-0.4677 Z-0.2093
N8165 G3 X-0.3927 Y1.3854 Z-0.2097 I0. J0.275
N8170 G2 X0.3927 Z-0.2143 I0.3927 J-1.3854
N8175 G3 X0.4677 Y1.375 Z-0.2147 I0.075 J0.2646
N8180 G1 X0.9687 Z-0.2177
N8185 G2 X1.375 Y0.9688 Z-0.2213 I0. J-0.4062
N8190 G1 Y0.4677 Z-0.2243
N8195 G3 X1.3854 Y0.3927 Z-0.2247 I0.275 J0.
N8200 G2 Y-0.3927 Z-0.2293 I-1.3854 J-0.3927
N8205 G3 X1.375 Y-0.4677 Z-0.2297 I0.2646 J-0.075
N8210 G1 Y-0.9687 Z-0.2327
N8215 G2 X0.9687 Y-1.375 Z-0.2363 I-0.4063 J0.
N8220 G1 X0.4677 Z-0.2393
N8225 G3 X0.3927 Y-1.3854 Z-0.2397 I0. J-0.275
N8230 G2 X-0.3927 Z-0.2443 I-0.3927 J1.3854
N8235 G3 X-0.4677 Y-1.375 Z-0.2447 I-0.075 J-0.2646
N8240 G1 X-0.9688 Z-0.2477
N8245 G2 X-1.375 Y-0.9687 Z-0.2513 I0. J0.4062
N8250 G1 Y-0.4677 Z-0.2543
N8255 G3 X-1.3854 Y-0.3927 Z-0.2547 I-0.275 J0.
N8260 G2 X-1.44 Y0. Z-0.257 I1.3854 J0.3927
N8265 X-1.3854 Y0.3927 I1.44 J0. F9.167
N8270 G3 X-1.375 Y0.4677 I-0.2646 J0.075
N8275 G1 Y0.9688
N8280 G2 X-0.9688 Y1.375 I0.4062 J0.
N8285 G1 X-0.4677
N8290 G3 X-0.3927 Y1.3854 I0. J0.275
N8295 G2 X0.3927 I0.3927 J-1.3854
N8300 G3 X0.4677 Y1.375 I0.075 J0.2646
N8305 G1 X0.9687
N8310 G2 X1.375 Y0.9688 I0. J-0.4062
N8315 G1 Y0.4677
N8320 G3 X1.3854 Y0.3927 I0.275 J0.
N8325 G2 Y-0.3927 I-1.3854 J-0.3927
N8330 G3 X1.375 Y-0.4677 I0.2646 J-0.075
N8335 G1 Y-0.9687
N8340 G2 X0.9687 Y-1.375 I-0.4063 J0.
N8345 G1 X0.4677
N8350 G3 X0.3927 Y-1.3854 I0. J-0.275
N8355 G2 X-0.3927 I-0.3927 J1.3854
N8360 G3 X-0.4677 Y-1.375 I-0.075 J-0.2646
N8365 G1 X-0.9688
N8370 G2 X-1.375 Y-0.9687 I0. J0.4062
N8375 G1 Y-0.4677
N8380 G3 X-1.3854 Y-0.3927 I-0.275 J0.
N8385 G2 X-1.44 Y0. I1.3854 J0.3927
N8390 G3 X-1.465 Y0.025 I-0.025 J0.
N8395 G1 X-1.49
N8400 G18 G3 X-1.515 Z-0.232 I0. K0.025
N8405 G0 Z0.6

N8410 M5
N8415 G53 G0 Z0.
N8420 G53 G0 X0. Y0.
N8425 M30

%
