%
O01003
(Using high feed G1 F650. instead of G0.)
(T2 D=0.1875 CR=0. TAPER=118deg - ZMIN=-0.07 - center drill)
(T3 D=0.1875 CR=0. TAPER=118deg - ZMIN=-0.3313 - drill)
(T7 D=0.125 CR=0. - ZMIN=-0.1465 - flat end mill)
(T9 D=0.25 CR=0. - ZMIN=-0.257 - flat end mill)
N10 G90 G94 G17
N15 G20
N20 G53 G0 Z0.

(Drill3)
N25 T2 M6
N30 S3900 M3
N35 G17 G90 G94
N40 G54
N45 G1 X0.9688 Y0.9688 F650.
N50 G0 G43 Z0.6 H2
N55 G0 Z0.2
N60 G98 G81 X0.9688 Y0.9688 Z-0.07 R0.2 F3.9
N65 X-0.9688
N70 Y-0.9688
N75 X0.9688
N80 G80
N85 G0 Z0.6
N90 M5
N95 G53 G0 Z0.

(Drill4)
N100 M1
N105 T3 M6
N110 S2100 M3
N115 G17 G90 G94
N120 G54
N125 G1 X0.9688 Y0.9688 F650.
N130 G0 G43 Z0.6 H3
N135 G0 Z0.2
N140 G98 G73 X0.9688 Y0.9688 Z-0.3313 R0.2 Q0.0469 F6.3
N145 X-0.9688
N150 Y-0.9688
N155 X0.9688
N160 G80
N165 G0 Z0.6
N170 M5
N175 G53 G0 Z0.

(2D Adaptive4)
N180 M1
N185 T9 M6
N190 S3800 M3
N195 G17 G90 G94
N200 G54
N205 G1 X-1.359 Y-1.4157 F650.
N210 G0 G43 Z0.6 H9
N215 G0 Z0.15
N220 G1 Z0.05 F28.5
N225 X-1.3589 Y-1.4154 Z0.0422
N230 X-1.3587 Y-1.4145 Z0.0344
N235 X-1.3583 Y-1.4131 Z0.0267
N240 X-1.3578 Y-1.411 Z0.0191
N245 X-1.3571 Y-1.4084 Z0.0117
N250 X-1.3563 Y-1.4052 Z0.0046
N255 X-1.3553 Y-1.4015 Z-0.0022
N260 X-1.3542 Y-1.3972 Z-0.0088
N265 X-1.353 Y-1.3925 Z-0.0149
N270 X-1.3517 Y-1.3874 Z-0.0207
N275 X-1.3503 Y-1.3818 Z-0.026
N280 X-1.3487 Y-1.3758 Z-0.0309
N285 X-1.3471 Y-1.3695 Z-0.0353
N290 X-1.3454 Y-1.3628 Z-0.0391
N295 X-1.3437 Y-1.3559 Z-0.0424
N300 X-1.3418 Y-1.3488 Z-0.0451
N305 X-1.34 Y-1.3415 Z-0.0472
N310 X-1.338 Y-1.334 Z-0.0488
N315 X-1.3361 Y-1.3265 Z-0.0497
N320 X-1.3342 Y-1.3189 Z-0.05
N325 G3 X-1.3146 Y-1.1828 I-0.6183 J0.1584
N330 G1 Y-1.1737
N335 X-1.3118 Y-1.1558
N340 X-1.3078 Y-1.1476
N345 X-1.3033 Y-1.1363
N350 X-1.2981 Y-1.1189
N355 X-1.2942 Y-1.1012
N360 G3 X-1.285 Y-1.0292 I-0.7503 J0.1328
N365 X-1.2778 Y-0.8842 I-2.1847 J0.1803
N370 X-1.2755 Y-0.6665 I-9.4661 J0.2105
N375 X-1.2754 Y-0.5395 I-8.141 J0.0684
N380 X-1.2872 Y-0.4132 I-0.8095 J-0.0117
N385 X-1.3061 Y-0.3059 I-7.8267 J-1.3271
N390 G2 X-1.3269 Y-0.1623 I2.1829 J0.3887
N395 X-1.3331 Y0.0733 I1.4529 J0.1566
N400 X-1.3072 Y0.271 I1.3783 J-0.0804
N405 G3 X-1.2937 Y0.3423 I-2.393 J0.4907
N410 X-1.2821 Y0.4505 I-1.0517 J0.1668
N415 X-1.2767 Y0.6137 I-3.2352 J0.1884
N420 X-1.2754 Y0.777 I-11.371 J0.1736
N425 G2 X-1.275 Y0.8859 I24.1279 J-0.0424
N430 X-1.2705 Y0.9583 I0.7086 J-0.0076
N435 G1 X-1.2679 Y0.9763
N440 X-1.2646 Y0.9941
N445 X-1.2606 Y1.0118
N450 X-1.2557 Y1.0293
N455 X-1.2499 Y1.0465
N460 X-1.2433 Y1.0634
N465 X-1.2359 Y1.0799
N470 X-1.2275 Y1.096
N475 X-1.2183 Y1.1117
N480 X-1.2081 Y1.1267
N485 X-1.1972 Y1.1412
N490 X-1.1854 Y1.1549
N495 X-1.1728 Y1.168
N500 X-1.1594 Y1.1803
N505 X-1.1453 Y1.1917
N510 X-1.1306 Y1.2023
N515 X-1.1152 Y1.2119
N520 X-1.0993 Y1.2206
N525 X-1.0828 Y1.2282
N530 X-1.0659 Y1.2349
N535 X-1.0487 Y1.2407
N540 X-1.0313 Y1.2456
N545 G2 X-0.96 Y1.2593 I0.1508 J-0.5923
N550 X-0.8335 Y1.2698 I0.1754 J-1.3496
N555 X-0.6702 Y1.2737 I0.1863 J-4.3325
N560 G1 X-0.6521 Y1.274
N565 G3 X-0.5432 Y1.2748 I-0.2118 J33.6206
N570 X-0.4168 Y1.2864 I-0.0123 J0.8295
N575 X-0.3096 Y1.3054 I-1.2458 J7.3395
N580 G2 X-0.1841 Y1.3244 I0.4222 J-2.3665
N585 X0.0151 Y1.3352 I0.1816 J-1.5051
N590 X0.2673 Y1.3079 I-0.0209 J-1.3723
N595 G3 X0.3386 Y1.2943 I0.5297 J2.5748
N600 G1 X0.3565 Y1.2915
N605 G3 X0.4649 Y1.2813 I0.1629 J1.1509
N610 X0.6281 Y1.2765 I0.1876 J3.6471
N615 X0.864 Y1.2752 I0.2161 J17.6497
N620 G2 X0.9365 Y1.2727 I0.0017 J-0.9999
N625 G1 X0.9546 Y1.2709
N630 X0.9726 Y1.2685
N635 X0.9904 Y1.2654
N640 X1.0081 Y1.2615
N645 X1.0257 Y1.2568
N650 X1.0429 Y1.2512
N655 X1.0599 Y1.2448
N660 X1.0765 Y1.2375
N665 X1.0927 Y1.2293
N670 X1.1085 Y1.2203
N675 X1.1236 Y1.2103
N680 X1.1382 Y1.1995
N685 X1.1521 Y1.1879
N690 X1.1654 Y1.1755
N695 X1.1778 Y1.1622
N700 X1.1894 Y1.1483
N705 X1.2002 Y1.1337
N710 X1.21 Y1.1184
N715 X1.2189 Y1.1026
N720 X1.2267 Y1.0862
N725 X1.2336 Y1.0695
N730 X1.2395 Y1.0523
N735 X1.2446 Y1.0349
N740 G2 X1.2588 Y0.9637 I-0.5727 J-0.1508
N745 X1.2696 Y0.8372 I-1.3063 J-0.1754
N750 X1.2737 Y0.674 I-4.1934 J-0.1864
N755 G1 X1.2748 Y0.547
N760 G3 X1.2858 Y0.4206 I0.8278 J0.0084
N765 X1.3048 Y0.3133 I6.2621 J1.0525
N770 G2 X1.324 Y0.1878 I-2.4669 J-0.4417
N775 X1.3342 Y0.0612 I-1.602 J-0.1938
N780 X1.3087 Y-0.2636 I-1.3722 J-0.0554
N785 G3 X1.2949 Y-0.3349 I3.4026 J-0.696
N790 X1.2826 Y-0.443 I1.0051 J-0.1689
N795 X1.2769 Y-0.6062 I3.0458 J-0.1888
N800 X1.2753 Y-0.8602 I15.7572 J-0.2268
N805 G1 X1.275 Y-0.8784
N810 G2 X1.2714 Y-0.9508 I-0.7282 J0.0007
N815 G1 X1.2691 Y-0.9688
N820 X1.2661 Y-0.9867
N825 X1.2623 Y-1.0045
N830 X1.2578 Y-1.0221
N835 X1.2524 Y-1.0394
N840 X1.2462 Y-1.0564
N845 X1.2391 Y-1.0731
N850 X1.2311 Y-1.0894
N855 X1.2222 Y-1.1052
N860 X1.2124 Y-1.1205
N865 X1.2018 Y-1.1352
N870 X1.1904 Y-1.1493
N875 X1.1781 Y-1.1627
N880 X1.165 Y-1.1753
N885 X1.1513 Y-1.1871
N890 X1.1368 Y-1.198
N895 X1.1216 Y-1.208
N900 X1.1059 Y-1.2171
N905 X1.0897 Y-1.2252
N910 X1.073 Y-1.2323
N915 X1.0559 Y-1.2384
N920 X1.0385 Y-1.2436
N925 G2 X0.9675 Y-1.2582 I-0.1507 J0.5535
N930 X0.8591 Y-1.2685 I-0.1667 J1.1836
N935 X0.6959 Y-1.2734 I-0.1894 J3.5839
N940 X0.5507 Y-1.2747 I-0.2098 J15.5137
N945 G3 X0.4783 Y-1.2783 I0.0102 J-0.9432
N950 G2 X0.4462 Y-1.281 I-0.051 J0.3997
N955 G3 X0.3521 Y-1.2924 I0.1132 J-1.3306
N960 G1 X0.2803 Y-1.3033
N965 G2 X0.1181 Y-1.3223 I-0.3385 J2.1806
N970 X-0.0632 Y-1.3246 I-0.1096 J1.4887
N975 X-0.2789 Y-1.2963 I0.0725 J1.3861
N980 G3 X-0.3445 Y-1.2843 I-0.3317 J-1.6361
N985 X-0.4643 Y-1.2727 I-0.1798 J-1.2296
N990 X-0.608 Y-1.2679 I-0.1774 J-3.1782
N995 X-0.862 Y-1.2663 I-0.2313 J-15.7248
N1000 G2 X-0.9345 Y-1.2638 I-0.0012 J1.0179
N1005 G1 X-0.9526 Y-1.262
N1010 X-0.9706 Y-1.2595
N1015 X-0.9884 Y-1.2564
N1020 X-1.0062 Y-1.2524
N1025 X-1.0237 Y-1.2477
N1030 X-1.0409 Y-1.2421
N1035 X-1.0579 Y-1.2356
N1040 X-1.0744 Y-1.2282
N1045 X-1.0905 Y-1.2198
N1050 X-1.1039 Y-1.2076
N1055 X-1.1151 Y-1.1932
N1060 X-1.1243 Y-1.1776
N1065 X-1.132 Y-1.1612
N1070 X-1.1383 Y-1.1442
N1075 X-1.1436 Y-1.1268
N1080 X-1.1479 Y-1.1092
N1085 G2 X-1.1571 Y-1.0521 I0.5526 J0.1182
N1090 X-1.164 Y-0.9435 I1.2833 J0.1369
N1095 X-1.1658 Y-0.8346 I3.9878 J0.1205
N1100 X-1.1662 Y-0.635 I31.0262 J0.158
N1105 G3 X-1.171 Y-0.5074 I-1.7501 J-0.0018
N1110 X-1.1902 Y-0.3516 I-2.3017 J-0.2046
N1115 G2 X-1.2079 Y-0.2258 I6.8491 J1.0268
N1120 X-1.2213 Y-0.0631 I1.8247 J0.2322
N1125 X-1.2061 Y0.1901 I1.3635 J0.0454
N1130 G3 X-1.193 Y0.2799 I-34.5659 J5.1148
N1135 X-1.1725 Y0.5148 I-2.3434 J0.3224
N1140 X-1.1678 Y0.6962 I-5.29 J0.2269
N1145 G2 X-1.1663 Y0.8232 I30.7905 J-0.3195
N1150 X-1.162 Y0.8888 I0.8235 J-0.0206
N1155 G1 X-1.1596 Y0.9068
N1160 X-1.1566 Y0.9247
N1165 X-1.1526 Y0.9424
N1170 X-1.1477 Y0.9599
N1175 X-1.1418 Y0.977
N1180 X-1.1347 Y0.9937
N1185 X-1.1264 Y1.0099
N1190 X-1.1168 Y1.0253
N1195 X-1.1059 Y1.0398
N1200 X-1.0938 Y1.0533
N1205 X-1.0805 Y1.0657
N1210 X-1.0663 Y1.077
N1215 X-1.0513 Y1.0872
N1220 X-1.0357 Y1.0964
N1225 X-1.0195 Y1.1047
N1230 X-1.003 Y1.112
N1235 X-0.986 Y1.1186
N1240 G2 X-0.9162 Y1.138 I0.1749 J-0.4929
N1245 X-0.8085 Y1.1536 I0.1882 J-0.9208
N1250 X-0.6636 Y1.1619 I0.1999 J-2.2176
N1255 G3 X-0.5686 Y1.1654 I-0.2178 J7.2395
N1260 X-0.4018 Y1.1824 I-0.0971 J1.7784
N1265 X-0.312 Y1.1957 I-0.8927 J6.3386
N1270 G2 X-0.1681 Y1.2143 I0.4529 J-2.9458
N1275 X-0.005 Y1.222 I0.1567 J-1.5787
N1280 X0.1937 Y1.2056 I-0.0131 J-1.3712
N1285 G3 X0.2835 Y1.1925 I3.4817 J23.5179
N1290 X0.5003 Y1.1731 I0.3154 J2.3116
N1295 X0.718 Y1.1676 I0.2501 J5.5613
N1300 G1 X0.8087 Y1.1665
N1305 G2 X0.871 Y1.1637 I-0.0138 J-0.9924
N1310 G1 X0.8891 Y1.162
N1315 X0.9071 Y1.1596
N1320 X0.9249 Y1.1565
N1325 X0.9426 Y1.1526
N1330 X0.9601 Y1.1477
N1335 X0.9772 Y1.1417
N1340 X0.9939 Y1.1346
N1345 X1.0101 Y1.1262
N1350 X1.0254 Y1.1166
N1355 X1.04 Y1.1057
N1360 X1.0534 Y1.0936
N1365 X1.0658 Y1.0803
N1370 X1.0771 Y1.0661
N1375 X1.0874 Y1.0512
N1380 X1.0965 Y1.0355
N1385 X1.1048 Y1.0193
N1390 X1.1121 Y1.0027
N1395 X1.1187 Y0.9858
N1400 G2 X1.1381 Y0.9159 I-0.4937 J-0.1748
N1405 X1.1536 Y0.8082 I-0.9227 J-0.1882
N1410 X1.1619 Y0.6633 I-2.2231 J-0.2
N1415 G3 X1.1655 Y0.5673 I7.1908 J0.2165
N1420 X1.1822 Y0.4031 I1.7836 J0.0991
N1425 X1.1982 Y0.2954 I10.5525 J1.5096
N1430 G2 X1.2158 Y0.1514 I-2.6238 J-0.3943
N1435 X1.2213 Y-0.0299 I-1.5053 J-0.1361
N1440 X1.2058 Y-0.1924 I-1.3948 J0.0508
N1445 G3 X1.1902 Y-0.3001 I9.236 J-1.3925
N1450 X1.1724 Y-0.5171 I2.4035 J-0.3066
N1455 X1.1676 Y-0.7166 I5.7549 J-0.2377
N1460 G1 X1.1666 Y-0.8073
N1465 G2 X1.1638 Y-0.8696 I-1.0082 J0.0131
N1470 G1 X1.162 Y-0.8888
N1475 X1.1596 Y-0.9068
N1480 X1.1566 Y-0.9247
N1485 X1.1526 Y-0.9424
N1490 X1.1477 Y-0.9599
N1495 X1.1418 Y-0.977
N1500 X1.1347 Y-0.9937
N1505 X1.1263 Y-1.0099
N1510 X1.1168 Y-1.0253
N1515 X1.1059 Y-1.0398
N1520 X1.0937 Y-1.0533
N1525 X1.0805 Y-1.0657
N1530 X1.0663 Y-1.077
N1535 X1.0513 Y-1.0872
N1540 X1.0357 Y-1.0964
N1545 X1.0195 Y-1.1047
N1550 X1.0029 Y-1.112
N1555 X0.986 Y-1.1186
N1560 G2 X0.9161 Y-1.138 I-0.1749 J0.4932
N1565 X0.8085 Y-1.1536 I-0.1882 J0.9213
N1570 X0.6636 Y-1.1619 I-0.1999 J2.2178
N1575 G3 X0.5638 Y-1.1656 I0.2012 J-6.7562
N1580 X0.3544 Y-1.1846 I0.1212 J-2.501
N1585 G2 X0.2283 Y-1.2003 I-1.6221 J12.4861
N1590 X0.0655 Y-1.2127 I-0.2358 J2.0224
N1595 X-0.1877 Y-1.1974 I-0.0428 J1.3895
N1600 G3 X-0.2955 Y-1.1819 I-1.4502 J-9.7325
N1605 X-0.5057 Y-1.1641 I-0.3168 J-2.4856
N1610 X-0.7234 Y-1.1586 I-0.2532 J-5.7478
N1615 G2 X-0.8141 Y-1.1575 I0.2148 J20.3644
N1620 X-0.8921 Y-1.1524 I0.0132 J0.8157
N1625 G1 X-0.9101 Y-1.1498
N1630 X-0.9273 Y-1.144
N1635 X-0.9432 Y-1.1353
N1640 X-0.9504 Y-1.1298
N1645 X-0.9566 Y-1.1232
N1650 X-0.9618 Y-1.1157
N1655 X-0.9657 Y-1.1075
N1660 X-0.9683 Y-1.0989
N1665 X-0.9696 Y-1.0899
N1670 X-0.9694 Y-1.0808
N1675 X-0.9678 Y-1.0719
N1680 X-0.9619 Y-1.0547
N1685 G3 X-0.9454 Y-1.0229 I-0.0799 J0.0617
N1690 X-0.944 Y-1.0006 I-0.0521 J0.0145
N1695 G1 X-0.9444 Y-0.9992
N1700 X-0.9449 Y-0.9977
N1705 X-0.9453 Y-0.9963
N1710 X-0.9459 Y-0.9949
N1715 X-0.9466 Y-0.9936
N1720 X-0.9474 Y-0.9923
N1725 X-0.9623 Y-0.9819
N1730 X-0.9753 Y-0.9693
N1735 X-0.9867 Y-0.9552
N1740 X-0.9966 Y-0.94
N1745 X-1.0052 Y-0.924
N1750 X-1.0125 Y-0.9074
N1755 X-1.0189 Y-0.8904
N1760 X-1.0244 Y-0.8731
N1765 G2 X-1.0396 Y-0.8022 I0.5293 J0.1505
N1770 X-1.0496 Y-0.7063 I1.1284 J0.1663
N1775 X-1.0563 Y-0.5977 I10.6049 J0.7102
N1780 G1 X-1.0566 Y-0.5943
N1785 G3 X-1.0604 Y-0.5754 Z-0.049 I-0.0995 J-0.0102
N1790 G1 X-1.0662 Y-0.5563 Z-0.048
N1795 X-1.1005 Y-0.4437 Z-0.042
N1800 X-1.3402 Y0.3443
N1805 G2 X-1.3205 Y0.4385 I0.0957 J0.0291
N1810 X-1.2137 Y0.4685 Z-0.048 I0.0759 J-0.0651
N1815 G1 X-1.2135 Y0.4684
N1820 G3 X-1.1752 Y0.4604 Z-0.05 I0.0562 J0.1734
N1825 G1 X-1.1741
N1830 G3 X-1.1555 Y0.4697 I-0.0114 J0.0461
N1835 X-1.1306 Y0.4955 I-0.0664 J0.0888
N1840 X-1.1063 Y0.5396 I-0.165 J0.1198
N1845 X-1.0862 Y0.6027 I-0.3345 J0.1411
N1850 X-1.0721 Y0.6849 I-0.6687 J0.157
N1855 X-1.0634 Y0.7717 I-2.2889 J0.2746
N1860 G1 X-1.0624 Y0.7808
N1865 X-1.0601 Y0.7896
N1870 X-1.0565 Y0.7979
N1875 X-1.0516 Y0.8055
N1880 X-1.0396 Y0.8191
N1885 X-1.0253 Y0.8303
N1890 G3 X-0.9883 Y0.8589 I-0.3507 J0.4916
N1895 X-0.9604 Y0.8886 I-0.121 J0.1417
N1900 X-0.9501 Y0.9068 I-0.0935 J0.0652
N1905 G1 X-0.9431 Y0.9236
N1910 X-0.9336 Y0.939
N1915 X-0.922 Y0.953
N1920 X-0.9088 Y0.9655
N1925 X-0.8944 Y0.9766
N1930 X-0.8792 Y0.9864
N1935 X-0.8633 Y0.9952
N1940 X-0.8469 Y1.0029
N1945 X-0.83 Y1.0096
N1950 X-0.8129 Y1.0156
N1955 G2 X-0.7302 Y1.035 I0.1721 J-0.5482
N1960 X-0.6402 Y1.0468 I0.2186 J-1.3185
N1965 G1 X-0.6222 Y1.0487
N1970 X-0.5985 Y1.051
N1975 G3 X-0.5819 Y1.0548 Z-0.0491 I-0.0134 J0.0991
N1980 G1 X-0.5607 Y1.0614 Z-0.048
N1985 X-0.4484 Y1.0968 Z-0.042
N1990 X0.3293 Y1.3413
N1995 G2 X0.4248 Y1.3215 I0.03 J-0.0954
N2000 X0.4542 Y1.2145 Z-0.048 I-0.0655 J-0.0756
N2005 G1 Y1.2144
N2010 G3 X0.446 Y1.1761 Z-0.05 I0.1731 J-0.0572
N2015 G1 X0.4456 Y1.1716
N2020 G3 X0.46 Y1.149 I0.0615 J0.0232
N2025 X0.4926 Y1.1228 I0.101 J0.0922
N2030 X0.5419 Y1.0998 I0.1274 J0.2091
N2035 X0.6087 Y1.0819 I0.1455 J0.4089
N2040 X0.6976 Y1.0692 I0.1641 J0.8343
N2045 X0.7798 Y1.0619 I0.4645 J4.7329
N2050 G1 X0.7886 Y1.0596
N2055 X0.7969 Y1.056
N2060 X0.8046 Y1.0512
N2065 X0.8183 Y1.0393
N2070 X0.8296 Y1.0251
N2075 G3 X0.8588 Y0.9877 I0.4994 J0.3606
N2080 X0.8887 Y0.96 I0.1412 J0.1221
N2085 X0.9069 Y0.9497 I0.0646 J0.0938
N2090 G1 X0.9238 Y0.9429
N2095 X0.9392 Y0.9333
N2100 X0.9531 Y0.9217
N2105 X0.9656 Y0.9085
N2110 X0.9767 Y0.8941
N2115 X0.9865 Y0.8789
N2120 X0.9952 Y0.863
N2125 X1.0029 Y0.8465
N2130 X1.0097 Y0.8297
N2135 X1.0156 Y0.8126
N2140 G2 X1.035 Y0.7298 I-0.5493 J-0.1722
N2145 X1.0468 Y0.6399 I-1.3211 J-0.2188
N2150 G1 X1.0487 Y0.6218
N2155 X1.0511 Y0.5981
N2160 G3 X1.0548 Y0.5815 Z-0.0491 I0.0991 J0.0134
N2165 G1 X1.0615 Y0.5604 Z-0.048
N2170 X1.0969 Y0.448 Z-0.042
N2175 X1.3414 Y-0.3279
N2180 G2 X1.3216 Y-0.4235 I-0.0954 J-0.0301
N2185 X1.2146 Y-0.4529 Z-0.048 I-0.0755 J0.0655
N2190 G1 X1.2145 Y-0.4528
N2195 G3 X1.1762 Y-0.4446 Z-0.05 I-0.0572 J-0.1731
N2200 G1 X1.1717 Y-0.4443
N2205 G3 X1.1491 Y-0.4587 I0.0232 J-0.0615
N2210 X1.1228 Y-0.4913 I0.0921 J-0.101
N2215 X1.0999 Y-0.5405 I0.209 J-0.1274
N2220 X1.082 Y-0.6072 I0.4085 J-0.1455
N2225 X1.0693 Y-0.6955 I0.8294 J-0.1636
N2230 X1.0627 Y-0.7704 I2.8759 J-0.2943
N2235 G1 X1.0617 Y-0.7806
N2240 X1.0594 Y-0.7894
N2245 X1.0559 Y-0.7977
N2250 X1.0511 Y-0.8054
N2255 X1.0392 Y-0.8191
N2260 X1.0249 Y-0.8303
N2265 G3 X0.988 Y-0.8589 I0.3513 J-0.4898
N2270 X0.9602 Y-0.8887 I0.1213 J-0.1412
N2275 X0.9499 Y-0.9069 I0.0935 J-0.0648
N2280 G1 X0.943 Y-0.9237
N2285 X0.9335 Y-0.9391
N2290 X0.9218 Y-0.9531
N2295 X0.9086 Y-0.9655
N2300 X0.8943 Y-0.9766
N2305 X0.8791 Y-0.9865
N2310 X0.8631 Y-0.9952
N2315 X0.8467 Y-1.0029
N2320 X0.8299 Y-1.0097
N2325 X0.8127 Y-1.0156
N2330 G2 X0.73 Y-1.035 I-0.1722 J0.549
N2335 X0.64 Y-1.0467 I-0.2147 J1.2927
N2340 G1 X0.622 Y-1.0486
N2345 X0.6028 Y-1.0504
N2350 X0.6017 Y-1.0505
N2355 G3 X0.586 Y-1.0538 Z-0.0492 I0.0126 J-0.0992
N2360 G1 X0.5637 Y-1.0604 Z-0.048
N2365 X0.4508 Y-1.0937 Z-0.042
N2370 X-0.3539 Y-1.331
N2375 G2 X-0.4471 Y-1.3111 I-0.0283 J0.0959
N2380 X-0.4774 Y-1.2044 Z-0.048 I0.0649 J0.0761
N2385 G1 Y-1.2043
N2390 G3 X-0.4695 Y-1.1659 Z-0.05 I-0.1735 J0.0558
N2395 G1 X-0.4692 Y-1.1625
N2400 G3 X-0.4823 Y-1.1409 I-0.0574 J-0.0199
N2405 X-0.512 Y-1.1158 I-0.0966 J-0.0844
N2410 X-0.5599 Y-1.0924 I-0.1251 J-0.1949
N2415 X-0.6262 Y-1.0738 I-0.1441 J-0.386
N2420 X-0.7099 Y-1.061 I-0.1659 J-0.8088
N2425 G1 X-0.7267 Y-1.0541
N2430 X-0.7419 Y-1.0443
N2435 X-0.756 Y-1.0328
N2440 X-0.7692 Y-1.0204
N2445 X-0.782 Y-1.0075
N2450 G3 X-0.8181 Y-0.9709 I-0.8071 J-0.7615
N2455 G1 X-0.8307 Y-0.9577
N2460 X-0.8425 Y-0.944
N2465 X-0.8535 Y-0.9295
N2470 X-0.8636 Y-0.9145
N2475 X-0.8729 Y-0.8989
N2480 X-0.8813 Y-0.8828
N2485 X-0.8889 Y-0.8664
N2490 G2 X-0.9101 Y-0.8053 I0.4116 J0.177
N2495 G3 X-0.9147 Y-0.7931 Z-0.0493 I-0.0957 J-0.0289
N2500 G2 X-0.9206 Y-0.7762 Z-0.0484 I0.0912 J0.0411
N2505 G1 X-0.9226 Y-0.7682 Z-0.048
N2510 X-0.9512 Y-0.654 Z-0.042
N2515 X-1.2515 Y0.5457
N2520 G2 X-1.2545 Y0.57 I0.097 J0.0243
N2525 X-1.2237 Y0.6422 I0.1 J0.
N2530 X-1.1144 Y0.6616 Z-0.048 I0.0692 J-0.0722
N2535 G1 X-1.1143 Y0.6615
N2540 G3 X-1.0769 Y0.6498 Z-0.05 I0.073 J0.167
N2545 G1 X-1.0758 Y0.6496
N2550 G3 X-1.0578 Y0.6566 I-0.0065 J0.0435
N2555 X-1.0445 Y0.6663 I-0.0401 J0.0686
N2560 G2 X-0.9831 Y0.7198 I4.6402 J-5.2728
N2565 G3 X-0.9286 Y0.7733 I-0.4018 J0.4632
N2570 X-0.9118 Y0.7936 I-14.0926 J11.6777
N2575 G1 X-0.8999 Y0.8073
N2580 X-0.8874 Y0.8204
N2585 X-0.874 Y0.8327
N2590 X-0.86 Y0.8442
N2595 X-0.8452 Y0.8547
N2600 X-0.8299 Y0.8645
N2605 X-0.822 Y0.8689
N2610 X-0.818 Y0.871
N2615 X-0.8149 Y0.8725
N2620 G3 X-0.8039 Y0.8796 Z-0.0493 I-0.0481 J0.0877
N2625 G2 X-0.7708 Y0.8955 Z-0.0474 I0.0592 J-0.0806
N2630 G1 X-0.6675 Y0.9233 Z-0.042
N2635 X0.54 Y1.2483
N2640 G2 X0.6372 Y1.2219 I0.026 J-0.0966
N2645 X0.6581 Y1.1129 Z-0.048 I-0.0713 J-0.0701
N2650 G1 Y1.1128
N2655 G3 X0.6468 Y1.0753 Z-0.05 I0.168 J-0.0707
N2660 G1 X0.6465 Y1.0731
N2665 G3 X0.6567 Y1.0516 I0.0521 J0.0116
N2670 X0.6642 Y1.0422 I0.0599 J0.0403
N2675 G2 X0.7252 Y0.9743 I-4.1586 J-3.7987
N2680 G3 X0.7722 Y0.9281 I0.4584 J0.419
N2685 X0.7927 Y0.9113 I2.0567 J2.4906
N2690 G1 X0.8065 Y0.8995
N2695 X0.8197 Y0.887
N2700 X0.8321 Y0.8738
N2705 X0.8436 Y0.8598
N2710 X0.8543 Y0.8451
N2715 X0.864 Y0.8298
N2720 X0.8685 Y0.8219
N2725 X0.8706 Y0.8179
N2730 X0.8722 Y0.8149
N2735 G3 X0.8792 Y0.8039 Z-0.0493 I0.0875 J0.0484
N2740 G2 X0.8953 Y0.7705 Z-0.0474 I-0.0805 J-0.0594
N2745 G1 X0.9231 Y0.6675 Z-0.042
N2750 X1.2484 Y-0.5384
N2755 G2 X1.222 Y-0.6357 I-0.0965 J-0.026
N2760 X1.113 Y-0.6566 Z-0.048 I-0.0701 J0.0713
N2765 G1 X1.1128 Y-0.6565
N2770 G3 X1.0754 Y-0.6453 Z-0.05 I-0.0708 J-0.168
N2775 G1 X1.0731 Y-0.645
N2780 G3 X1.0516 Y-0.6552 I0.0116 J-0.0521
N2785 X1.0412 Y-0.6637 I0.0434 J-0.064
N2790 G2 X0.9793 Y-0.7202 I-1.9618 J2.0844
N2795 G3 X0.929 Y-0.771 I0.4405 J-0.4867
N2800 X0.9121 Y-0.7915 I3.2695 J-2.7021
N2805 G1 X0.9004 Y-0.8054
N2810 X0.888 Y-0.8186
N2815 X0.8748 Y-0.8311
N2820 X0.8609 Y-0.8427
N2825 X0.8462 Y-0.8534
N2830 X0.831 Y-0.8633
N2835 G2 X0.8151 Y-0.872 I-0.1406 J0.238
N2840 G3 X0.8041 Y-0.8791 Z-0.0493 I0.0485 J-0.0875
N2845 G2 X0.7698 Y-0.8955 Z-0.0474 I-0.0595 J0.0804
N2850 G1 X0.6675 Y-0.9221 Z-0.042
N2855 X-0.5571 Y-1.2411
N2860 G2 X-0.6542 Y-1.2139 I-0.0252 J0.0968
N2865 X-0.6741 Y-1.1047 Z-0.048 I0.0719 J0.0696
N2870 G1 Y-1.1046
N2875 G3 X-0.6625 Y-1.0672 Z-0.05 I-0.1674 J0.0721
N2880 G1 X-0.6624 Y-1.0661
N2885 X-0.6627 Y-1.0644
N2890 X-0.6664 Y-1.051
N2895 X-0.6727 Y-1.0339
N2900 X-0.6736 Y-1.0319
N2905 G3 X-0.8078 Y-0.9888 Z-0.042 I-0.0881 J-0.0439
N2910 X-0.8244 Y-0.9999 I0.046 J-0.087
N2915 G1 X-1.1497 Y-1.258
N2920 G2 X-1.2222 Y-1.2808 I-0.0635 J0.0752
N2925 X-1.2321 Y-1.2794 Z-0.0425 I0.0091 J0.098
N2930 X-1.3079 Y-1.2096 Z-0.098 I0.0189 J0.0966
N2935 G1 X-1.3146 Y-1.1828 Z-0.1
N2940 Y-1.1737
N2945 X-1.3118 Y-1.1558
N2950 X-1.3078 Y-1.1476
N2955 X-1.3033 Y-1.1363
N2960 X-1.2981 Y-1.1189
N2965 X-1.2942 Y-1.1012
N2970 G3 X-1.285 Y-1.0292 I-0.7503 J0.1328
N2975 X-1.2778 Y-0.8842 I-2.1847 J0.1803
N2980 X-1.2755 Y-0.6665 I-9.4661 J0.2105
N2985 X-1.2754 Y-0.5395 I-8.141 J0.0684
N2990 X-1.2872 Y-0.4132 I-0.8095 J-0.0117
N2995 X-1.3061 Y-0.3059 I-7.8267 J-1.3271
N3000 G2 X-1.3269 Y-0.1623 I2.1829 J0.3887
N3005 X-1.3331 Y0.0733 I1.4529 J0.1566
N3010 X-1.3072 Y0.271 I1.3783 J-0.0804
N3015 G3 X-1.2937 Y0.3423 I-2.393 J0.4907
N3020 X-1.2821 Y0.4505 I-1.0517 J0.1668
N3025 X-1.2767 Y0.6137 I-3.2352 J0.1884
N3030 X-1.2754 Y0.777 I-11.371 J0.1736
N3035 G2 X-1.275 Y0.8859 I24.1279 J-0.0424
N3040 X-1.2705 Y0.9583 I0.7086 J-0.0076
N3045 G1 X-1.2679 Y0.9763
N3050 X-1.2646 Y0.9941
N3055 X-1.2606 Y1.0118
N3060 X-1.2557 Y1.0293
N3065 X-1.2499 Y1.0465
N3070 X-1.2433 Y1.0634
N3075 X-1.2359 Y1.0799
N3080 X-1.2275 Y1.096
N3085 X-1.2183 Y1.1117
N3090 X-1.2081 Y1.1267
N3095 X-1.1972 Y1.1412
N3100 X-1.1854 Y1.1549
N3105 X-1.1728 Y1.168
N3110 X-1.1594 Y1.1803
N3115 X-1.1453 Y1.1917
N3120 X-1.1306 Y1.2023
N3125 X-1.1152 Y1.2119
N3130 X-1.0993 Y1.2206
N3135 X-1.0828 Y1.2282
N3140 X-1.0659 Y1.2349
N3145 X-1.0487 Y1.2407
N3150 X-1.0313 Y1.2456
N3155 G2 X-0.96 Y1.2593 I0.1508 J-0.5923
N3160 X-0.8335 Y1.2698 I0.1754 J-1.3496
N3165 X-0.6702 Y1.2737 I0.1863 J-4.3325
N3170 G1 X-0.6521 Y1.274
N3175 G3 X-0.5432 Y1.2748 I-0.2118 J33.6206
N3180 X-0.4168 Y1.2864 I-0.0123 J0.8295
N3185 X-0.3096 Y1.3054 I-1.2458 J7.3395
N3190 G2 X-0.1841 Y1.3244 I0.4222 J-2.3665
N3195 X0.0151 Y1.3352 I0.1816 J-1.5051
N3200 X0.2673 Y1.3079 I-0.0209 J-1.3723
N3205 G3 X0.3386 Y1.2943 I0.5297 J2.5748
N3210 G1 X0.3565 Y1.2915
N3215 G3 X0.4649 Y1.2813 I0.1629 J1.1509
N3220 X0.6281 Y1.2765 I0.1876 J3.6471
N3225 X0.864 Y1.2752 I0.2161 J17.6497
N3230 G2 X0.9365 Y1.2727 I0.0017 J-0.9999
N3235 G1 X0.9546 Y1.2709
N3240 X0.9726 Y1.2685
N3245 X0.9904 Y1.2654
N3250 X1.0081 Y1.2615
N3255 X1.0257 Y1.2568
N3260 X1.0429 Y1.2512
N3265 X1.0599 Y1.2448
N3270 X1.0765 Y1.2375
N3275 X1.0927 Y1.2293
N3280 X1.1085 Y1.2203
N3285 X1.1236 Y1.2103
N3290 X1.1382 Y1.1995
N3295 X1.1521 Y1.1879
N3300 X1.1654 Y1.1755
N3305 X1.1778 Y1.1622
N3310 X1.1894 Y1.1483
N3315 X1.2002 Y1.1337
N3320 X1.21 Y1.1184
N3325 X1.2189 Y1.1026
N3330 X1.2267 Y1.0862
N3335 X1.2336 Y1.0695
N3340 X1.2395 Y1.0523
N3345 X1.2446 Y1.0349
N3350 G2 X1.2588 Y0.9637 I-0.5727 J-0.1508
N3355 X1.2696 Y0.8372 I-1.3063 J-0.1754
N3360 X1.2737 Y0.674 I-4.1934 J-0.1864
N3365 G1 X1.2748 Y0.547
N3370 G3 X1.2858 Y0.4206 I0.8278 J0.0084
N3375 X1.3048 Y0.3133 I6.2621 J1.0525
N3380 G2 X1.324 Y0.1878 I-2.4669 J-0.4417
N3385 X1.3342 Y0.0612 I-1.602 J-0.1938
N3390 X1.3087 Y-0.2636 I-1.3722 J-0.0554
N3395 G3 X1.2949 Y-0.3349 I3.4026 J-0.696
N3400 X1.2826 Y-0.443 I1.0051 J-0.1689
N3405 X1.2769 Y-0.6062 I3.0458 J-0.1888
N3410 X1.2753 Y-0.8602 I15.7572 J-0.2268
N3415 G1 X1.275 Y-0.8784
N3420 G2 X1.2714 Y-0.9508 I-0.7282 J0.0007
N3425 G1 X1.2691 Y-0.9688
N3430 X1.2661 Y-0.9867
N3435 X1.2623 Y-1.0045
N3440 X1.2578 Y-1.0221
N3445 X1.2524 Y-1.0394
N3450 X1.2462 Y-1.0564
N3455 X1.2391 Y-1.0731
N3460 X1.2311 Y-1.0894
N3465 X1.2222 Y-1.1052
N3470 X1.2124 Y-1.1205
N3475 X1.2018 Y-1.1352
N3480 X1.1904 Y-1.1493
N3485 X1.1781 Y-1.1627
N3490 X1.165 Y-1.1753
N3495 X1.1513 Y-1.1871
N3500 X1.1368 Y-1.198
N3505 X1.1216 Y-1.208
N3510 X1.1059 Y-1.2171
N3515 X1.0897 Y-1.2252
N3520 X1.073 Y-1.2323
N3525 X1.0559 Y-1.2384
N3530 X1.0385 Y-1.2436
N3535 G2 X0.9675 Y-1.2582 I-0.1507 J0.5535
N3540 X0.8591 Y-1.2685 I-0.1667 J1.1836
N3545 X0.6959 Y-1.2734 I-0.1894 J3.5839
N3550 X0.5507 Y-1.2747 I-0.2098 J15.5137
N3555 G3 X0.4783 Y-1.2783 I0.0102 J-0.9432
N3560 G2 X0.4462 Y-1.281 I-0.051 J0.3997
N3565 G3 X0.3521 Y-1.2924 I0.1132 J-1.3306
N3570 G1 X0.2803 Y-1.3033
N3575 G2 X0.1181 Y-1.3223 I-0.3385 J2.1806
N3580 X-0.0632 Y-1.3246 I-0.1096 J1.4887
N3585 X-0.2789 Y-1.2963 I0.0725 J1.3861
N3590 G3 X-0.3445 Y-1.2843 I-0.3317 J-1.6361
N3595 X-0.4643 Y-1.2727 I-0.1798 J-1.2296
N3600 X-0.608 Y-1.2679 I-0.1774 J-3.1782
N3605 X-0.862 Y-1.2663 I-0.2313 J-15.7248
N3610 G2 X-0.9345 Y-1.2638 I-0.0012 J1.0179
N3615 G1 X-0.9526 Y-1.262
N3620 X-0.9706 Y-1.2595
N3625 X-0.9884 Y-1.2564
N3630 X-1.0062 Y-1.2524
N3635 X-1.0237 Y-1.2477
N3640 X-1.0409 Y-1.2421
N3645 X-1.0579 Y-1.2356
N3650 X-1.0744 Y-1.2282
N3655 X-1.0905 Y-1.2198
N3660 X-1.1039 Y-1.2076
N3665 X-1.1151 Y-1.1932
N3670 X-1.1243 Y-1.1776
N3675 X-1.132 Y-1.1612
N3680 X-1.1383 Y-1.1442
N3685 X-1.1436 Y-1.1268
N3690 X-1.1479 Y-1.1092
N3695 G2 X-1.1571 Y-1.0521 I0.5526 J0.1182
N3700 X-1.164 Y-0.9435 I1.2833 J0.1369
N3705 X-1.1658 Y-0.8346 I3.9878 J0.1205
N3710 X-1.1662 Y-0.635 I31.0262 J0.158
N3715 G3 X-1.171 Y-0.5074 I-1.7501 J-0.0018
N3720 X-1.1902 Y-0.3516 I-2.3017 J-0.2046
N3725 G2 X-1.2079 Y-0.2258 I6.8491 J1.0268
N3730 X-1.2213 Y-0.0631 I1.8247 J0.2322
N3735 X-1.2061 Y0.1901 I1.3635 J0.0454
N3740 G3 X-1.193 Y0.2799 I-34.5659 J5.1148
N3745 X-1.1725 Y0.5148 I-2.3434 J0.3224
N3750 X-1.1678 Y0.6962 I-5.29 J0.2269
N3755 G2 X-1.1663 Y0.8232 I30.7905 J-0.3195
N3760 X-1.162 Y0.8888 I0.8235 J-0.0206
N3765 G1 X-1.1596 Y0.9068
N3770 X-1.1566 Y0.9247
N3775 X-1.1526 Y0.9424
N3780 X-1.1477 Y0.9599
N3785 X-1.1418 Y0.977
N3790 X-1.1347 Y0.9937
N3795 X-1.1264 Y1.0099
N3800 X-1.1168 Y1.0253
N3805 X-1.1059 Y1.0398
N3810 X-1.0938 Y1.0533
N3815 X-1.0805 Y1.0657
N3820 X-1.0663 Y1.077
N3825 X-1.0513 Y1.0872
N3830 X-1.0357 Y1.0964
N3835 X-1.0195 Y1.1047
N3840 X-1.003 Y1.112
N3845 X-0.986 Y1.1186
N3850 G2 X-0.9162 Y1.138 I0.1749 J-0.4929
N3855 X-0.8085 Y1.1536 I0.1882 J-0.9208
N3860 X-0.6636 Y1.1619 I0.1999 J-2.2176
N3865 G3 X-0.5686 Y1.1654 I-0.2178 J7.2395
N3870 X-0.4018 Y1.1824 I-0.0971 J1.7784
N3875 X-0.312 Y1.1957 I-0.8927 J6.3386
N3880 G2 X-0.1681 Y1.2143 I0.4529 J-2.9458
N3885 X-0.005 Y1.222 I0.1567 J-1.5787
N3890 X0.1937 Y1.2056 I-0.0131 J-1.3712
N3895 G3 X0.2835 Y1.1925 I3.4817 J23.5179
N3900 X0.5003 Y1.1731 I0.3154 J2.3116
N3905 X0.718 Y1.1676 I0.2501 J5.5613
N3910 G1 X0.8087 Y1.1665
N3915 G2 X0.871 Y1.1637 I-0.0138 J-0.9924
N3920 G1 X0.8891 Y1.162
N3925 X0.9071 Y1.1596
N3930 X0.9249 Y1.1565
N3935 X0.9426 Y1.1526
N3940 X0.9601 Y1.1477
N3945 X0.9772 Y1.1417
N3950 X0.9939 Y1.1346
N3955 X1.0101 Y1.1262
N3960 X1.0254 Y1.1166
N3965 X1.04 Y1.1057
N3970 X1.0534 Y1.0936
N3975 X1.0658 Y1.0803
N3980 X1.0771 Y1.0661
N3985 X1.0874 Y1.0512
N3990 X1.0965 Y1.0355
N3995 X1.1048 Y1.0193
N4000 X1.1121 Y1.0027
N4005 X1.1187 Y0.9858
N4010 G2 X1.1381 Y0.9159 I-0.4937 J-0.1748
N4015 X1.1536 Y0.8082 I-0.9227 J-0.1882
N4020 X1.1619 Y0.6633 I-2.2231 J-0.2
N4025 G3 X1.1655 Y0.5673 I7.1908 J0.2165
N4030 X1.1822 Y0.4031 I1.7836 J0.0991
N4035 X1.1982 Y0.2954 I10.5525 J1.5096
N4040 G2 X1.2158 Y0.1514 I-2.6238 J-0.3943
N4045 X1.2213 Y-0.0299 I-1.5053 J-0.1361
N4050 X1.2058 Y-0.1924 I-1.3948 J0.0508
N4055 G3 X1.1902 Y-0.3001 I9.236 J-1.3925
N4060 X1.1724 Y-0.5171 I2.4035 J-0.3066
N4065 X1.1676 Y-0.7166 I5.7549 J-0.2377
N4070 G1 X1.1666 Y-0.8073
N4075 G2 X1.1638 Y-0.8696 I-1.0082 J0.0131
N4080 G1 X1.162 Y-0.8888
N4085 X1.1596 Y-0.9068
N4090 X1.1566 Y-0.9247
N4095 X1.1526 Y-0.9424
N4100 X1.1477 Y-0.9599
N4105 X1.1418 Y-0.977
N4110 X1.1347 Y-0.9937
N4115 X1.1263 Y-1.0099
N4120 X1.1168 Y-1.0253
N4125 X1.1059 Y-1.0398
N4130 X1.0937 Y-1.0533
N4135 X1.0805 Y-1.0657
N4140 X1.0663 Y-1.077
N4145 X1.0513 Y-1.0872
N4150 X1.0357 Y-1.0964
N4155 X1.0195 Y-1.1047
N4160 X1.0029 Y-1.112
N4165 X0.986 Y-1.1186
N4170 G2 X0.9161 Y-1.138 I-0.1749 J0.4932
N4175 X0.8085 Y-1.1536 I-0.1882 J0.9213
N4180 X0.6636 Y-1.1619 I-0.1999 J2.2178
N4185 G3 X0.5638 Y-1.1656 I0.2012 J-6.7562
N4190 X0.3544 Y-1.1846 I0.1212 J-2.501
N4195 G2 X0.2283 Y-1.2003 I-1.6221 J12.4861
N4200 X0.0655 Y-1.2127 I-0.2358 J2.0224
N4205 X-0.1877 Y-1.1974 I-0.0428 J1.3895
N4210 G3 X-0.2955 Y-1.1819 I-1.4502 J-9.7325
N4215 X-0.5057 Y-1.1641 I-0.3168 J-2.4856
N4220 X-0.7234 Y-1.1586 I-0.2532 J-5.7478
N4225 G2 X-0.8141 Y-1.1575 I0.2148 J20.3644
N4230 X-0.8921 Y-1.1524 I0.0132 J0.8157
N4235 G1 X-0.9101 Y-1.1498
N4240 X-0.9273 Y-1.144
N4245 X-0.9432 Y-1.1353
N4250 X-0.9504 Y-1.1298
N4255 X-0.9566 Y-1.1232
N4260 X-0.9618 Y-1.1157
N4265 X-0.9657 Y-1.1075
N4270 X-0.9683 Y-1.0989
N4275 X-0.9696 Y-1.0899
N4280 X-0.9694 Y-1.0808
N4285 X-0.9678 Y-1.0719
N4290 X-0.9619 Y-1.0547
N4295 G3 X-0.9454 Y-1.0229 I-0.0799 J0.0617
N4300 X-0.944 Y-1.0006 I-0.0521 J0.0145
N4305 G1 X-0.9444 Y-0.9992
N4310 X-0.9449 Y-0.9977
N4315 X-0.9453 Y-0.9963
N4320 X-0.9459 Y-0.9949
N4325 X-0.9466 Y-0.9936
N4330 X-0.9474 Y-0.9923
N4335 X-0.9623 Y-0.9819
N4340 X-0.9753 Y-0.9693
N4345 X-0.9867 Y-0.9552
N4350 X-0.9966 Y-0.94
N4355 X-1.0052 Y-0.924
N4360 X-1.0125 Y-0.9074
N4365 X-1.0189 Y-0.8904
N4370 X-1.0244 Y-0.8731
N4375 G2 X-1.0396 Y-0.8022 I0.5293 J0.1505
N4380 X-1.0496 Y-0.7063 I1.1284 J0.1663
N4385 X-1.0563 Y-0.5977 I10.6049 J0.7102
N4390 G1 X-1.0566 Y-0.5943
N4395 G3 X-1.0604 Y-0.5754 Z-0.099 I-0.0995 J-0.0102
N4400 G1 X-1.0662 Y-0.5563 Z-0.098
N4405 X-1.1005 Y-0.4437 Z-0.092
N4410 X-1.3402 Y0.3443
N4415 G2 X-1.3205 Y0.4385 I0.0957 J0.0291
N4420 X-1.2137 Y0.4685 Z-0.098 I0.0759 J-0.0651
N4425 G1 X-1.2135 Y0.4684
N4430 G3 X-1.1752 Y0.4604 Z-0.1 I0.0562 J0.1734
N4435 G1 X-1.1741
N4440 G3 X-1.1555 Y0.4697 I-0.0114 J0.0461
N4445 X-1.1306 Y0.4955 I-0.0664 J0.0888
N4450 X-1.1063 Y0.5396 I-0.165 J0.1198
N4455 X-1.0862 Y0.6027 I-0.3345 J0.1411
N4460 X-1.0721 Y0.6849 I-0.6687 J0.157
N4465 X-1.0634 Y0.7717 I-2.2889 J0.2746
N4470 G1 X-1.0624 Y0.7808
N4475 X-1.0601 Y0.7896
N4480 X-1.0565 Y0.7979
N4485 X-1.0516 Y0.8055
N4490 X-1.0396 Y0.8191
N4495 X-1.0253 Y0.8303
N4500 G3 X-0.9883 Y0.8589 I-0.3507 J0.4916
N4505 X-0.9604 Y0.8886 I-0.121 J0.1417
N4510 X-0.9501 Y0.9068 I-0.0935 J0.0652
N4515 G1 X-0.9431 Y0.9236
N4520 X-0.9336 Y0.939
N4525 X-0.922 Y0.953
N4530 X-0.9088 Y0.9655
N4535 X-0.8944 Y0.9766
N4540 X-0.8792 Y0.9864
N4545 X-0.8633 Y0.9952
N4550 X-0.8469 Y1.0029
N4555 X-0.83 Y1.0096
N4560 X-0.8129 Y1.0156
N4565 G2 X-0.7302 Y1.035 I0.1721 J-0.5482
N4570 X-0.6402 Y1.0468 I0.2186 J-1.3185
N4575 G1 X-0.6222 Y1.0487
N4580 X-0.5985 Y1.051
N4585 G3 X-0.5819 Y1.0548 Z-0.0991 I-0.0134 J0.0991
N4590 G1 X-0.5607 Y1.0614 Z-0.098
N4595 X-0.4484 Y1.0968 Z-0.092
N4600 X0.3293 Y1.3413
N4605 G2 X0.4248 Y1.3215 I0.03 J-0.0954
N4610 X0.4542 Y1.2145 Z-0.098 I-0.0655 J-0.0756
N4615 G1 Y1.2144
N4620 G3 X0.446 Y1.1761 Z-0.1 I0.1731 J-0.0572
N4625 G1 X0.4456 Y1.1716
N4630 G3 X0.46 Y1.149 I0.0615 J0.0232
N4635 X0.4926 Y1.1228 I0.101 J0.0922
N4640 X0.5419 Y1.0998 I0.1274 J0.2091
N4645 X0.6087 Y1.0819 I0.1455 J0.4089
N4650 X0.6976 Y1.0692 I0.1641 J0.8343
N4655 X0.7798 Y1.0619 I0.4645 J4.7329
N4660 G1 X0.7886 Y1.0596
N4665 X0.7969 Y1.056
N4670 X0.8046 Y1.0512
N4675 X0.8183 Y1.0393
N4680 X0.8296 Y1.0251
N4685 G3 X0.8588 Y0.9877 I0.4994 J0.3606
N4690 X0.8887 Y0.96 I0.1412 J0.1221
N4695 X0.9069 Y0.9497 I0.0646 J0.0938
N4700 G1 X0.9238 Y0.9429
N4705 X0.9392 Y0.9333
N4710 X0.9531 Y0.9217
N4715 X0.9656 Y0.9085
N4720 X0.9767 Y0.8941
N4725 X0.9865 Y0.8789
N4730 X0.9952 Y0.863
N4735 X1.0029 Y0.8465
N4740 X1.0097 Y0.8297
N4745 X1.0156 Y0.8126
N4750 G2 X1.035 Y0.7298 I-0.5493 J-0.1722
N4755 X1.0468 Y0.6399 I-1.3211 J-0.2188
N4760 G1 X1.0487 Y0.6218
N4765 X1.0511 Y0.5981
N4770 G3 X1.0548 Y0.5815 Z-0.0991 I0.0991 J0.0134
N4775 G1 X1.0615 Y0.5604 Z-0.098
N4780 X1.0969 Y0.448 Z-0.092
N4785 X1.3414 Y-0.3279
N4790 G2 X1.3216 Y-0.4235 I-0.0954 J-0.0301
N4795 X1.2146 Y-0.4529 Z-0.098 I-0.0755 J0.0655
N4800 G1 X1.2145 Y-0.4528
N4805 G3 X1.1762 Y-0.4446 Z-0.1 I-0.0572 J-0.1731
N4810 G1 X1.1717 Y-0.4443
N4815 G3 X1.1491 Y-0.4587 I0.0232 J-0.0615
N4820 X1.1228 Y-0.4913 I0.0921 J-0.101
N4825 X1.0999 Y-0.5405 I0.209 J-0.1274
N4830 X1.082 Y-0.6072 I0.4085 J-0.1455
N4835 X1.0693 Y-0.6955 I0.8294 J-0.1636
N4840 X1.0627 Y-0.7704 I2.8759 J-0.2943
N4845 G1 X1.0617 Y-0.7806
N4850 X1.0594 Y-0.7894
N4855 X1.0559 Y-0.7977
N4860 X1.0511 Y-0.8054
N4865 X1.0392 Y-0.8191
N4870 X1.0249 Y-0.8303
N4875 G3 X0.988 Y-0.8589 I0.3513 J-0.4898
N4880 X0.9602 Y-0.8887 I0.1213 J-0.1412
N4885 X0.9499 Y-0.9069 I0.0935 J-0.0648
N4890 G1 X0.943 Y-0.9237
N4895 X0.9335 Y-0.9391
N4900 X0.9218 Y-0.9531
N4905 X0.9086 Y-0.9655
N4910 X0.8943 Y-0.9766
N4915 X0.8791 Y-0.9865
N4920 X0.8631 Y-0.9952
N4925 X0.8467 Y-1.0029
N4930 X0.8299 Y-1.0097
N4935 X0.8127 Y-1.0156
N4940 G2 X0.73 Y-1.035 I-0.1722 J0.549
N4945 X0.64 Y-1.0467 I-0.2147 J1.2927
N4950 G1 X0.622 Y-1.0486
N4955 X0.6028 Y-1.0504
N4960 X0.6017 Y-1.0505
N4965 G3 X0.586 Y-1.0538 Z-0.0992 I0.0126 J-0.0992
N4970 G1 X0.5637 Y-1.0604 Z-0.098
N4975 X0.4508 Y-1.0937 Z-0.092
N4980 X-0.3539 Y-1.331
N4985 G2 X-0.4471 Y-1.3111 I-0.0283 J0.0959
N4990 X-0.4774 Y-1.2044 Z-0.098 I0.0649 J0.0761
N4995 G1 Y-1.2043
N5000 G3 X-0.4695 Y-1.1659 Z-0.1 I-0.1735 J0.0558
N5005 G1 X-0.4692 Y-1.1625
N5010 G3 X-0.4823 Y-1.1409 I-0.0574 J-0.0199
N5015 X-0.512 Y-1.1158 I-0.0966 J-0.0844
N5020 X-0.5599 Y-1.0924 I-0.1251 J-0.1949
N5025 X-0.6262 Y-1.0738 I-0.1441 J-0.386
N5030 X-0.7099 Y-1.061 I-0.1659 J-0.8088
N5035 G1 X-0.7267 Y-1.0541
N5040 X-0.7419 Y-1.0443
N5045 X-0.756 Y-1.0328
N5050 X-0.7692 Y-1.0204
N5055 X-0.782 Y-1.0075
N5060 G3 X-0.8181 Y-0.9709 I-0.8071 J-0.7615
N5065 G1 X-0.8307 Y-0.9577
N5070 X-0.8425 Y-0.944
N5075 X-0.8535 Y-0.9295
N5080 X-0.8636 Y-0.9145
N5085 X-0.8729 Y-0.8989
N5090 X-0.8813 Y-0.8828
N5095 X-0.8889 Y-0.8664
N5100 G2 X-0.9101 Y-0.8053 I0.4116 J0.177
N5105 G3 X-0.9147 Y-0.7931 Z-0.0993 I-0.0957 J-0.0289
N5110 G2 X-0.9206 Y-0.7762 Z-0.0984 I0.0912 J0.0411
N5115 G1 X-0.9226 Y-0.7682 Z-0.098
N5120 X-0.9512 Y-0.654 Z-0.092
N5125 X-1.2515 Y0.5457
N5130 G2 X-1.2545 Y0.57 I0.097 J0.0243
N5135 X-1.2237 Y0.6422 I0.1 J0.
N5140 X-1.1144 Y0.6616 Z-0.098 I0.0692 J-0.0722
N5145 G1 X-1.1143 Y0.6615
N5150 G3 X-1.0769 Y0.6498 Z-0.1 I0.073 J0.167
N5155 G1 X-1.0758 Y0.6496
N5160 G3 X-1.0578 Y0.6566 I-0.0065 J0.0435
N5165 X-1.0445 Y0.6663 I-0.0401 J0.0686
N5170 G2 X-0.9831 Y0.7198 I4.6402 J-5.2728
N5175 G3 X-0.9286 Y0.7733 I-0.4018 J0.4632
N5180 X-0.9118 Y0.7936 I-14.0926 J11.6777
N5185 G1 X-0.8999 Y0.8073
N5190 X-0.8874 Y0.8204
N5195 X-0.874 Y0.8327
N5200 X-0.86 Y0.8442
N5205 X-0.8452 Y0.8547
N5210 X-0.8299 Y0.8645
N5215 X-0.822 Y0.8689
N5220 X-0.818 Y0.871
N5225 X-0.8149 Y0.8725
N5230 G3 X-0.8039 Y0.8796 Z-0.0993 I-0.0481 J0.0877
N5235 G2 X-0.7708 Y0.8955 Z-0.0974 I0.0592 J-0.0806
N5240 G1 X-0.6675 Y0.9233 Z-0.092
N5245 X0.54 Y1.2483
N5250 G2 X0.6372 Y1.2219 I0.026 J-0.0966
N5255 X0.6581 Y1.1129 Z-0.098 I-0.0713 J-0.0701
N5260 G1 Y1.1128
N5265 G3 X0.6468 Y1.0753 Z-0.1 I0.168 J-0.0707
N5270 G1 X0.6465 Y1.0731
N5275 G3 X0.6567 Y1.0516 I0.0521 J0.0116
N5280 X0.6642 Y1.0422 I0.0599 J0.0403
N5285 G2 X0.7252 Y0.9743 I-4.1586 J-3.7987
N5290 G3 X0.7722 Y0.9281 I0.4584 J0.419
N5295 X0.7927 Y0.9113 I2.0567 J2.4906
N5300 G1 X0.8065 Y0.8995
N5305 X0.8197 Y0.887
N5310 X0.8321 Y0.8738
N5315 X0.8436 Y0.8598
N5320 X0.8543 Y0.8451
N5325 X0.864 Y0.8298
N5330 X0.8685 Y0.8219
N5335 X0.8706 Y0.8179
N5340 X0.8722 Y0.8149
N5345 G3 X0.8792 Y0.8039 Z-0.0993 I0.0875 J0.0484
N5350 G2 X0.8953 Y0.7705 Z-0.0974 I-0.0805 J-0.0594
N5355 G1 X0.9231 Y0.6675 Z-0.092
N5360 X1.2484 Y-0.5384
N5365 G2 X1.222 Y-0.6357 I-0.0965 J-0.026
N5370 X1.113 Y-0.6566 Z-0.098 I-0.0701 J0.0713
N5375 G1 X1.1128 Y-0.6565
N5380 G3 X1.0754 Y-0.6453 Z-0.1 I-0.0708 J-0.168
N5385 G1 X1.0731 Y-0.645
N5390 G3 X1.0516 Y-0.6552 I0.0116 J-0.0521
N5395 X1.0412 Y-0.6637 I0.0434 J-0.064
N5400 G2 X0.9793 Y-0.7202 I-1.9618 J2.0844
N5405 G3 X0.929 Y-0.771 I0.4405 J-0.4867
N5410 X0.9121 Y-0.7915 I3.2695 J-2.7021
N5415 G1 X0.9004 Y-0.8054
N5420 X0.888 Y-0.8186
N5425 X0.8748 Y-0.8311
N5430 X0.8609 Y-0.8427
N5435 X0.8462 Y-0.8534
N5440 X0.831 Y-0.8633
N5445 G2 X0.8151 Y-0.872 I-0.1406 J0.238
N5450 G3 X0.8041 Y-0.8791 Z-0.0993 I0.0485 J-0.0875
N5455 G2 X0.7698 Y-0.8955 Z-0.0974 I-0.0595 J0.0804
N5460 G1 X0.6675 Y-0.9221 Z-0.092
N5465 X-0.5571 Y-1.2411
N5470 G2 X-0.6542 Y-1.2139 I-0.0252 J0.0968
N5475 X-0.6741 Y-1.1047 Z-0.098 I0.0719 J0.0696
N5480 G1 Y-1.1046
N5485 G3 X-0.6625 Y-1.0672 Z-0.1 I-0.1674 J0.0721
N5490 G1 X-0.6624 Y-1.0661
N5495 X-0.6627 Y-1.0644
N5500 X-0.6664 Y-1.051
N5505 X-0.6727 Y-1.0339
N5510 X-0.6736 Y-1.0319
N5515 G3 X-0.8078 Y-0.9888 Z-0.092 I-0.0881 J-0.0439
N5520 X-0.8244 Y-0.9999 I0.046 J-0.087
N5525 G1 X-1.1497 Y-1.258
N5530 G2 X-1.2116 Y-1.2812 I-0.0635 J0.0752
N5535 X-1.2321 Y-1.2794 Z-0.093 I-0.0015 J0.0984
N5540 X-1.3079 Y-1.2096 Z-0.1076 I0.0189 J0.0966
N5545 G1 X-1.3146 Y-1.1828 Z-0.109
N5550 Y-1.1737
N5555 X-1.3118 Y-1.1558
N5560 X-1.3078 Y-1.1476
N5565 X-1.3033 Y-1.1363
N5570 X-1.2981 Y-1.1189
N5575 X-1.2942 Y-1.1012
N5580 G3 X-1.285 Y-1.0292 I-0.7503 J0.1328
N5585 X-1.2778 Y-0.8842 I-2.1847 J0.1803
N5590 X-1.2755 Y-0.6665 I-9.4661 J0.2105
N5595 X-1.2754 Y-0.5395 I-8.141 J0.0684
N5600 X-1.2872 Y-0.4132 I-0.8095 J-0.0117
N5605 X-1.3061 Y-0.3059 I-7.8267 J-1.3271
N5610 G2 X-1.3269 Y-0.1623 I2.1829 J0.3887
N5615 X-1.3331 Y0.0733 I1.4529 J0.1566
N5620 X-1.3072 Y0.271 I1.3783 J-0.0804
N5625 G3 X-1.2937 Y0.3423 I-2.393 J0.4907
N5630 X-1.2821 Y0.4505 I-1.0517 J0.1668
N5635 X-1.2767 Y0.6137 I-3.2352 J0.1884
N5640 X-1.2754 Y0.777 I-11.371 J0.1736
N5645 G2 X-1.275 Y0.8859 I24.1279 J-0.0424
N5650 X-1.2705 Y0.9583 I0.7086 J-0.0076
N5655 G1 X-1.2679 Y0.9763
N5660 X-1.2646 Y0.9941
N5665 X-1.2606 Y1.0118
N5670 X-1.2557 Y1.0293
N5675 X-1.2499 Y1.0465
N5680 X-1.2433 Y1.0634
N5685 X-1.2359 Y1.0799
N5690 X-1.2275 Y1.096
N5695 X-1.2183 Y1.1117
N5700 X-1.2081 Y1.1267
N5705 X-1.1972 Y1.1412
N5710 X-1.1854 Y1.1549
N5715 X-1.1728 Y1.168
N5720 X-1.1594 Y1.1803
N5725 X-1.1453 Y1.1917
N5730 X-1.1306 Y1.2023
N5735 X-1.1152 Y1.2119
N5740 X-1.0993 Y1.2206
N5745 X-1.0828 Y1.2282
N5750 X-1.0659 Y1.2349
N5755 X-1.0487 Y1.2407
N5760 X-1.0313 Y1.2456
N5765 G2 X-0.96 Y1.2593 I0.1508 J-0.5923
N5770 X-0.8335 Y1.2698 I0.1754 J-1.3496
N5775 X-0.6702 Y1.2737 I0.1863 J-4.3325
N5780 G1 X-0.6521 Y1.274
N5785 G3 X-0.5432 Y1.2748 I-0.2118 J33.6206
N5790 X-0.4168 Y1.2864 I-0.0123 J0.8295
N5795 X-0.3096 Y1.3054 I-1.2458 J7.3395
N5800 G2 X-0.1841 Y1.3244 I0.4222 J-2.3665
N5805 X0.0151 Y1.3352 I0.1816 J-1.5051
N5810 X0.2673 Y1.3079 I-0.0209 J-1.3723
N5815 G3 X0.3386 Y1.2943 I0.5297 J2.5748
N5820 G1 X0.3565 Y1.2915
N5825 G3 X0.4649 Y1.2813 I0.1629 J1.1509
N5830 X0.6281 Y1.2765 I0.1876 J3.6471
N5835 X0.864 Y1.2752 I0.2161 J17.6497
N5840 G2 X0.9365 Y1.2727 I0.0017 J-0.9999
N5845 G1 X0.9546 Y1.2709
N5850 X0.9726 Y1.2685
N5855 X0.9904 Y1.2654
N5860 X1.0081 Y1.2615
N5865 X1.0257 Y1.2568
N5870 X1.0429 Y1.2512
N5875 X1.0599 Y1.2448
N5880 X1.0765 Y1.2375
N5885 X1.0927 Y1.2293
N5890 X1.1085 Y1.2203
N5895 X1.1236 Y1.2103
N5900 X1.1382 Y1.1995
N5905 X1.1521 Y1.1879
N5910 X1.1654 Y1.1755
N5915 X1.1778 Y1.1622
N5920 X1.1894 Y1.1483
N5925 X1.2002 Y1.1337
N5930 X1.21 Y1.1184
N5935 X1.2189 Y1.1026
N5940 X1.2267 Y1.0862
N5945 X1.2336 Y1.0695
N5950 X1.2395 Y1.0523
N5955 X1.2446 Y1.0349
N5960 G2 X1.2588 Y0.9637 I-0.5727 J-0.1508
N5965 X1.2696 Y0.8372 I-1.3063 J-0.1754
N5970 X1.2737 Y0.674 I-4.1934 J-0.1864
N5975 G1 X1.2748 Y0.547
N5980 G3 X1.2858 Y0.4206 I0.8278 J0.0084
N5985 X1.3048 Y0.3133 I6.2621 J1.0525
N5990 G2 X1.324 Y0.1878 I-2.4669 J-0.4417
N5995 X1.3342 Y0.0612 I-1.602 J-0.1938
N6000 X1.3087 Y-0.2636 I-1.3722 J-0.0554
N6005 G3 X1.2949 Y-0.3349 I3.4026 J-0.696
N6010 X1.2826 Y-0.443 I1.0051 J-0.1689
N6015 X1.2769 Y-0.6062 I3.0458 J-0.1888
N6020 X1.2753 Y-0.8602 I15.7572 J-0.2268
N6025 G1 X1.275 Y-0.8784
N6030 G2 X1.2714 Y-0.9508 I-0.7282 J0.0007
N6035 G1 X1.2691 Y-0.9688
N6040 X1.2661 Y-0.9867
N6045 X1.2623 Y-1.0045
N6050 X1.2578 Y-1.0221
N6055 X1.2524 Y-1.0394
N6060 X1.2462 Y-1.0564
N6065 X1.2391 Y-1.0731
N6070 X1.2311 Y-1.0894
N6075 X1.2222 Y-1.1052
N6080 X1.2124 Y-1.1205
N6085 X1.2018 Y-1.1352
N6090 X1.1904 Y-1.1493
N6095 X1.1781 Y-1.1627
N6100 X1.165 Y-1.1753
N6105 X1.1513 Y-1.1871
N6110 X1.1368 Y-1.198
N6115 X1.1216 Y-1.208
N6120 X1.1059 Y-1.2171
N6125 X1.0897 Y-1.2252
N6130 X1.073 Y-1.2323
N6135 X1.0559 Y-1.2384
N6140 X1.0385 Y-1.2436
N6145 G2 X0.9675 Y-1.2582 I-0.1507 J0.5535
N6150 X0.8591 Y-1.2685 I-0.1667 J1.1836
N6155 X0.6959 Y-1.2734 I-0.1894 J3.5839
N6160 X0.5507 Y-1.2747 I-0.2098 J15.5137
N6165 G3 X0.4783 Y-1.2783 I0.0102 J-0.9432
N6170 G2 X0.4462 Y-1.281 I-0.051 J0.3997
N6175 G3 X0.3521 Y-1.2924 I0.1132 J-1.3306
N6180 G1 X0.2803 Y-1.3033
N6185 G2 X0.1181 Y-1.3223 I-0.3385 J2.1806
N6190 X-0.0632 Y-1.3246 I-0.1096 J1.4887
N6195 X-0.2789 Y-1.2963 I0.0725 J1.3861
N6200 G3 X-0.3445 Y-1.2843 I-0.3317 J-1.6361
N6205 X-0.4643 Y-1.2727 I-0.1798 J-1.2296
N6210 X-0.608 Y-1.2679 I-0.1774 J-3.1782
N6215 X-0.862 Y-1.2663 I-0.2313 J-15.7248
N6220 G2 X-0.9345 Y-1.2638 I-0.0012 J1.0179
N6225 G1 X-0.9526 Y-1.262
N6230 X-0.9706 Y-1.2595
N6235 X-0.9884 Y-1.2564
N6240 X-1.0062 Y-1.2524
N6245 X-1.0237 Y-1.2477
N6250 X-1.0409 Y-1.2421
N6255 X-1.0579 Y-1.2356
N6260 X-1.0744 Y-1.2282
N6265 X-1.0905 Y-1.2198
N6270 X-1.1039 Y-1.2076
N6275 X-1.1151 Y-1.1932
N6280 X-1.1243 Y-1.1776
N6285 X-1.132 Y-1.1612
N6290 X-1.1383 Y-1.1442
N6295 X-1.1436 Y-1.1268
N6300 X-1.1479 Y-1.1092
N6305 G2 X-1.1571 Y-1.0521 I0.5526 J0.1182
N6310 X-1.164 Y-0.9435 I1.2833 J0.1369
N6315 X-1.1658 Y-0.8346 I3.9878 J0.1205
N6320 X-1.1662 Y-0.635 I31.0262 J0.158
N6325 G3 X-1.171 Y-0.5074 I-1.7501 J-0.0018
N6330 X-1.1902 Y-0.3516 I-2.3017 J-0.2046
N6335 G2 X-1.2079 Y-0.2258 I6.8491 J1.0268
N6340 X-1.2213 Y-0.0631 I1.8247 J0.2322
N6345 X-1.2061 Y0.1901 I1.3635 J0.0454
N6350 G3 X-1.193 Y0.2799 I-34.5659 J5.1148
N6355 X-1.1725 Y0.5148 I-2.3434 J0.3224
N6360 X-1.1678 Y0.6962 I-5.29 J0.2269
N6365 G2 X-1.1663 Y0.8232 I30.7905 J-0.3195
N6370 X-1.162 Y0.8888 I0.8235 J-0.0206
N6375 G1 X-1.1596 Y0.9068
N6380 X-1.1566 Y0.9247
N6385 X-1.1526 Y0.9424
N6390 X-1.1477 Y0.9599
N6395 X-1.1418 Y0.977
N6400 X-1.1347 Y0.9937
N6405 X-1.1264 Y1.0099
N6410 X-1.1168 Y1.0253
N6415 X-1.1059 Y1.0398
N6420 X-1.0938 Y1.0533
N6425 X-1.0805 Y1.0657
N6430 X-1.0663 Y1.077
N6435 X-1.0513 Y1.0872
N6440 X-1.0357 Y1.0964
N6445 X-1.0195 Y1.1047
N6450 X-1.003 Y1.112
N6455 X-0.986 Y1.1186
N6460 G2 X-0.9162 Y1.138 I0.1749 J-0.4929
N6465 X-0.8085 Y1.1536 I0.1882 J-0.9208
N6470 X-0.6636 Y1.1619 I0.1999 J-2.2176
N6475 G3 X-0.5686 Y1.1654 I-0.2178 J7.2395
N6480 X-0.4018 Y1.1824 I-0.0971 J1.7784
N6485 X-0.312 Y1.1957 I-0.8927 J6.3386
N6490 G2 X-0.1681 Y1.2143 I0.4529 J-2.9458
N6495 X-0.005 Y1.222 I0.1567 J-1.5787
N6500 X0.1937 Y1.2056 I-0.0131 J-1.3712
N6505 G3 X0.2835 Y1.1925 I3.4817 J23.5179
N6510 X0.5003 Y1.1731 I0.3154 J2.3116
N6515 X0.718 Y1.1676 I0.2501 J5.5613
N6520 G1 X0.8087 Y1.1665
N6525 G2 X0.871 Y1.1637 I-0.0138 J-0.9924
N6530 G1 X0.8891 Y1.162
N6535 X0.9071 Y1.1596
N6540 X0.9249 Y1.1565
N6545 X0.9426 Y1.1526
N6550 X0.9601 Y1.1477
N6555 X0.9772 Y1.1417
N6560 X0.9939 Y1.1346
N6565 X1.0101 Y1.1262
N6570 X1.0254 Y1.1166
N6575 X1.04 Y1.1057
N6580 X1.0534 Y1.0936
N6585 X1.0658 Y1.0803
N6590 X1.0771 Y1.0661
N6595 X1.0874 Y1.0512
N6600 X1.0965 Y1.0355
N6605 X1.1048 Y1.0193
N6610 X1.1121 Y1.0027
N6615 X1.1187 Y0.9858
N6620 G2 X1.1381 Y0.9159 I-0.4937 J-0.1748
N6625 X1.1536 Y0.8082 I-0.9227 J-0.1882
N6630 X1.1619 Y0.6633 I-2.2231 J-0.2
N6635 G3 X1.1655 Y0.5673 I7.1908 J0.2165
N6640 X1.1822 Y0.4031 I1.7836 J0.0991
N6645 X1.1982 Y0.2954 I10.5525 J1.5096
N6650 G2 X1.2158 Y0.1514 I-2.6238 J-0.3943
N6655 X1.2213 Y-0.0299 I-1.5053 J-0.1361
N6660 X1.2058 Y-0.1924 I-1.3948 J0.0508
N6665 G3 X1.1902 Y-0.3001 I9.236 J-1.3925
N6670 X1.1724 Y-0.5171 I2.4035 J-0.3066
N6675 X1.1676 Y-0.7166 I5.7549 J-0.2377
N6680 G1 X1.1666 Y-0.8073
N6685 G2 X1.1638 Y-0.8696 I-1.0082 J0.0131
N6690 G1 X1.162 Y-0.8888
N6695 X1.1596 Y-0.9068
N6700 X1.1566 Y-0.9247
N6705 X1.1526 Y-0.9424
N6710 X1.1477 Y-0.9599
N6715 X1.1418 Y-0.977
N6720 X1.1347 Y-0.9937
N6725 X1.1263 Y-1.0099
N6730 X1.1168 Y-1.0253
N6735 X1.1059 Y-1.0398
N6740 X1.0937 Y-1.0533
N6745 X1.0805 Y-1.0657
N6750 X1.0663 Y-1.077
N6755 X1.0513 Y-1.0872
N6760 X1.0357 Y-1.0964
N6765 X1.0195 Y-1.1047
N6770 X1.0029 Y-1.112
N6775 X0.986 Y-1.1186
N6780 G2 X0.9161 Y-1.138 I-0.1749 J0.4932
N6785 X0.8085 Y-1.1536 I-0.1882 J0.9213
N6790 X0.6636 Y-1.1619 I-0.1999 J2.2178
N6795 G3 X0.5638 Y-1.1656 I0.2012 J-6.7562
N6800 X0.3544 Y-1.1846 I0.1212 J-2.501
N6805 G2 X0.2283 Y-1.2003 I-1.6221 J12.4861
N6810 X0.0655 Y-1.2127 I-0.2358 J2.0224
N6815 X-0.1877 Y-1.1974 I-0.0428 J1.3895
N6820 G3 X-0.2955 Y-1.1819 I-1.4502 J-9.7325
N6825 X-0.5057 Y-1.1641 I-0.3168 J-2.4856
N6830 X-0.7234 Y-1.1586 I-0.2532 J-5.7478
N6835 G2 X-0.8141 Y-1.1575 I0.2148 J20.3644
N6840 X-0.8921 Y-1.1524 I0.0132 J0.8157
N6845 G1 X-0.9101 Y-1.1498
N6850 X-0.9273 Y-1.144
N6855 X-0.9432 Y-1.1353
N6860 X-0.9504 Y-1.1298
N6865 X-0.9566 Y-1.1232
N6870 X-0.9618 Y-1.1157
N6875 X-0.9657 Y-1.1075
N6880 X-0.9683 Y-1.0989
N6885 X-0.9696 Y-1.0899
N6890 X-0.9694 Y-1.0808
N6895 X-0.9678 Y-1.0719
N6900 X-0.9619 Y-1.0547
N6905 G3 X-0.9454 Y-1.0229 I-0.0799 J0.0617
N6910 X-0.944 Y-1.0006 I-0.0521 J0.0145
N6915 G1 X-0.9444 Y-0.9992
N6920 X-0.9449 Y-0.9977
N6925 X-0.9453 Y-0.9963
N6930 X-0.9459 Y-0.9949
N6935 X-0.9466 Y-0.9936
N6940 X-0.9474 Y-0.9923
N6945 X-0.9623 Y-0.9819
N6950 X-0.9753 Y-0.9693
N6955 X-0.9867 Y-0.9552
N6960 X-0.9966 Y-0.94
N6965 X-1.0052 Y-0.924
N6970 X-1.0125 Y-0.9074
N6975 X-1.0189 Y-0.8904
N6980 X-1.0244 Y-0.8731
N6985 G2 X-1.0396 Y-0.8022 I0.5293 J0.1505
N6990 X-1.0496 Y-0.7063 I1.1284 J0.1663
N6995 X-1.0563 Y-0.5977 I10.6049 J0.7102
N7000 G1 X-1.0566 Y-0.5943
N7005 G3 X-1.0604 Y-0.5754 Z-0.108 I-0.0995 J-0.0102
N7010 G1 X-1.0662 Y-0.5563 Z-0.107
N7015 X-1.1005 Y-0.4437 Z-0.101
N7020 X-1.3402 Y0.3443
N7025 G2 X-1.3205 Y0.4385 I0.0957 J0.0291
N7030 X-1.2137 Y0.4685 Z-0.107 I0.0759 J-0.0651
N7035 G1 X-1.2135 Y0.4684
N7040 G3 X-1.1752 Y0.4604 Z-0.109 I0.0562 J0.1734
N7045 G1 X-1.1741
N7050 G3 X-1.1555 Y0.4697 I-0.0114 J0.0461
N7055 X-1.1306 Y0.4955 I-0.0664 J0.0888
N7060 X-1.1063 Y0.5396 I-0.165 J0.1198
N7065 X-1.0862 Y0.6027 I-0.3345 J0.1411
N7070 X-1.0721 Y0.6849 I-0.6687 J0.157
N7075 X-1.0634 Y0.7717 I-2.2889 J0.2746
N7080 G1 X-1.0624 Y0.7808
N7085 X-1.0601 Y0.7896
N7090 X-1.0565 Y0.7979
N7095 X-1.0516 Y0.8055
N7100 X-1.0396 Y0.8191
N7105 X-1.0253 Y0.8303
N7110 G3 X-0.9883 Y0.8589 I-0.3507 J0.4916
N7115 X-0.9604 Y0.8886 I-0.121 J0.1417
N7120 X-0.9501 Y0.9068 I-0.0935 J0.0652
N7125 G1 X-0.9431 Y0.9236
N7130 X-0.9336 Y0.939
N7135 X-0.922 Y0.953
N7140 X-0.9088 Y0.9655
N7145 X-0.8944 Y0.9766
N7150 X-0.8792 Y0.9864
N7155 X-0.8633 Y0.9952
N7160 X-0.8469 Y1.0029
N7165 X-0.83 Y1.0096
N7170 X-0.8129 Y1.0156
N7175 G2 X-0.7302 Y1.035 I0.1721 J-0.5482
N7180 X-0.6402 Y1.0468 I0.2186 J-1.3185
N7185 G1 X-0.6222 Y1.0487
N7190 X-0.5985 Y1.051
N7195 G3 X-0.5819 Y1.0548 Z-0.1081 I-0.0134 J0.0991
N7200 G1 X-0.5607 Y1.0614 Z-0.107
N7205 X-0.4484 Y1.0968 Z-0.101
N7210 X0.3293 Y1.3413
N7215 G2 X0.4248 Y1.3215 I0.03 J-0.0954
N7220 X0.4542 Y1.2145 Z-0.107 I-0.0655 J-0.0756
N7225 G1 Y1.2144
N7230 G3 X0.446 Y1.1761 Z-0.109 I0.1731 J-0.0572
N7235 G1 X0.4456 Y1.1716
N7240 G3 X0.46 Y1.149 I0.0615 J0.0232
N7245 X0.4926 Y1.1228 I0.101 J0.0922
N7250 X0.5419 Y1.0998 I0.1274 J0.2091
N7255 X0.6087 Y1.0819 I0.1455 J0.4089
N7260 X0.6976 Y1.0692 I0.1641 J0.8343
N7265 X0.7798 Y1.0619 I0.4645 J4.7329
N7270 G1 X0.7886 Y1.0596
N7275 X0.7969 Y1.056
N7280 X0.8046 Y1.0512
N7285 X0.8183 Y1.0393
N7290 X0.8296 Y1.0251
N7295 G3 X0.8588 Y0.9877 I0.4994 J0.3606
N7300 X0.8887 Y0.96 I0.1412 J0.1221
N7305 X0.9069 Y0.9497 I0.0646 J0.0938
N7310 G1 X0.9238 Y0.9429
N7315 X0.9392 Y0.9333
N7320 X0.9531 Y0.9217
N7325 X0.9656 Y0.9085
N7330 X0.9767 Y0.8941
N7335 X0.9865 Y0.8789
N7340 X0.9952 Y0.863
N7345 X1.0029 Y0.8465
N7350 X1.0097 Y0.8297
N7355 X1.0156 Y0.8126
N7360 G2 X1.035 Y0.7298 I-0.5493 J-0.1722
N7365 X1.0468 Y0.6399 I-1.3211 J-0.2188
N7370 G1 X1.0487 Y0.6218
N7375 X1.0511 Y0.5981
N7380 G3 X1.0548 Y0.5815 Z-0.1081 I0.0991 J0.0134
N7385 G1 X1.0615 Y0.5604 Z-0.107
N7390 X1.0969 Y0.448 Z-0.101
N7395 X1.3414 Y-0.3279
N7400 G2 X1.3216 Y-0.4235 I-0.0954 J-0.0301
N7405 X1.2146 Y-0.4529 Z-0.107 I-0.0755 J0.0655
N7410 G1 X1.2145 Y-0.4528
N7415 G3 X1.1762 Y-0.4446 Z-0.109 I-0.0572 J-0.1731
N7420 G1 X1.1717 Y-0.4443
N7425 G3 X1.1491 Y-0.4587 I0.0232 J-0.0615
N7430 X1.1228 Y-0.4913 I0.0921 J-0.101
N7435 X1.0999 Y-0.5405 I0.209 J-0.1274
N7440 X1.082 Y-0.6072 I0.4085 J-0.1455
N7445 X1.0693 Y-0.6955 I0.8294 J-0.1636
N7450 X1.0627 Y-0.7704 I2.8759 J-0.2943
N7455 G1 X1.0617 Y-0.7806
N7460 X1.0594 Y-0.7894
N7465 X1.0559 Y-0.7977
N7470 X1.0511 Y-0.8054
N7475 X1.0392 Y-0.8191
N7480 X1.0249 Y-0.8303
N7485 G3 X0.988 Y-0.8589 I0.3513 J-0.4898
N7490 X0.9602 Y-0.8887 I0.1213 J-0.1412
N7495 X0.9499 Y-0.9069 I0.0935 J-0.0648
N7500 G1 X0.943 Y-0.9237
N7505 X0.9335 Y-0.9391
N7510 X0.9218 Y-0.9531
N7515 X0.9086 Y-0.9655
N7520 X0.8943 Y-0.9766
N7525 X0.8791 Y-0.9865
N7530 X0.8631 Y-0.9952
N7535 X0.8467 Y-1.0029
N7540 X0.8299 Y-1.0097
N7545 X0.8127 Y-1.0156
N7550 G2 X0.73 Y-1.035 I-0.1722 J0.549
N7555 X0.64 Y-1.0467 I-0.2147 J1.2927
N7560 G1 X0.622 Y-1.0486
N7565 X0.6028 Y-1.0504
N7570 X0.6017 Y-1.0505
N7575 G3 X0.586 Y-1.0538 Z-0.1082 I0.0126 J-0.0992
N7580 G1 X0.5637 Y-1.0604 Z-0.107
N7585 X0.4508 Y-1.0937 Z-0.101
N7590 X-0.3539 Y-1.331
N7595 G2 X-0.4471 Y-1.3111 I-0.0283 J0.0959
N7600 X-0.4774 Y-1.2044 Z-0.107 I0.0649 J0.0761
N7605 G1 Y-1.2043
N7610 G3 X-0.4695 Y-1.1659 Z-0.109 I-0.1735 J0.0558
N7615 G1 X-0.4692 Y-1.1625
N7620 G3 X-0.4823 Y-1.1409 I-0.0574 J-0.0199
N7625 X-0.512 Y-1.1158 I-0.0966 J-0.0844
N7630 X-0.5599 Y-1.0924 I-0.1251 J-0.1949
N7635 X-0.6262 Y-1.0738 I-0.1441 J-0.386
N7640 X-0.7099 Y-1.061 I-0.1659 J-0.8088
N7645 G1 X-0.7267 Y-1.0541
N7650 X-0.7419 Y-1.0443
N7655 X-0.756 Y-1.0328
N7660 X-0.7692 Y-1.0204
N7665 X-0.782 Y-1.0075
N7670 G3 X-0.8181 Y-0.9709 I-0.8071 J-0.7615
N7675 G1 X-0.8307 Y-0.9577
N7680 X-0.8425 Y-0.944
N7685 X-0.8535 Y-0.9295
N7690 X-0.8636 Y-0.9145
N7695 X-0.8729 Y-0.8989
N7700 X-0.8813 Y-0.8828
N7705 X-0.8889 Y-0.8664
N7710 G2 X-0.9101 Y-0.8053 I0.4116 J0.177
N7715 G3 X-0.9147 Y-0.7931 Z-0.1083 I-0.0957 J-0.0289
N7720 G2 X-0.9206 Y-0.7762 Z-0.1074 I0.0912 J0.0411
N7725 G1 X-0.9226 Y-0.7682 Z-0.107
N7730 X-0.9512 Y-0.654 Z-0.101
N7735 X-1.2515 Y0.5457
N7740 G2 X-1.2545 Y0.57 I0.097 J0.0243
N7745 X-1.2237 Y0.6422 I0.1 J0.
N7750 X-1.1144 Y0.6616 Z-0.107 I0.0692 J-0.0722
N7755 G1 X-1.1143 Y0.6615
N7760 G3 X-1.0769 Y0.6498 Z-0.109 I0.073 J0.167
N7765 G1 X-1.0758 Y0.6496
N7770 G3 X-1.0578 Y0.6566 I-0.0065 J0.0435
N7775 X-1.0445 Y0.6663 I-0.0401 J0.0686
N7780 G2 X-0.9831 Y0.7198 I4.6402 J-5.2728
N7785 G3 X-0.9286 Y0.7733 I-0.4018 J0.4632
N7790 X-0.9118 Y0.7936 I-14.0926 J11.6777
N7795 G1 X-0.8999 Y0.8073
N7800 X-0.8874 Y0.8204
N7805 X-0.874 Y0.8327
N7810 X-0.86 Y0.8442
N7815 X-0.8452 Y0.8547
N7820 X-0.8299 Y0.8645
N7825 X-0.822 Y0.8689
N7830 X-0.818 Y0.871
N7835 X-0.8149 Y0.8725
N7840 G3 X-0.8039 Y0.8796 Z-0.1083 I-0.0481 J0.0877
N7845 G2 X-0.7708 Y0.8955 Z-0.1064 I0.0592 J-0.0806
N7850 G1 X-0.6675 Y0.9233 Z-0.101
N7855 X0.54 Y1.2483
N7860 G2 X0.6372 Y1.2219 I0.026 J-0.0966
N7865 X0.6581 Y1.1129 Z-0.107 I-0.0713 J-0.0701
N7870 G1 Y1.1128
N7875 G3 X0.6468 Y1.0753 Z-0.109 I0.168 J-0.0707
N7880 G1 X0.6465 Y1.0731
N7885 G3 X0.6567 Y1.0516 I0.0521 J0.0116
N7890 X0.6642 Y1.0422 I0.0599 J0.0403
N7895 G2 X0.7252 Y0.9743 I-4.1586 J-3.7987
N7900 G3 X0.7722 Y0.9281 I0.4584 J0.419
N7905 X0.7927 Y0.9113 I2.0567 J2.4906
N7910 G1 X0.8065 Y0.8995
N7915 X0.8197 Y0.887
N7920 X0.8321 Y0.8738
N7925 X0.8436 Y0.8598
N7930 X0.8543 Y0.8451
N7935 X0.864 Y0.8298
N7940 X0.8685 Y0.8219
N7945 X0.8706 Y0.8179
N7950 X0.8722 Y0.8149
N7955 G3 X0.8792 Y0.8039 Z-0.1083 I0.0875 J0.0484
N7960 G2 X0.8953 Y0.7705 Z-0.1064 I-0.0805 J-0.0594
N7965 G1 X0.9231 Y0.6675 Z-0.101
N7970 X1.2484 Y-0.5384
N7975 G2 X1.222 Y-0.6357 I-0.0965 J-0.026
N7980 X1.113 Y-0.6566 Z-0.107 I-0.0701 J0.0713
N7985 G1 X1.1128 Y-0.6565
N7990 G3 X1.0754 Y-0.6453 Z-0.109 I-0.0708 J-0.168
N7995 G1 X1.0731 Y-0.645
N8000 G3 X1.0516 Y-0.6552 I0.0116 J-0.0521
N8005 X1.0412 Y-0.6637 I0.0434 J-0.064
N8010 G2 X0.9793 Y-0.7202 I-1.9618 J2.0844
N8015 G3 X0.929 Y-0.771 I0.4405 J-0.4867
N8020 X0.9121 Y-0.7915 I3.2695 J-2.7021
N8025 G1 X0.9004 Y-0.8054
N8030 X0.888 Y-0.8186
N8035 X0.8748 Y-0.8311
N8040 X0.8609 Y-0.8427
N8045 X0.8462 Y-0.8534
N8050 X0.831 Y-0.8633
N8055 G2 X0.8151 Y-0.872 I-0.1406 J0.238
N8060 G3 X0.8041 Y-0.8791 Z-0.1083 I0.0485 J-0.0875
N8065 G2 X0.7698 Y-0.8955 Z-0.1064 I-0.0595 J0.0804
N8070 G1 X0.6675 Y-0.9221 Z-0.101
N8075 X-0.5571 Y-1.2411
N8080 G2 X-0.6542 Y-1.2139 I-0.0252 J0.0968
N8085 X-0.6741 Y-1.1047 Z-0.107 I0.0719 J0.0696
N8090 G1 Y-1.1046
N8095 G3 X-0.6625 Y-1.0672 Z-0.109 I-0.1674 J0.0721
N8100 G1 X-0.6624 Y-1.0661
N8105 X-0.6627 Y-1.0644
N8110 X-0.6664 Y-1.051
N8115 X-0.6727 Y-1.0339
N8120 X-0.6736 Y-1.0319
N8125 G3 X-0.6975 Y-1.001 I-0.0895 J-0.0446
N8130 G1 X-0.7034 Y-0.9959 Z-0.1087
N8135 X-0.7093 Y-0.9908 Z-0.1078
N8140 X-0.7151 Y-0.9857 Z-0.1062
N8145 X-0.7208 Y-0.9807 Z-0.1041
N8150 X-0.7264 Y-0.9759 Z-0.1014
N8155 X-0.7318 Y-0.9712 Z-0.0981
N8160 X-0.7369 Y-0.9667 Z-0.0943
N8165 X-0.7419 Y-0.9624 Z-0.0899
N8170 X-0.7465 Y-0.9584 Z-0.085
N8175 X-0.7509 Y-0.9546 Z-0.0797
N8180 X-0.7549 Y-0.9511 Z-0.0739
N8185 X-0.7586 Y-0.9479 Z-0.0678
N8190 X-0.7619 Y-0.9451 Z-0.0612
N8195 X-0.7648 Y-0.9425 Z-0.0544
N8200 X-0.7672 Y-0.9404 Z-0.0473
N8205 X-0.7693 Y-0.9386 Z-0.0399
N8210 X-0.7709 Y-0.9372 Z-0.0323
N8215 X-0.772 Y-0.9362 Z-0.0246
N8220 X-0.7727 Y-0.9356 Z-0.0168
N8225 X-0.773 Y-0.9354 Z-0.009
N8230 G0 Z0.6
N8235 G1 X-1.0689 Y-0.7559 F650.
N8240 G0 Z0.15
N8245 G1 Z0.05 F28.5
N8250 X-1.0688 Y-0.7556 Z0.0422
N8255 X-1.0686 Y-0.7547 Z0.0344
N8260 X-1.0682 Y-0.7532 Z0.0267
N8265 X-1.0677 Y-0.7512 Z0.0191
N8270 X-1.067 Y-0.7485 Z0.0117
N8275 X-1.0662 Y-0.7453 Z0.0046
N8280 X-1.0652 Y-0.7416 Z-0.0022
N8285 X-1.0642 Y-0.7374 Z-0.0088
N8290 X-1.063 Y-0.7327 Z-0.0149
N8295 X-1.0616 Y-0.7275 Z-0.0207
N8300 X-1.0602 Y-0.7219 Z-0.026
N8305 X-1.0587 Y-0.716 Z-0.0309
N8310 X-1.0571 Y-0.7096 Z-0.0353
N8315 X-1.0554 Y-0.703 Z-0.0391
N8320 X-1.0536 Y-0.6961 Z-0.0424
N8325 X-1.0518 Y-0.689 Z-0.0451
N8330 X-1.0499 Y-0.6816 Z-0.0472
N8335 X-1.048 Y-0.6742 Z-0.0488
N8340 X-1.046 Y-0.6666 Z-0.0497
N8345 X-1.0441 Y-0.659 Z-0.05
N8350 G3 X-1.0245 Y-0.5229 I-0.6183 J0.1584
N8355 G1 Y-0.5139
N8360 X-1.0217 Y-0.4959
N8365 X-1.0184 Y-0.4893
N8370 X-1.015 Y-0.4809
N8375 X-1.0118 Y-0.4705
N8380 X-1.0089 Y-0.4576
N8385 X-1.0064 Y-0.4396
N8390 X-1.0052 Y-0.4215
N8395 Y-0.4034
N8400 G3 X-1.0117 Y-0.3311 I-0.6862 J-0.0251
N8405 X-1.0276 Y-0.2234 I-8.2121 J-1.1632
N8410 G2 X-1.0428 Y-0.0791 I1.6906 J0.2509
N8415 X-1.0406 Y0.0841 I1.1768 J0.0658
N8420 X-0.9415 Y0.4499 I1.0544 J-0.0893
N8425 X-0.1929 Y1.0255 I0.9418 J-0.4504
N8430 X1.0334 Y-0.1444 I0.1929 J-1.0255
N8435 X-0.4666 Y-0.9333 I-1.0334 J0.1444
N8440 G1 X-0.4828 Y-0.925
N8445 G2 X-0.6029 Y-0.8436 I0.9107 J1.4741
N8450 X-0.7518 Y-0.711 I0.6916 J0.9263
N8455 X-0.8434 Y-0.5986 I0.7544 J0.7083
N8460 G1 X-0.8517 Y-0.5824
N8465 X-0.8585 Y-0.5656
N8470 X-0.8641 Y-0.5483
N8475 X-0.8687 Y-0.5308
N8480 G2 X-0.8835 Y-0.4505 I0.9384 J0.2146
N8485 X-0.9152 Y-0.2351 I21.0524 J3.2112
N8490 X-0.9281 Y-0.1087 I2.0146 J0.2698
N8495 X-0.929 Y0.0364 I1.2182 J0.0797
N8500 X-0.8932 Y0.2507 I0.9974 J-0.0564
N8505 X-0.6827 Y0.6275 I0.8996 J-0.2554
N8510 X-0.5622 Y0.7374 I0.6884 J-0.6342
N8515 X0.9235 Y0.0825 I0.5622 J-0.7374
N8520 X-0.3231 Y-0.8691 I-0.9236 J-0.0825
N8525 X-0.4216 Y-0.823 I0.2697 J0.7042
N8530 X-0.6768 Y-0.6215 I0.4823 J0.8735
N8535 G1 X-0.6883 Y-0.6075
N8540 X-0.6989 Y-0.5928
N8545 X-0.7086 Y-0.5774
N8550 X-0.7175 Y-0.5616
N8555 X-0.7215 Y-0.5535
N8560 X-0.7234 Y-0.5494
N8565 X-0.7244 Y-0.5473
N8570 G3 X-0.821 Y-0.521 Z-0.0442 I-0.06 J-0.0297
N8575 G1 X-0.8588 Y-0.5433 Z-0.042
N8580 X-0.9184 Y-0.5786
N8585 G2 X-0.9274 Y-0.5836 I-0.0371 J0.0557
N8590 X-0.9993 Y-0.5736 Z-0.0459 I-0.0281 J0.0607
N8595 X-1.0212 Y-0.5361 Z-0.0982 I0.0438 J0.0506
N8600 G1 X-1.0245 Y-0.5229 Z-0.1
N8605 Y-0.5139
N8610 X-1.0217 Y-0.4959
N8615 X-1.0184 Y-0.4893
N8620 X-1.015 Y-0.4809
N8625 X-1.0118 Y-0.4705
N8630 X-1.0089 Y-0.4576
N8635 X-1.0064 Y-0.4396
N8640 X-1.0052 Y-0.4215
N8645 Y-0.4034
N8650 G3 X-1.0117 Y-0.3311 I-0.6862 J-0.0251
N8655 X-1.0276 Y-0.2234 I-8.2121 J-1.1632
N8660 G2 X-1.0428 Y-0.0791 I1.6906 J0.2509
N8665 X-1.0406 Y0.0841 I1.1768 J0.0658
N8670 X-0.9415 Y0.4499 I1.0544 J-0.0893
N8675 X-0.1929 Y1.0255 I0.9418 J-0.4504
N8680 X1.0334 Y-0.1444 I0.1929 J-1.0255
N8685 X-0.4666 Y-0.9333 I-1.0334 J0.1444
N8690 G1 X-0.4828 Y-0.925
N8695 G2 X-0.6029 Y-0.8436 I0.9107 J1.4741
N8700 X-0.7518 Y-0.711 I0.6916 J0.9263
N8705 X-0.8434 Y-0.5986 I0.7544 J0.7083
N8710 G1 X-0.8517 Y-0.5824
N8715 X-0.8585 Y-0.5656
N8720 X-0.8641 Y-0.5483
N8725 X-0.8687 Y-0.5308
N8730 G2 X-0.8835 Y-0.4505 I0.9384 J0.2146
N8735 X-0.9152 Y-0.2351 I21.0524 J3.2112
N8740 X-0.9281 Y-0.1087 I2.0146 J0.2698
N8745 X-0.929 Y0.0364 I1.2182 J0.0797
N8750 X-0.8932 Y0.2507 I0.9974 J-0.0564
N8755 X-0.6827 Y0.6275 I0.8996 J-0.2554
N8760 X-0.5622 Y0.7374 I0.6884 J-0.6342
N8765 X0.9235 Y0.0825 I0.5622 J-0.7374
N8770 X-0.3231 Y-0.8691 I-0.9236 J-0.0825
N8775 X-0.4216 Y-0.823 I0.2697 J0.7042
N8780 X-0.6768 Y-0.6215 I0.4823 J0.8735
N8785 G1 X-0.6883 Y-0.6075
N8790 X-0.6989 Y-0.5928
N8795 X-0.7086 Y-0.5774
N8800 X-0.7175 Y-0.5616
N8805 X-0.7215 Y-0.5535
N8810 X-0.7234 Y-0.5494
N8815 X-0.7244 Y-0.5473
N8820 G3 X-0.821 Y-0.521 Z-0.0942 I-0.06 J-0.0297
N8825 G1 X-0.8588 Y-0.5433 Z-0.092
N8830 X-0.9087 Y-0.5729
N8835 X-0.9184 Y-0.5786 Z-0.0926
N8840 G2 X-0.9993 Y-0.5736 Z-0.097 I-0.0371 J0.0557
N8845 X-1.0212 Y-0.5361 Z-0.1083 I0.0438 J0.0506
N8850 G1 X-1.0245 Y-0.5229 Z-0.109
N8855 Y-0.5139
N8860 X-1.0217 Y-0.4959
N8865 X-1.0184 Y-0.4893
N8870 X-1.015 Y-0.4809
N8875 X-1.0118 Y-0.4705
N8880 X-1.0089 Y-0.4576
N8885 X-1.0064 Y-0.4396
N8890 X-1.0052 Y-0.4215
N8895 Y-0.4034
N8900 G3 X-1.0117 Y-0.3311 I-0.6862 J-0.0251
N8905 X-1.0276 Y-0.2234 I-8.2121 J-1.1632
N8910 G2 X-1.0428 Y-0.0791 I1.6906 J0.2509
N8915 X-1.0406 Y0.0841 I1.1768 J0.0658
N8920 X-0.9415 Y0.4499 I1.0544 J-0.0893
N8925 X-0.1929 Y1.0255 I0.9418 J-0.4504
N8930 X1.0334 Y-0.1444 I0.1929 J-1.0255
N8935 X-0.4666 Y-0.9333 I-1.0334 J0.1444
N8940 G1 X-0.4828 Y-0.925
N8945 G2 X-0.6029 Y-0.8436 I0.9107 J1.4741
N8950 X-0.7518 Y-0.711 I0.6916 J0.9263
N8955 X-0.8434 Y-0.5986 I0.7544 J0.7083
N8960 G1 X-0.8517 Y-0.5824
N8965 X-0.8585 Y-0.5656
N8970 X-0.8641 Y-0.5483
N8975 X-0.8687 Y-0.5308
N8980 G2 X-0.8835 Y-0.4505 I0.9384 J0.2146
N8985 X-0.9152 Y-0.2351 I21.0524 J3.2112
N8990 X-0.9281 Y-0.1087 I2.0146 J0.2698
N8995 X-0.929 Y0.0364 I1.2182 J0.0797
N9000 X-0.8932 Y0.2507 I0.9974 J-0.0564
N9005 X-0.6827 Y0.6275 I0.8996 J-0.2554
N9010 X-0.5622 Y0.7374 I0.6884 J-0.6342
N9015 X0.9235 Y0.0825 I0.5622 J-0.7374
N9020 X-0.3231 Y-0.8691 I-0.9236 J-0.0825
N9025 X-0.4216 Y-0.823 I0.2697 J0.7042
N9030 X-0.6768 Y-0.6215 I0.4823 J0.8735
N9035 G1 X-0.6883 Y-0.6075
N9040 X-0.6989 Y-0.5928
N9045 X-0.7086 Y-0.5774
N9050 X-0.7175 Y-0.5616
N9055 X-0.7215 Y-0.5535
N9060 X-0.7234 Y-0.5494
N9065 X-0.7244 Y-0.5473
N9070 G3 X-0.7482 Y-0.5164 I-0.0896 J-0.0444
N9075 G1 X-0.7541 Y-0.5112 Z-0.1087
N9080 X-0.76 Y-0.5061 Z-0.1078
N9085 X-0.7658 Y-0.501 Z-0.1062
N9090 X-0.7714 Y-0.496 Z-0.1041
N9095 X-0.777 Y-0.4912 Z-0.1014
N9100 X-0.7824 Y-0.4865 Z-0.0981
N9105 X-0.7875 Y-0.482 Z-0.0943
N9110 X-0.7924 Y-0.4777 Z-0.0899
N9115 X-0.7971 Y-0.4736 Z-0.085
N9120 X-0.8014 Y-0.4698 Z-0.0797
N9125 X-0.8054 Y-0.4663 Z-0.0739
N9130 X-0.8091 Y-0.4631 Z-0.0678
N9135 X-0.8124 Y-0.4603 Z-0.0612
N9140 X-0.8153 Y-0.4577 Z-0.0544
N9145 X-0.8177 Y-0.4556 Z-0.0473
N9150 X-0.8198 Y-0.4538 Z-0.0399
N9155 X-0.8214 Y-0.4524 Z-0.0323
N9160 X-0.8225 Y-0.4514 Z-0.0246
N9165 X-0.8232 Y-0.4508 Z-0.0168
N9170 X-0.8235 Y-0.4506 Z-0.009
N9175 G0 Z0.6
N9180 M5
N9185 G53 G0 Z0.

(2D Contour3)
N9190 M1
N9195 T7 M6
N9200 S4000 M3
N9205 G17 G90 G94
N9210 G54
N9215 G1 X0. Y-1.0875 F650.
N9220 G0 G43 Z0.6 H7
N9225 G0 Z-0.059
N9230 G1 Z-0.0696 F2.
N9235 Z-0.079
N9240 G2 X0.0948 Y-1.0834 Z-0.1086 I0. J1.0875 F5.
N9245 X0.1888 Y-1.071 Z-0.1382 I-0.0948 J1.0834
N9250 X-1.0875 Y0. Z-0.1465 I-0.1888 J1.071
N9255 X1.0875 I1.0875 J0. F8.
N9260 X-1.0875 I-1.0875 J0.
N9265 G0 Z0.6
N9270 M5
N9275 G53 G0 Z0.

(2D Contour4)
N9280 M1
N9285 T9 M6
N9290 S3800 M3
N9295 G17 G90 G94
N9300 G54
N9305 G1 X-0.7245 Y0.186 F650.
N9310 G0 G43 Z0.6 H9
N9315 G0 Z0.1
N9320 G1 Z0.07 F3.
N9325 G3 X-0.7055 Y0.2485 Z0.0207 I0.7245 J-0.186 F25.
N9330 X-0.6812 Y0.309 Z-0.0286 I0.7055 J-0.2485
N9335 X-0.6517 Y0.3672 Z-0.0779 I0.6812 J-0.309
N9340 X-0.6172 Y0.4226 Z-0.1272 I0.6517 J-0.3672
N9345 X-0.578 Y0.4748 Z-0.1765 I0.6172 J-0.4226
N9350 X-0.5344 Y0.5233 Z-0.2258 I0.578 J-0.4748
N9355 X0.748 Y0. Z-0.257 I0.5344 J-0.5233
N9360 X-0.748 I-0.748 J0. F28.5
N9365 X0.748 I0.748 J0.
N9370 G0 Z0.6

(2D Contour5)
N9375 G1 X-1.1282 Y-1.3424 F650.
N9380 G0 Z0.6
N9385 Z0.1
N9390 G1 Z0.05 F3.
N9395 G2 X-1.375 Y-0.9687 Z0.0477 I0.1594 J0.3737 F25.
N9400 G1 Y-0.4677 Z0.0453
N9405 G3 X-1.3854 Y-0.3927 Z0.0449 I-0.275 J0.
N9410 G2 Y0.3927 Z0.0411 I1.3854 J0.3927
N9415 G3 X-1.375 Y0.4677 Z0.0407 I-0.2646 J0.075
N9420 G1 Y0.9688 Z0.0383
N9425 G2 X-0.9688 Y1.375 Z0.0352 I0.4062 J0.
N9430 G1 X-0.4677 Z0.0328
N9435 G3 X-0.3927 Y1.3854 Z0.0324 I0. J0.275
N9440 G2 X0.3927 Z0.0286 I0.3927 J-1.3854
N9445 G3 X0.4677 Y1.375 Z0.0282 I0.075 J0.2646
N9450 G1 X0.9687 Z0.0258
N9455 G2 X1.375 Y0.9688 Z0.0227 I0. J-0.4062
N9460 G1 Y0.4677 Z0.0203
N9465 G3 X1.3854 Y0.3927 Z0.0199 I0.275 J0.
N9470 G2 Y-0.3927 Z0.0161 I-1.3854 J-0.3927
N9475 G3 X1.375 Y-0.4677 Z0.0157 I0.2646 J-0.075
N9480 G1 Y-0.9687 Z0.0133
N9485 G2 X0.9687 Y-1.375 Z0.0102 I-0.4063 J0.
N9490 G1 X0.4677 Z0.0078
N9495 G3 X0.3927 Y-1.3854 Z0.0074 I0. J-0.275
N9500 G2 X-0.3927 Z0.0036 I-0.3927 J1.3854
N9505 G3 X-0.4677 Y-1.375 Z0.0032 I-0.075 J-0.2646
N9510 G1 X-0.9688 Z0.0008
N9515 G2 X-1.375 Y-0.9687 Z-0.0023 I0. J0.4062
N9520 G1 Y-0.4677 Z-0.0047
N9525 G3 X-1.3854 Y-0.3927 Z-0.0051 I-0.275 J0.
N9530 G2 Y0.3927 Z-0.0089 I1.3854 J0.3927
N9535 G3 X-1.375 Y0.4677 Z-0.0093 I-0.2646 J0.075
N9540 G1 Y0.9688 Z-0.0117
N9545 G2 X-0.9688 Y1.375 Z-0.0148 I0.4062 J0.
N9550 G1 X-0.4677 Z-0.0172
N9555 G3 X-0.3927 Y1.3854 Z-0.0176 I0. J0.275
N9560 G2 X0.3927 Z-0.0214 I0.3927 J-1.3854
N9565 G3 X0.4677 Y1.375 Z-0.0218 I0.075 J0.2646
N9570 G1 X0.9687 Z-0.0242
N9575 G2 X1.375 Y0.9688 Z-0.0273 I0. J-0.4062
N9580 G1 Y0.4677 Z-0.0297
N9585 G3 X1.3854 Y0.3927 Z-0.0301 I0.275 J0.
N9590 G2 Y-0.3927 Z-0.0339 I-1.3854 J-0.3927
N9595 G3 X1.375 Y-0.4677 Z-0.0343 I0.2646 J-0.075
N9600 G1 Y-0.9687 Z-0.0367
N9605 G2 X0.9687 Y-1.375 Z-0.0398 I-0.4063 J0.
N9610 G1 X0.4677 Z-0.0422
N9615 G3 X0.3927 Y-1.3854 Z-0.0426 I0. J-0.275
N9620 G2 X-0.3927 Z-0.0464 I-0.3927 J1.3854
N9625 G3 X-0.4677 Y-1.375 Z-0.0468 I-0.075 J-0.2646
N9630 G1 X-0.9688 Z-0.0492
N9635 G2 X-1.375 Y-0.9687 Z-0.0523 I0. J0.4062
N9640 G1 Y-0.4677 Z-0.0547
N9645 G3 X-1.3854 Y-0.3927 Z-0.0551 I-0.275 J0.
N9650 G2 Y0.3927 Z-0.0589 I1.3854 J0.3927
N9655 G3 X-1.375 Y0.4677 Z-0.0593 I-0.2646 J0.075
N9660 G1 Y0.9688 Z-0.0617
N9665 G2 X-0.9688 Y1.375 Z-0.0648 I0.4062 J0.
N9670 G1 X-0.4677 Z-0.0672
N9675 G3 X-0.3927 Y1.3854 Z-0.0676 I0. J0.275
N9680 G2 X0.3927 Z-0.0714 I0.3927 J-1.3854
N9685 G3 X0.4677 Y1.375 Z-0.0718 I0.075 J0.2646
N9690 G1 X0.9687 Z-0.0742
N9695 G2 X1.375 Y0.9688 Z-0.0773 I0. J-0.4062
N9700 G1 Y0.4677 Z-0.0797
N9705 G3 X1.3854 Y0.3927 Z-0.0801 I0.275 J0.
N9710 G2 Y-0.3927 Z-0.0839 I-1.3854 J-0.3927
N9715 G3 X1.375 Y-0.4677 Z-0.0843 I0.2646 J-0.075
N9720 G1 Y-0.9687 Z-0.0867
N9725 G2 X0.9687 Y-1.375 Z-0.0898 I-0.4063 J0.
N9730 G1 X0.4677 Z-0.0922
N9735 G3 X0.3927 Y-1.3854 Z-0.0926 I0. J-0.275
N9740 G2 X-0.3927 Z-0.0964 I-0.3927 J1.3854
N9745 G3 X-0.4677 Y-1.375 Z-0.0968 I-0.075 J-0.2646
N9750 G1 X-0.9688 Z-0.0992
N9755 G2 X-1.375 Y-0.9687 Z-0.1023 I0. J0.4062
N9760 G1 Y-0.4677 Z-0.1047
N9765 G3 X-1.3854 Y-0.3927 Z-0.1051 I-0.275 J0.
N9770 G2 Y0.3927 Z-0.1089 I1.3854 J0.3927
N9775 G3 X-1.375 Y0.4677 Z-0.1093 I-0.2646 J0.075
N9780 G1 Y0.9688 Z-0.1117
N9785 G2 X-0.9688 Y1.375 Z-0.1148 I0.4062 J0.
N9790 G1 X-0.4677 Z-0.1172
N9795 G3 X-0.3927 Y1.3854 Z-0.1176 I0. J0.275
N9800 G2 X0.3927 Z-0.1214 I0.3927 J-1.3854
N9805 G3 X0.4677 Y1.375 Z-0.1218 I0.075 J0.2646
N9810 G1 X0.9687 Z-0.1242
N9815 G2 X1.375 Y0.9688 Z-0.1273 I0. J-0.4062
N9820 G1 Y0.4677 Z-0.1297
N9825 G3 X1.3854 Y0.3927 Z-0.1301 I0.275 J0.
N9830 G2 Y-0.3927 Z-0.1339 I-1.3854 J-0.3927
N9835 G3 X1.375 Y-0.4677 Z-0.1343 I0.2646 J-0.075
N9840 G1 Y-0.9687 Z-0.1367
N9845 G2 X0.9687 Y-1.375 Z-0.1398 I-0.4063 J0.
N9850 G1 X0.4677 Z-0.1422
N9855 G3 X0.3927 Y-1.3854 Z-0.1426 I0. J-0.275
N9860 G2 X-0.3927 Z-0.1464 I-0.3927 J1.3854
N9865 G3 X-0.4677 Y-1.375 Z-0.1468 I-0.075 J-0.2646
N9870 G1 X-0.9688 Z-0.1492
N9875 G2 X-1.375 Y-0.9687 Z-0.1523 I0. J0.4062
N9880 G1 Y-0.4677 Z-0.1547
N9885 G3 X-1.3854 Y-0.3927 Z-0.1551 I-0.275 J0.
N9890 G2 Y0.3927 Z-0.1589 I1.3854 J0.3927
N9895 G3 X-1.375 Y0.4677 Z-0.1593 I-0.2646 J0.075
N9900 G1 Y0.9688 Z-0.1617
N9905 G2 X-0.9688 Y1.375 Z-0.1648 I0.4062 J0.
N9910 G1 X-0.4677 Z-0.1672
N9915 G3 X-0.3927 Y1.3854 Z-0.1676 I0. J0.275
N9920 G2 X0.3927 Z-0.1714 I0.3927 J-1.3854
N9925 G3 X0.4677 Y1.375 Z-0.1718 I0.075 J0.2646
N9930 G1 X0.9687 Z-0.1742
N9935 G2 X1.375 Y0.9688 Z-0.1773 I0. J-0.4062
N9940 G1 Y0.4677 Z-0.1797
N9945 G3 X1.3854 Y0.3927 Z-0.1801 I0.275 J0.
N9950 G2 Y-0.3927 Z-0.1839 I-1.3854 J-0.3927
N9955 G3 X1.375 Y-0.4677 Z-0.1843 I0.2646 J-0.075
N9960 G1 Y-0.9687 Z-0.1867
N9965 G2 X0.9687 Y-1.375 Z-0.1898 I-0.4063 J0.
N9970 G1 X0.4677 Z-0.1922
N9975 G3 X0.3927 Y-1.3854 Z-0.1926 I0. J-0.275
N9980 G2 X-0.3927 Z-0.1964 I-0.3927 J1.3854
N9985 G3 X-0.4677 Y-1.375 Z-0.1968 I-0.075 J-0.2646
N9990 G1 X-0.9688 Z-0.1992
N9995 G2 X-1.375 Y-0.9687 Z-0.2023 I0. J0.4062
N10000 G1 Y-0.4677 Z-0.2047
N10005 G3 X-1.3854 Y-0.3927 Z-0.2051 I-0.275 J0.
N10010 G2 Y0.3927 Z-0.2089 I1.3854 J0.3927
N10015 G3 X-1.375 Y0.4677 Z-0.2093 I-0.2646 J0.075
N10020 G1 Y0.9688 Z-0.2117
N10025 G2 X-0.9688 Y1.375 Z-0.2148 I0.4062 J0.
N10030 G1 X-0.4677 Z-0.2172
N10035 G3 X-0.3927 Y1.3854 Z-0.2176 I0. J0.275
N10040 G2 X0.3927 Z-0.2214 I0.3927 J-1.3854
N10045 G3 X0.4677 Y1.375 Z-0.2218 I0.075 J0.2646
N10050 G1 X0.9687 Z-0.2242
N10055 G2 X1.375 Y0.9688 Z-0.2273 I0. J-0.4062
N10060 G1 Y0.4677 Z-0.2297
N10065 G3 X1.3854 Y0.3927 Z-0.2301 I0.275 J0.
N10070 G2 Y-0.3927 Z-0.2339 I-1.3854 J-0.3927
N10075 G3 X1.375 Y-0.4677 Z-0.2343 I0.2646 J-0.075
N10080 G1 Y-0.9687 Z-0.2367
N10085 G2 X0.9687 Y-1.375 Z-0.2398 I-0.4063 J0.
N10090 G1 X0.4677 Z-0.2422
N10095 G3 X0.3927 Y-1.3854 Z-0.2426 I0. J-0.275
N10100 G2 X-0.3927 Z-0.2464 I-0.3927 J1.3854
N10105 G3 X-0.4677 Y-1.375 Z-0.2468 I-0.075 J-0.2646
N10110 G1 X-0.9688 Z-0.2492
N10115 G2 X-1.375 Y-0.9687 Z-0.2523 I0. J0.4062
N10120 G1 Y-0.4677 Z-0.2547
N10125 G3 X-1.3854 Y-0.3927 Z-0.2551 I-0.275 J0.
N10130 G2 X-1.44 Y0. Z-0.257 I1.3854 J0.3927
N10135 X-1.3854 Y0.3927 I1.44 J0. F28.5
N10140 G3 X-1.375 Y0.4677 I-0.2646 J0.075
N10145 G1 Y0.9688
N10150 G2 X-0.9688 Y1.375 I0.4062 J0.
N10155 G1 X-0.4677
N10160 G3 X-0.3927 Y1.3854 I0. J0.275
N10165 G2 X0.3927 I0.3927 J-1.3854
N10170 G3 X0.4677 Y1.375 I0.075 J0.2646
N10175 G1 X0.9687
N10180 G2 X1.375 Y0.9688 I0. J-0.4062
N10185 G1 Y0.4677
N10190 G3 X1.3854 Y0.3927 I0.275 J0.
N10195 G2 Y-0.3927 I-1.3854 J-0.3927
N10200 G3 X1.375 Y-0.4677 I0.2646 J-0.075
N10205 G1 Y-0.9687
N10210 G2 X0.9687 Y-1.375 I-0.4063 J0.
N10215 G1 X0.4677
N10220 G3 X0.3927 Y-1.3854 I0. J-0.275
N10225 G2 X-0.3927 I-0.3927 J1.3854
N10230 G3 X-0.4677 Y-1.375 I-0.075 J-0.2646
N10235 G1 X-0.9688
N10240 G2 X-1.375 Y-0.9687 I0. J0.4062
N10245 G1 Y-0.4677
N10250 G3 X-1.3854 Y-0.3927 I-0.275 J0.
N10255 G2 X-1.44 Y0. I1.3854 J0.3927
N10260 G0 Z0.6

N10265 M5
N10270 G53 G0 Z0.
N10275 G53 G0 X0. Y0.
N10280 M30

%
