%
O01006
(Using high feed G1 F300. instead of G0.)
(T2 D=0.1875 CR=0. TAPER=118deg - ZMIN=-0.1415 - center drill)
(T3 D=0.136 CR=0. TAPER=118deg - ZMIN=-0.3899 - drill)
(T9 D=0.25 CR=0. - ZMIN=-0.364 - flat end mill)
N10 G90 G94 G17
N15 G20
N20 G53 G0 Z0.

(Face5)
N25 T9 M6
N30 S4000 M3
N35 G17 G90 G94
N40 G54
N45 M8
N50 G1 X0.9059 Y-0.1314 F300.
N55 G0 G43 Z0.6 H9
N60 G0 Z0.2
N65 G1 Z0.0035 F12.
N70 G18 G3 X0.8809 Z-0.0215 I-0.025 K0. F25.
N75 G1 X0.8217
N80 X-0.013
N85 X-0.066
N90 G17 G2 Y-0.0387 I0. J0.0463
N95 G1 X0.9345
N100 X1.0067
N105 G3 Y0.0539 I0. J0.0463
N110 G1 X-0.0776
N115 X-0.0846
N120 G2 Y0.1465 I0. J0.0463
N125 G1 X1.0546
N130 X1.0842
N135 G3 Y0.2392 I0. J0.0463
N140 G1 X-0.0915
N145 X-0.0984
N150 G2 Y0.3318 I0. J0.0463
N155 G1 X1.0983
N160 X1.1
N165 G3 Y0.4244 I0. J0.0463
N170 G1 X-0.1
N175 G2 Y0.5171 I0. J0.0463
N180 G1 X1.1
N185 G3 Y0.6097 I0. J0.0463
N190 G1 X-0.1
N195 G2 Y0.7023 I0. J0.0463
N200 G1 X-0.0948
N205 X1.0959
N210 G3 Y0.795 I0. J0.0463
N215 G1 X1.0889
N220 X-0.0752
N225 G2 Y0.8876 I0. J0.0463
N230 G1 X-0.0394
N235 X1.082
N240 G3 Y0.9802 I0. J0.0463
N245 G1 X1.075
N250 X0.0167
N255 G0 Z0.2
N260 G1 X-0.1049 Y-0.1314 F300.
N265 Z-0.0365 F12.
N270 G18 G2 X-0.0799 Z-0.0615 I0.025 K0. F25.
N275 G1 X-0.013
N280 X0.8217
N285 X0.9345
N290 G17 G3 Y-0.0387 I0. J0.0463
N295 G1 X-0.066
N300 X-0.0776
N305 G2 Y0.0539 I0. J0.0463
N310 G1 X1.0067
N315 X1.0546
N320 G3 Y0.1465 I0. J0.0463
N325 G1 X-0.0846
N330 X-0.0915
N335 G2 Y0.2392 I0. J0.0463
N340 G1 X1.0842
N345 X1.0983
N350 G3 Y0.3318 I0. J0.0463
N355 G1 X-0.0984
N360 X-0.1
N365 G2 Y0.4244 I0. J0.0463
N370 G1 X1.1
N375 G3 Y0.5171 I0. J0.0463
N380 G1 X-0.1
N385 G2 Y0.6097 I0. J0.0463
N390 G1 X1.1
N395 G3 Y0.7023 I0. J0.0463
N400 G1 X1.0959
N405 X-0.0948
N410 G2 Y0.795 I0. J0.0463
N415 G1 X-0.0752
N420 X1.0889
N425 G3 Y0.8876 I0. J0.0463
N430 G1 X1.082
N435 X-0.0394
N440 G2 Y0.9802 I0. J0.0463
N445 G1 X0.0167
N450 X1.075
N455 G0 Z0.2
N460 G1 X0.9059 Y-0.1314 F300.
N465 Z-0.0765 F12.
N470 G18 G3 X0.8809 Z-0.1015 I-0.025 K0. F25.
N475 G1 X0.8217
N480 X-0.013
N485 X-0.066
N490 G17 G2 Y-0.0387 I0. J0.0463
N495 G1 X0.9345
N500 X1.0067
N505 G3 Y0.0539 I0. J0.0463
N510 G1 X-0.0776
N515 X-0.0846
N520 G2 Y0.1465 I0. J0.0463
N525 G1 X1.0546
N530 X1.0842
N535 G3 Y0.2392 I0. J0.0463
N540 G1 X-0.0915
N545 X-0.0984
N550 G2 Y0.3318 I0. J0.0463
N555 G1 X1.0983
N560 X1.1
N565 G3 Y0.4244 I0. J0.0463
N570 G1 X-0.1
N575 G2 Y0.5171 I0. J0.0463
N580 G1 X1.1
N585 G3 Y0.6097 I0. J0.0463
N590 G1 X-0.1
N595 G2 Y0.7023 I0. J0.0463
N600 G1 X-0.0948
N605 X1.0959
N610 G3 Y0.795 I0. J0.0463
N615 G1 X1.0889
N620 X-0.0752
N625 G2 Y0.8876 I0. J0.0463
N630 G1 X-0.0394
N635 X1.082
N640 G3 Y0.9802 I0. J0.0463
N645 G1 X1.075
N650 X0.0167
N655 G0 Z0.6
N660 M9
N665 M5
N670 G53 G0 Z0.

(Drill3)
N675 M1
N680 T2 M6
N685 S4000 M3
N690 G17 G90 G94
N695 G54
N700 M8
N705 G1 X0.1464 Y0.1464 F300.
N710 G0 G43 Z0.6 H2
N715 G0 Z0.2
N720 G98 G81 X0.1464 Y0.1464 Z-0.1415 R0.0985 F4.
N725 X0.8536 Y0.8536
N730 G80
N735 G0 Z0.6
N740 M9
N745 M5
N750 G53 G0 Z0.

(Drill4)
N755 M1
N760 T3 M6
N765 S3000 M3
N770 G17 G90 G94
N775 G54
N780 M8
N785 G1 X0.1464 Y0.1464 F300.
N790 G0 G43 Z0.6 H3
N795 G0 Z0.2
N800 G98 G73 X0.1464 Y0.1464 Z-0.3899 R0.0985 Q0.034 K0.2 F6.
N805 X0.8536 Y0.8536
N810 G80
N815 G0 Z0.6
N820 M9
N825 M5
N830 G53 G0 Z0.

(2D Contour2)
N835 M1
N840 T9 M6
N845 S4000 M3
N850 G17 G90 G94
N855 G54
N860 M8
N865 G1 X1.2 Y0.525 F300.
N870 G0 G43 Z0.6 H9
N875 G0 Z0.0985
N880 G1 Z-0.0121 F12.
N885 Z-0.1203
N890 G18 G3 X1.175 Z-0.1452 I-0.025 K0. F25.
N895 G1 X1.15
N900 G17 G3 X1.125 Y0.5 I0. J-0.025
N905 G2 X0.4533 Y-0.1233 I-0.625 J0.
N910 G1 X0.1281 Y-0.0989
N915 G2 X-0.0989 Y0.1281 I0.0184 J0.2453
N920 G1 X-0.1233 Y0.4533
N925 G2 X0.5467 Y1.1232 I0.6232 J0.0467
N930 G1 X0.8719 Y1.0989
N935 G2 X1.0989 Y0.8719 I-0.0184 J-0.2453
N940 G1 X1.1232 Y0.5467
N945 G2 X1.125 Y0.5 I-0.6232 J-0.0467
N950 G3 X1.15 Y0.475 I0.025 J0.
N955 G1 X1.175
N960 G18 G2 X1.2 Z-0.1203 I0. K0.025
N965 G1 Y0.525
N970 Z-0.164 F12.
N975 G3 X1.175 Z-0.189 I-0.025 K0. F25.
N980 G1 X1.15
N985 G17 G3 X1.125 Y0.5 I0. J-0.025
N990 G2 X0.4533 Y-0.1233 I-0.625 J0.
N995 G1 X0.1281 Y-0.0989
N1000 G2 X-0.0989 Y0.1281 I0.0184 J0.2453
N1005 G1 X-0.1233 Y0.4533
N1010 G2 X0.5467 Y1.1232 I0.6232 J0.0467
N1015 G1 X0.8719 Y1.0989
N1020 G2 X1.0989 Y0.8719 I-0.0184 J-0.2453
N1025 G1 X1.1232 Y0.5467
N1030 G2 X1.125 Y0.5 I-0.6232 J-0.0467
N1035 G3 X1.15 Y0.475 I0.025 J0.
N1040 G1 X1.175
N1045 G18 G2 X1.2 Z-0.164 I0. K0.025
N1050 G1 Y0.525
N1055 Z-0.2078 F12.
N1060 G3 X1.175 Z-0.2327 I-0.025 K0. F25.
N1065 G1 X1.15
N1070 G17 G3 X1.125 Y0.5 I0. J-0.025
N1075 G2 X0.4533 Y-0.1233 I-0.625 J0.
N1080 G1 X0.1281 Y-0.0989
N1085 G2 X-0.0989 Y0.1281 I0.0184 J0.2453
N1090 G1 X-0.1233 Y0.4533
N1095 G2 X0.5467 Y1.1232 I0.6232 J0.0467
N1100 G1 X0.8719 Y1.0989
N1105 G2 X1.0989 Y0.8719 I-0.0184 J-0.2453
N1110 G1 X1.1232 Y0.5467
N1115 G2 X1.125 Y0.5 I-0.6232 J-0.0467
N1120 G3 X1.15 Y0.475 I0.025 J0.
N1125 G1 X1.175
N1130 G18 G2 X1.2 Z-0.2078 I0. K0.025
N1135 G1 Y0.525
N1140 Z-0.2515 F12.
N1145 G3 X1.175 Z-0.2765 I-0.025 K0. F25.
N1150 G1 X1.15
N1155 G17 G3 X1.125 Y0.5 I0. J-0.025
N1160 G2 X0.4533 Y-0.1233 I-0.625 J0.
N1165 G1 X0.1281 Y-0.0989
N1170 G2 X-0.0989 Y0.1281 I0.0184 J0.2453
N1175 G1 X-0.1233 Y0.4533
N1180 G2 X0.5467 Y1.1232 I0.6232 J0.0467
N1185 G1 X0.8719 Y1.0989
N1190 G2 X1.0989 Y0.8719 I-0.0184 J-0.2453
N1195 G1 X1.1232 Y0.5467
N1200 G2 X1.125 Y0.5 I-0.6232 J-0.0467
N1205 G3 X1.15 Y0.475 I0.025 J0.
N1210 G1 X1.175
N1215 G18 G2 X1.2 Z-0.2515 I0. K0.025
N1220 G1 Y0.525
N1225 Z-0.2953 F12.
N1230 G3 X1.175 Z-0.3202 I-0.025 K0. F25.
N1235 G1 X1.15
N1240 G17 G3 X1.125 Y0.5 I0. J-0.025
N1245 G2 X0.4533 Y-0.1233 I-0.625 J0.
N1250 G1 X0.1281 Y-0.0989
N1255 G2 X-0.0989 Y0.1281 I0.0184 J0.2453
N1260 G1 X-0.1233 Y0.4533
N1265 G2 X0.5467 Y1.1232 I0.6232 J0.0467
N1270 G1 X0.8719 Y1.0989
N1275 G2 X1.0989 Y0.8719 I-0.0184 J-0.2453
N1280 G1 X1.1232 Y0.5467
N1285 G2 X1.125 Y0.5 I-0.6232 J-0.0467
N1290 G3 X1.15 Y0.475 I0.025 J0.
N1295 G1 X1.175
N1300 G18 G2 X1.2 Z-0.2953 I0. K0.025
N1305 G1 Y0.525
N1310 Z-0.339 F12.
N1315 G3 X1.175 Z-0.364 I-0.025 K0. F25.
N1320 G1 X1.15
N1325 G17 G3 X1.125 Y0.5 I0. J-0.025
N1330 G2 X0.4533 Y-0.1233 I-0.625 J0.
N1335 G1 X0.1281 Y-0.0989
N1340 G2 X-0.0989 Y0.1281 I0.0184 J0.2453
N1345 G1 X-0.1233 Y0.4533
N1350 G2 X0.5467 Y1.1232 I0.6232 J0.0467
N1355 G1 X0.8719 Y1.0989
N1360 G2 X1.0989 Y0.8719 I-0.0184 J-0.2453
N1365 G1 X1.1232 Y0.5467
N1370 G2 X1.125 Y0.5 I-0.6232 J-0.0467
N1375 G3 X1.15 Y0.475 I0.025 J0.
N1380 G1 X1.175
N1385 G18 G2 X1.2 Z-0.339 I0. K0.025
N1390 G0 Z0.6

N1395 M5
N1400 M9
N1405 G53 G0 Z0.
N1410 G53 G0 X0. Y0.
N1415 M30

%
