%
O01007
(Using high feed G1 F300. instead of G0.)
(T2 D=0.1875 CR=0. TAPER=118deg - ZMIN=-0.137 - center drill)
(T3 D=0.136 CR=0. TAPER=118deg - ZMIN=-0.3854 - drill)
(T9 D=0.25 CR=0. - ZMIN=-0.3395 - flat end mill)
N10 G90 G94 G17
N15 G20
N20 G53 G0 Z0.

(Face5)
N25 T9 M6
N30 S4000 M3
N35 G17 G90 G94
N40 G54
N45 M8
N50 G1 X0.8846 Y-0.1439 F300.
N55 G0 G43 Z0.6 H9
N60 G0 Z0.2
N65 G1 Z-0.0073 F3.2
N70 G18 G3 X0.8596 Z-0.0323 I-0.025 K0. F18.
N75 G1 X0.8009
N80 X0.
N85 X-0.0574
N90 G17 G2 Y-0.0636 I0. J0.0402
N95 G1 X0.9093
N100 X0.9811
N105 G3 Y0.0167 I0. J0.0402
N110 G1 X-0.0748
N115 X-0.0808
N120 G2 Y0.0971 I0. J0.0402
N125 G1 X1.0315
N130 X1.0663
N135 G3 Y0.1774 I0. J0.0402
N140 G1 X-0.0869
N145 X-0.0929
N150 G2 Y0.2577 I0. J0.0402
N155 G1 X1.0883
N160 X1.0987
N165 G3 Y0.338 I0. J0.0402
N170 G1 X-0.0988
N175 X-0.1
N180 G2 Y0.4183 I0. J0.0402
N185 G1 X1.1
N190 G3 Y0.4986 I0. J0.0402
N195 G1 X-0.1
N200 G2 Y0.5789 I0. J0.0402
N205 G1 X1.1
N210 G3 Y0.6592 I0. J0.0402
N215 G1 X1.0989
N220 X-0.0989
N225 G2 Y0.7395 I0. J0.0402
N230 G1 X-0.0888
N235 X1.0931
N240 G3 Y0.8198 I0. J0.0402
N245 G1 X1.0871
N250 X-0.0673
N255 G2 Y0.9001 I0. J0.0402
N260 G1 X-0.033
N265 X1.0811
N270 G3 Y0.9804 I0. J0.0402
N275 G1 X1.075
N280 X0.0168
N285 G0 Z0.2
N290 G1 X-0.0886 Y-0.1439 F300.
N295 Z-0.0397 F3.2
N300 G18 G2 X-0.0636 Z-0.0647 I0.025 K0. F18.
N305 G1 X0.
N310 X0.8009
N315 X0.9093
N320 G17 G3 Y-0.0636 I0. J0.0402
N325 G1 X-0.0574
N330 X-0.0748
N335 G2 Y0.0167 I0. J0.0402
N340 G1 X0.9811
N345 X1.0315
N350 G3 Y0.0971 I0. J0.0402
N355 G1 X-0.0808
N360 X-0.0869
N365 G2 Y0.1774 I0. J0.0402
N370 G1 X1.0663
N375 X1.0883
N380 G3 Y0.2577 I0. J0.0402
N385 G1 X-0.0929
N390 X-0.0988
N395 G2 Y0.338 I0. J0.0402
N400 G1 X1.0987
N405 X1.1
N410 G3 Y0.4183 I0. J0.0402
N415 G1 X-0.1
N420 G2 Y0.4986 I0. J0.0402
N425 G1 X1.1
N430 G3 Y0.5789 I0. J0.0402
N435 G1 X-0.1
N440 G2 Y0.6592 I0. J0.0402
N445 G1 X-0.0989
N450 X1.0989
N455 G3 Y0.7395 I0. J0.0402
N460 G1 X1.0931
N465 X-0.0888
N470 G2 Y0.8198 I0. J0.0402
N475 G1 X-0.0673
N480 X1.0871
N485 G3 Y0.9001 I0. J0.0402
N490 G1 X1.0811
N495 X-0.033
N500 G2 Y0.9804 I0. J0.0402
N505 G1 X0.0168
N510 X1.075
N515 G0 Z0.2
N520 G1 X0.8846 Y-0.1439 F300.
N525 Z-0.072 F3.2
N530 G18 G3 X0.8596 Z-0.097 I-0.025 K0. F18.
N535 G1 X0.8009
N540 X0.
N545 X-0.0574
N550 G17 G2 Y-0.0636 I0. J0.0402
N555 G1 X0.9093
N560 X0.9811
N565 G3 Y0.0167 I0. J0.0402
N570 G1 X-0.0748
N575 X-0.0808
N580 G2 Y0.0971 I0. J0.0402
N585 G1 X1.0315
N590 X1.0663
N595 G3 Y0.1774 I0. J0.0402
N600 G1 X-0.0869
N605 X-0.0929
N610 G2 Y0.2577 I0. J0.0402
N615 G1 X1.0883
N620 X1.0987
N625 G3 Y0.338 I0. J0.0402
N630 G1 X-0.0988
N635 X-0.1
N640 G2 Y0.4183 I0. J0.0402
N645 G1 X1.1
N650 G3 Y0.4986 I0. J0.0402
N655 G1 X-0.1
N660 G2 Y0.5789 I0. J0.0402
N665 G1 X1.1
N670 G3 Y0.6592 I0. J0.0402
N675 G1 X1.0989
N680 X-0.0989
N685 G2 Y0.7395 I0. J0.0402
N690 G1 X-0.0888
N695 X1.0931
N700 G3 Y0.8198 I0. J0.0402
N705 G1 X1.0871
N710 X-0.0673
N715 G2 Y0.9001 I0. J0.0402
N720 G1 X-0.033
N725 X1.0811
N730 G3 Y0.9804 I0. J0.0402
N735 G1 X1.075
N740 X0.0168
N745 G0 Z0.6
N750 M9
N755 M5
N760 G53 G0 Z0.

(Drill3)
N765 M1
N770 T2 M6
N775 S4000 M3
N780 G17 G90 G94
N785 G54
N790 M8
N795 G1 X0.1464 Y0.1464 F300.
N800 G0 G43 Z0.6 H2
N805 G0 Z0.2
N810 G98 G81 X0.1464 Y0.1464 Z-0.137 R0.103 F4.
N815 X0.8536 Y0.8536
N820 G80
N825 G0 Z0.6
N830 M9
N835 M5
N840 G53 G0 Z0.

(Drill4)
N845 M1
N850 T3 M6
N855 S3000 M3
N860 G17 G90 G94
N865 G54
N870 M8
N875 G1 X0.1464 Y0.1464 F300.
N880 G0 G43 Z0.6 H3
N885 G0 Z0.2
N890 G98 G73 X0.1464 Y0.1464 Z-0.3854 R0.103 Q0.034 K0.2 F6.
N895 X0.8536 Y0.8536
N900 G80
N905 G0 Z0.6
N910 M9
N915 M5
N920 G53 G0 Z0.

(2D Adaptive1)
N925 M1
N930 T9 M6
N935 S4000 M3
N940 G17 G90 G94
N945 G54
N950 M8
N955 G1 X1.286 Y-0.0258 F300.
N960 G0 G43 Z0.6 H9
N965 G0 Z-0.082
N970 G1 Z-0.107 F18.
N975 X1.2857 Y-0.0257 Z-0.1109
N980 X1.2848 Y-0.0255 Z-0.1147
N985 X1.2834 Y-0.0251 Z-0.1183
N990 X1.2814 Y-0.0246 Z-0.1217
N995 X1.2789 Y-0.024 Z-0.1247
N1000 X1.276 Y-0.0232 Z-0.1272
N1005 X1.2728 Y-0.0224 Z-0.1293
N1010 X1.2693 Y-0.0215 Z-0.1308
N1015 X1.2656 Y-0.0205 Z-0.1317
N1020 X1.2618 Y-0.0196 Z-0.132
N1025 G3 X1.1257 Y0. I-0.1584 J-0.6183
N1030 G1 X1.1244
N1035 X1.1073 Y-0.0061
N1040 X1.0899 Y-0.0114
N1045 G2 X1.0188 Y-0.0259 I-0.1495 J0.5501
N1050 X0.9105 Y-0.0359 I-0.1637 J1.1742
N1055 X0.8322 Y-0.0391 I-0.1369 J2.4618
N1060 G1 X0.8216 Y-0.0402
N1065 X0.8113 Y-0.0428
N1070 X0.8015 Y-0.0471
N1075 X0.7798 Y-0.0585
N1080 X0.7736 Y-0.0617
N1085 X0.765 Y-0.066
N1090 X0.7586 Y-0.0687
N1095 X0.7286 Y-0.0814
N1100 X0.7211 Y-0.0844
N1105 X0.7137 Y-0.0872
N1110 X0.71 Y-0.0885
N1115 X0.6762 Y-0.0994
N1120 X0.6687 Y-0.1017
N1125 X0.6612 Y-0.1037
N1130 X0.6537 Y-0.1055
N1135 X0.6237 Y-0.1124
N1140 X0.6162 Y-0.114
N1145 X0.6087 Y-0.1153
N1150 X0.6012 Y-0.1164
N1155 X0.5712 Y-0.1207
N1160 X0.5637 Y-0.1216
N1165 X0.5562 Y-0.1223
N1170 X0.5487 Y-0.1228
N1175 X0.5187 Y-0.1244
N1180 X0.5112 Y-0.1248
N1185 X0.5037
N1190 X0.4963 Y-0.1247
N1195 X0.4663 Y-0.1238
N1200 X0.4588 Y-0.1235
N1205 X0.4513 Y-0.123
N1210 X0.4438 Y-0.1225
N1215 X0.1364 Y-0.0995
N1220 G2 X0.0914 Y-0.0931 I0.0287 J0.3638
N1225 G1 X0.0839 Y-0.0914
N1230 G2 X0.0532 Y-0.081 I0.1257 J0.4226
N1235 X0.0234 Y-0.066 I0.0758 J0.1882
N1240 X-0.006 Y-0.0461 I0.086 J0.1588
N1245 G1 X-0.0181 Y-0.036
N1250 G2 X-0.036 Y-0.0181 I0.0985 J0.1164
N1255 G1 X-0.0461 Y-0.006
N1260 G2 X-0.066 Y0.0234 I0.1405 J0.1165
N1265 X-0.081 Y0.0532 I0.1805 J0.1096
N1270 X-0.0914 Y0.0839 I0.5408 J0.1997
N1275 X-0.097 Y0.1139 I0.3017 J0.0718
N1280 G1 X-0.0981 Y0.1214
N1285 X-0.0989 Y0.1289
N1290 X-0.0995 Y0.1364
N1295 X-0.1225 Y0.4438
N1300 X-0.123 Y0.4513
N1305 X-0.1235 Y0.4588
N1310 X-0.1238 Y0.4663
N1315 X-0.1247 Y0.4963
N1320 X-0.1248 Y0.5037
N1325 Y0.5112
N1330 X-0.1244 Y0.5187
N1335 X-0.1228 Y0.5487
N1340 X-0.1223 Y0.5562
N1345 X-0.1216 Y0.5637
N1350 X-0.1207 Y0.5712
N1355 X-0.1164 Y0.6012
N1360 X-0.1153 Y0.6087
N1365 X-0.114 Y0.6162
N1370 X-0.1124 Y0.6237
N1375 X-0.1055 Y0.6537
N1380 X-0.1037 Y0.6612
N1385 X-0.1017 Y0.6687
N1390 X-0.0994 Y0.6762
N1395 X-0.0885 Y0.71
N1400 X-0.0872 Y0.7137
N1405 X-0.0844 Y0.7211
N1410 X-0.0814 Y0.7286
N1415 X-0.0752 Y0.7457
N1420 X-0.0698 Y0.763
N1425 X-0.0653 Y0.7806
N1430 G3 X-0.0537 Y0.8522 I-0.6087 J0.1353
N1435 G1 X-0.0518 Y0.8703
N1440 X-0.0503 Y0.8883
N1445 X-0.0481 Y0.9064
N1450 X-0.0413 Y0.9232
N1455 X-0.0316 Y0.9385
N1460 X-0.0197 Y0.9522
N1465 X-0.0062 Y0.9644
N1470 X0.0084 Y0.9751
N1475 X0.024 Y0.9845
N1480 X0.0402 Y0.9927
N1485 X0.0569 Y0.9997
N1490 X0.0739 Y1.0059
N1495 X0.0913 Y1.0112
N1500 G2 X0.1489 Y1.0237 I0.1404 J-0.5075
N1505 G1 X0.1581 Y1.0258
N1510 X0.167 Y1.0292
N1515 X0.1754 Y1.0337
N1520 X0.1814 Y1.0376
N1525 X0.1889 Y1.042
N1530 G2 X0.235 Y1.066 I0.7897 J-1.4606
N1535 G1 X0.2414 Y1.0687
N1540 X0.2714 Y1.0814
N1545 X0.2789 Y1.0844
N1550 X0.2863 Y1.0872
N1555 X0.29 Y1.0885
N1560 X0.3238 Y1.0994
N1565 X0.3313 Y1.1017
N1570 X0.3388 Y1.1037
N1575 X0.3463 Y1.1055
N1580 X0.3763 Y1.1124
N1585 X0.3838 Y1.114
N1590 X0.3913 Y1.1153
N1595 X0.3988 Y1.1164
N1600 X0.4288 Y1.1207
N1605 X0.4363 Y1.1216
N1610 X0.4438 Y1.1223
N1615 X0.4513 Y1.1228
N1620 X0.4813 Y1.1244
N1625 X0.4888 Y1.1248
N1630 X0.4963
N1635 X0.5037 Y1.1247
N1640 X0.5337 Y1.1238
N1645 X0.5412 Y1.1235
N1650 X0.5487 Y1.123
N1655 X0.5562 Y1.1225
N1660 X0.8636 Y1.0995
N1665 G2 X0.9086 Y1.0931 I-0.0286 J-0.3633
N1670 G1 X0.9161 Y1.0914
N1675 G2 X0.9468 Y1.081 I-0.1257 J-0.4226
N1680 X0.9766 Y1.066 I-0.0758 J-0.1883
N1685 X1.006 Y1.0461 I-0.086 J-0.1587
N1690 G1 X1.0181 Y1.036
N1695 G2 X1.036 Y1.0181 I-0.0985 J-0.1164
N1700 G1 X1.0461 Y1.006
N1705 G2 X1.066 Y0.9766 I-0.1405 J-0.1164
N1710 X1.081 Y0.9468 I-0.1806 J-0.1096
N1715 X1.0914 Y0.9161 I-0.541 J-0.1997
N1720 X1.097 Y0.8861 I-0.3021 J-0.0719
N1725 G1 X1.0981 Y0.8786
N1730 X1.0989 Y0.8711
N1735 X1.0995 Y0.8636
N1740 X1.1225 Y0.5562
N1745 X1.123 Y0.5487
N1750 X1.1235 Y0.5412
N1755 X1.1238 Y0.5337
N1760 X1.1247 Y0.5037
N1765 X1.1248 Y0.4963
N1770 Y0.4888
N1775 X1.1244 Y0.4813
N1780 X1.1228 Y0.4513
N1785 X1.1223 Y0.4438
N1790 X1.1216 Y0.4363
N1795 X1.1207 Y0.4288
N1800 X1.1164 Y0.3988
N1805 X1.1153 Y0.3913
N1810 X1.114 Y0.3838
N1815 X1.1124 Y0.3763
N1820 X1.1055 Y0.3463
N1825 X1.1037 Y0.3388
N1830 X1.1017 Y0.3313
N1835 X1.0994 Y0.3238
N1840 X1.0885 Y0.29
N1845 X1.0872 Y0.2863
N1850 X1.0844 Y0.2789
N1855 X1.0814 Y0.2714
N1860 X1.0752 Y0.2543
N1865 X1.0698 Y0.237
N1870 X1.0653 Y0.2194
N1875 X1.0616 Y0.2016
N1880 X1.0574 Y0.184
N1885 X1.0499 Y0.1674
N1890 X1.0399 Y0.1523
N1895 X1.0281 Y0.1385
N1900 X1.0148 Y0.1262
N1905 X1.0003 Y0.1152
N1910 X0.9935 Y0.1109
N1915 X0.9875 Y0.1066
N1920 X0.982 Y0.1018
N1925 X0.977 Y0.0963
N1930 G3 X0.9817 Y0.0613 Z-0.124 I0.0199 J-0.0152
N1935 X1.0183 Y0.0683 I0.0152 J0.0198
N1940 G1 X1.1255 Y0.2481
N1945 G3 X1.1145 Y0.2836 I-0.0215 J0.0128
N1950 X1.0814 Y0.2714 Z-0.132 I-0.0105 J-0.0227
N1955 G1 X1.0687 Y0.2414
N1960 X1.066 Y0.2351
N1965 G2 X1.042 Y0.1889 I-1.3193 J0.6577
N1970 G1 X1.0376 Y0.1814
N1975 X1.0285 Y0.1672
N1980 X1.0184 Y0.1514
N1985 G2 X1.0025 Y0.1289 I-0.2272 J0.1441
N1990 G1 X0.9852 Y0.1064
N1995 G2 X0.9727 Y0.0914 I-0.2015 J0.1545
N2000 G1 X0.9521 Y0.0689
N2005 X0.946 Y0.0625
N2010 X0.9375 Y0.054
N2015 X0.9311 Y0.0479
N2020 X0.9086 Y0.0273
N2025 X0.9049 Y0.024
N2030 X0.9011 Y0.0208
N2035 X0.8957 Y0.0165
N2040 X0.8711 Y-0.0025
N2045 G2 X0.8445 Y-0.021 I-0.1906 J0.2452
N2050 G1 X0.8328 Y-0.0285
N2055 X0.8211 Y-0.036
N2060 G3 X0.8111 Y-0.0632 I0.0142 J-0.0206
N2065 G1 X0.8122 Y-0.067 Z-0.1317
N2070 X0.8132 Y-0.0707 Z-0.1308
N2075 X0.8141 Y-0.0742 Z-0.1293
N2080 X0.815 Y-0.0774 Z-0.1272
N2085 X0.8158 Y-0.0803 Z-0.1247
N2090 X0.8165 Y-0.0827 Z-0.1217
N2095 X0.817 Y-0.0847 Z-0.1183
N2100 X0.8174 Y-0.0862 Z-0.1147
N2105 X0.8177 Y-0.087 Z-0.1109
N2110 X0.8178 Y-0.0873 Z-0.107
N2115 G0 Z0.2
N2120 G1 X-0.121 Y0.6898 F300.
N2125 G0 Z-0.082
N2130 G1 Z-0.107 F18.
N2135 X-0.1208 Y0.69 Z-0.1109
N2140 X-0.12 Y0.6906 Z-0.1147
N2145 X-0.1188 Y0.6914 Z-0.1183
N2150 X-0.1172 Y0.6927 Z-0.1217
N2155 X-0.1151 Y0.6942 Z-0.1247
N2160 X-0.1127 Y0.696 Z-0.1272
N2165 X-0.11 Y0.6979 Z-0.1293
N2170 X-0.1071 Y0.7001 Z-0.1308
N2175 X-0.104 Y0.7024 Z-0.1317
N2180 X-0.1009 Y0.7047 Z-0.132
N2185 G3 X-0.0814 Y0.7286 I-0.037 J0.0501
N2190 G1 X-0.0687 Y0.7586
N2195 X-0.066 Y0.765
N2200 G2 X-0.042 Y0.8111 I1.3176 J-0.6569
N2205 G1 X-0.0376 Y0.8186
N2210 X-0.0285 Y0.8328
N2215 X-0.0184 Y0.8486
N2220 G2 X-0.0025 Y0.8711 I0.2273 J-0.1441
N2225 G1 X0.0165 Y0.8957
N2230 X0.0208 Y0.9011
N2235 X0.024 Y0.9049
N2240 X0.0273 Y0.9086
N2245 X0.0479 Y0.9311
N2250 X0.054 Y0.9375
N2255 X0.0625 Y0.946
N2260 X0.0689 Y0.9521
N2265 X0.0914 Y0.9727
N2270 X0.0951 Y0.976
N2275 X0.0989 Y0.9792
N2280 X0.1043 Y0.9835
N2285 X0.1289 Y1.0025
N2290 G2 X0.1555 Y1.021 I0.1906 J-0.2451
N2295 G1 X0.1672 Y1.0285
N2300 X0.1754 Y1.0337
N2305 X0.1777 Y1.0355
N2310 X0.1798 Y1.0376
N2315 X0.1814 Y1.0402 Z-0.1318
N2320 X0.1829 Y1.0427 Z-0.1313
N2325 X0.1844 Y1.0451 Z-0.1304
N2330 X0.1851 Y1.0482 Z-0.1289
N2335 X0.1856 Y1.0511 Z-0.127
N2340 X0.1862 Y1.0537 Z-0.1247
N2345 Y1.0543 Z-0.1241
N2350 X0.1859 Y1.0566 Z-0.1211
N2355 X0.1856 Y1.0585 Z-0.1179
N2360 X0.1854 Y1.0598 Z-0.1144
N2365 X0.1853 Y1.0607 Z-0.1107
N2370 Y1.061 Z-0.107
N2375 G0 Z0.2
N2380 G1 X1.286 Y-0.0258 F300.
N2385 G0 Z-0.117
N2390 G1 Z-0.142 F18.
N2395 X1.2857 Y-0.0257 Z-0.1459
N2400 X1.2848 Y-0.0255 Z-0.1497
N2405 X1.2834 Y-0.0251 Z-0.1533
N2410 X1.2814 Y-0.0246 Z-0.1567
N2415 X1.2789 Y-0.024 Z-0.1597
N2420 X1.276 Y-0.0232 Z-0.1622
N2425 X1.2728 Y-0.0224 Z-0.1643
N2430 X1.2693 Y-0.0215 Z-0.1658
N2435 X1.2656 Y-0.0205 Z-0.1667
N2440 X1.2618 Y-0.0196 Z-0.167
N2445 G3 X1.1257 Y0. I-0.1584 J-0.6183
N2450 G1 X1.1244
N2455 X1.1073 Y-0.0061
N2460 X1.0899 Y-0.0114
N2465 G2 X1.0188 Y-0.0259 I-0.1495 J0.5501
N2470 X0.9105 Y-0.0359 I-0.1637 J1.1742
N2475 X0.8322 Y-0.0391 I-0.1369 J2.4618
N2480 G1 X0.8216 Y-0.0402
N2485 X0.8113 Y-0.0428
N2490 X0.8015 Y-0.0471
N2495 X0.7798 Y-0.0585
N2500 X0.7736 Y-0.0617
N2505 X0.765 Y-0.066
N2510 X0.7586 Y-0.0687
N2515 X0.7286 Y-0.0814
N2520 X0.7211 Y-0.0844
N2525 X0.7137 Y-0.0872
N2530 X0.71 Y-0.0885
N2535 X0.6762 Y-0.0994
N2540 X0.6687 Y-0.1017
N2545 X0.6612 Y-0.1037
N2550 X0.6537 Y-0.1055
N2555 X0.6237 Y-0.1124
N2560 X0.6162 Y-0.114
N2565 X0.6087 Y-0.1153
N2570 X0.6012 Y-0.1164
N2575 X0.5712 Y-0.1207
N2580 X0.5637 Y-0.1216
N2585 X0.5562 Y-0.1223
N2590 X0.5487 Y-0.1228
N2595 X0.5187 Y-0.1244
N2600 X0.5112 Y-0.1248
N2605 X0.5037
N2610 X0.4963 Y-0.1247
N2615 X0.4663 Y-0.1238
N2620 X0.4588 Y-0.1235
N2625 X0.4513 Y-0.123
N2630 X0.4438 Y-0.1225
N2635 X0.1364 Y-0.0995
N2640 G2 X0.0914 Y-0.0931 I0.0287 J0.3638
N2645 G1 X0.0839 Y-0.0914
N2650 G2 X0.0532 Y-0.081 I0.1257 J0.4226
N2655 X0.0234 Y-0.066 I0.0758 J0.1882
N2660 X-0.006 Y-0.0461 I0.086 J0.1588
N2665 G1 X-0.0181 Y-0.036
N2670 G2 X-0.036 Y-0.0181 I0.0985 J0.1164
N2675 G1 X-0.0461 Y-0.006
N2680 G2 X-0.066 Y0.0234 I0.1405 J0.1165
N2685 X-0.081 Y0.0532 I0.1805 J0.1096
N2690 X-0.0914 Y0.0839 I0.5408 J0.1997
N2695 X-0.097 Y0.1139 I0.3017 J0.0718
N2700 G1 X-0.0981 Y0.1214
N2705 X-0.0989 Y0.1289
N2710 X-0.0995 Y0.1364
N2715 X-0.1225 Y0.4438
N2720 X-0.123 Y0.4513
N2725 X-0.1235 Y0.4588
N2730 X-0.1238 Y0.4663
N2735 X-0.1247 Y0.4963
N2740 X-0.1248 Y0.5037
N2745 Y0.5112
N2750 X-0.1244 Y0.5187
N2755 X-0.1228 Y0.5487
N2760 X-0.1223 Y0.5562
N2765 X-0.1216 Y0.5637
N2770 X-0.1207 Y0.5712
N2775 X-0.1164 Y0.6012
N2780 X-0.1153 Y0.6087
N2785 X-0.114 Y0.6162
N2790 X-0.1124 Y0.6237
N2795 X-0.1055 Y0.6537
N2800 X-0.1037 Y0.6612
N2805 X-0.1017 Y0.6687
N2810 X-0.0994 Y0.6762
N2815 X-0.0885 Y0.71
N2820 X-0.0872 Y0.7137
N2825 X-0.0844 Y0.7211
N2830 X-0.0814 Y0.7286
N2835 X-0.0752 Y0.7457
N2840 X-0.0698 Y0.763
N2845 X-0.0653 Y0.7806
N2850 G3 X-0.0537 Y0.8522 I-0.6087 J0.1353
N2855 G1 X-0.0518 Y0.8703
N2860 X-0.0503 Y0.8883
N2865 X-0.0481 Y0.9064
N2870 X-0.0413 Y0.9232
N2875 X-0.0316 Y0.9385
N2880 X-0.0197 Y0.9522
N2885 X-0.0062 Y0.9644
N2890 X0.0084 Y0.9751
N2895 X0.024 Y0.9845
N2900 X0.0402 Y0.9927
N2905 X0.0569 Y0.9997
N2910 X0.0739 Y1.0059
N2915 X0.0913 Y1.0112
N2920 G2 X0.1489 Y1.0237 I0.1404 J-0.5075
N2925 G1 X0.1581 Y1.0258
N2930 X0.167 Y1.0292
N2935 X0.1754 Y1.0337
N2940 X0.1814 Y1.0376
N2945 X0.1889 Y1.042
N2950 G2 X0.235 Y1.066 I0.7897 J-1.4606
N2955 G1 X0.2414 Y1.0687
N2960 X0.2714 Y1.0814
N2965 X0.2789 Y1.0844
N2970 X0.2863 Y1.0872
N2975 X0.29 Y1.0885
N2980 X0.3238 Y1.0994
N2985 X0.3313 Y1.1017
N2990 X0.3388 Y1.1037
N2995 X0.3463 Y1.1055
N3000 X0.3763 Y1.1124
N3005 X0.3838 Y1.114
N3010 X0.3913 Y1.1153
N3015 X0.3988 Y1.1164
N3020 X0.4288 Y1.1207
N3025 X0.4363 Y1.1216
N3030 X0.4438 Y1.1223
N3035 X0.4513 Y1.1228
N3040 X0.4813 Y1.1244
N3045 X0.4888 Y1.1248
N3050 X0.4963
N3055 X0.5037 Y1.1247
N3060 X0.5337 Y1.1238
N3065 X0.5412 Y1.1235
N3070 X0.5487 Y1.123
N3075 X0.5562 Y1.1225
N3080 X0.8636 Y1.0995
N3085 G2 X0.9086 Y1.0931 I-0.0286 J-0.3633
N3090 G1 X0.9161 Y1.0914
N3095 G2 X0.9468 Y1.081 I-0.1257 J-0.4226
N3100 X0.9766 Y1.066 I-0.0758 J-0.1883
N3105 X1.006 Y1.0461 I-0.086 J-0.1587
N3110 G1 X1.0181 Y1.036
N3115 G2 X1.036 Y1.0181 I-0.0985 J-0.1164
N3120 G1 X1.0461 Y1.006
N3125 G2 X1.066 Y0.9766 I-0.1405 J-0.1164
N3130 X1.081 Y0.9468 I-0.1806 J-0.1096
N3135 X1.0914 Y0.9161 I-0.541 J-0.1997
N3140 X1.097 Y0.8861 I-0.3021 J-0.0719
N3145 G1 X1.0981 Y0.8786
N3150 X1.0989 Y0.8711
N3155 X1.0995 Y0.8636
N3160 X1.1225 Y0.5562
N3165 X1.123 Y0.5487
N3170 X1.1235 Y0.5412
N3175 X1.1238 Y0.5337
N3180 X1.1247 Y0.5037
N3185 X1.1248 Y0.4963
N3190 Y0.4888
N3195 X1.1244 Y0.4813
N3200 X1.1228 Y0.4513
N3205 X1.1223 Y0.4438
N3210 X1.1216 Y0.4363
N3215 X1.1207 Y0.4288
N3220 X1.1164 Y0.3988
N3225 X1.1153 Y0.3913
N3230 X1.114 Y0.3838
N3235 X1.1124 Y0.3763
N3240 X1.1055 Y0.3463
N3245 X1.1037 Y0.3388
N3250 X1.1017 Y0.3313
N3255 X1.0994 Y0.3238
N3260 X1.0885 Y0.29
N3265 X1.0872 Y0.2863
N3270 X1.0844 Y0.2789
N3275 X1.0814 Y0.2714
N3280 X1.0752 Y0.2543
N3285 X1.0698 Y0.237
N3290 X1.0653 Y0.2194
N3295 X1.0616 Y0.2016
N3300 X1.0574 Y0.184
N3305 X1.0499 Y0.1674
N3310 X1.0399 Y0.1523
N3315 X1.0281 Y0.1385
N3320 X1.0148 Y0.1262
N3325 X1.0003 Y0.1152
N3330 X0.9935 Y0.1109
N3335 X0.9875 Y0.1066
N3340 X0.982 Y0.1018
N3345 X0.977 Y0.0963
N3350 G3 X0.9817 Y0.0613 Z-0.159 I0.0199 J-0.0152
N3355 X1.0183 Y0.0683 I0.0152 J0.0198
N3360 G1 X1.1255 Y0.2481
N3365 G3 X1.1145 Y0.2836 I-0.0215 J0.0128
N3370 X1.0814 Y0.2714 Z-0.167 I-0.0105 J-0.0227
N3375 G1 X1.0687 Y0.2414
N3380 X1.066 Y0.2351
N3385 G2 X1.042 Y0.1889 I-1.3193 J0.6577
N3390 G1 X1.0376 Y0.1814
N3395 X1.0285 Y0.1672
N3400 X1.0184 Y0.1514
N3405 G2 X1.0025 Y0.1289 I-0.2272 J0.1441
N3410 G1 X0.9852 Y0.1064
N3415 G2 X0.9727 Y0.0914 I-0.2015 J0.1545
N3420 G1 X0.9521 Y0.0689
N3425 X0.946 Y0.0625
N3430 X0.9375 Y0.054
N3435 X0.9311 Y0.0479
N3440 X0.9086 Y0.0273
N3445 X0.9049 Y0.024
N3450 X0.9011 Y0.0208
N3455 X0.8957 Y0.0165
N3460 X0.8711 Y-0.0025
N3465 G2 X0.8445 Y-0.021 I-0.1906 J0.2452
N3470 G1 X0.8328 Y-0.0285
N3475 X0.8211 Y-0.036
N3480 G3 X0.8111 Y-0.0632 I0.0142 J-0.0206
N3485 G1 X0.8122 Y-0.067 Z-0.1667
N3490 X0.8132 Y-0.0707 Z-0.1658
N3495 X0.8141 Y-0.0742 Z-0.1643
N3500 X0.815 Y-0.0774 Z-0.1622
N3505 X0.8158 Y-0.0803 Z-0.1597
N3510 X0.8165 Y-0.0827 Z-0.1567
N3515 X0.817 Y-0.0847 Z-0.1533
N3520 X0.8174 Y-0.0862 Z-0.1497
N3525 X0.8177 Y-0.087 Z-0.1459
N3530 X0.8178 Y-0.0873 Z-0.142
N3535 G0 Z0.2
N3540 G1 X-0.121 Y0.6898 F300.
N3545 G0 Z-0.117
N3550 G1 Z-0.142 F18.
N3555 X-0.1208 Y0.69 Z-0.1459
N3560 X-0.12 Y0.6906 Z-0.1497
N3565 X-0.1188 Y0.6914 Z-0.1533
N3570 X-0.1172 Y0.6927 Z-0.1567
N3575 X-0.1151 Y0.6942 Z-0.1597
N3580 X-0.1127 Y0.696 Z-0.1622
N3585 X-0.11 Y0.6979 Z-0.1643
N3590 X-0.1071 Y0.7001 Z-0.1658
N3595 X-0.104 Y0.7024 Z-0.1667
N3600 X-0.1009 Y0.7047 Z-0.167
N3605 G3 X-0.0814 Y0.7286 I-0.037 J0.0501
N3610 G1 X-0.0687 Y0.7586
N3615 X-0.066 Y0.765
N3620 G2 X-0.042 Y0.8111 I1.3176 J-0.6569
N3625 G1 X-0.0376 Y0.8186
N3630 X-0.0285 Y0.8328
N3635 X-0.0184 Y0.8486
N3640 G2 X-0.0025 Y0.8711 I0.2273 J-0.1441
N3645 G1 X0.0165 Y0.8957
N3650 X0.0208 Y0.9011
N3655 X0.024 Y0.9049
N3660 X0.0273 Y0.9086
N3665 X0.0479 Y0.9311
N3670 X0.054 Y0.9375
N3675 X0.0625 Y0.946
N3680 X0.0689 Y0.9521
N3685 X0.0914 Y0.9727
N3690 X0.0951 Y0.976
N3695 X0.0989 Y0.9792
N3700 X0.1043 Y0.9835
N3705 X0.1289 Y1.0025
N3710 G2 X0.1555 Y1.021 I0.1906 J-0.2451
N3715 G1 X0.1672 Y1.0285
N3720 X0.1754 Y1.0337
N3725 X0.1777 Y1.0355
N3730 X0.1798 Y1.0376
N3735 X0.1814 Y1.0402 Z-0.1668
N3740 X0.1829 Y1.0427 Z-0.1663
N3745 X0.1844 Y1.0451 Z-0.1654
N3750 X0.1851 Y1.0482 Z-0.1639
N3755 X0.1856 Y1.0511 Z-0.162
N3760 X0.1862 Y1.0537 Z-0.1597
N3765 Y1.0543 Z-0.1591
N3770 X0.1859 Y1.0566 Z-0.1561
N3775 X0.1856 Y1.0585 Z-0.1529
N3780 X0.1854 Y1.0598 Z-0.1494
N3785 X0.1853 Y1.0607 Z-0.1457
N3790 Y1.061 Z-0.142
N3795 G0 Z0.2
N3800 G1 X1.286 Y-0.0258 F300.
N3805 G0 Z-0.152
N3810 G1 Z-0.177 F18.
N3815 X1.2857 Y-0.0257 Z-0.1809
N3820 X1.2848 Y-0.0255 Z-0.1847
N3825 X1.2834 Y-0.0251 Z-0.1883
N3830 X1.2814 Y-0.0246 Z-0.1917
N3835 X1.2789 Y-0.024 Z-0.1947
N3840 X1.276 Y-0.0232 Z-0.1972
N3845 X1.2728 Y-0.0224 Z-0.1993
N3850 X1.2693 Y-0.0215 Z-0.2008
N3855 X1.2656 Y-0.0205 Z-0.2017
N3860 X1.2618 Y-0.0196 Z-0.202
N3865 G3 X1.1257 Y0. I-0.1584 J-0.6183
N3870 G1 X1.1244
N3875 X1.1073 Y-0.0061
N3880 X1.0899 Y-0.0114
N3885 G2 X1.0188 Y-0.0259 I-0.1495 J0.5501
N3890 X0.9105 Y-0.0359 I-0.1637 J1.1742
N3895 X0.8322 Y-0.0391 I-0.1369 J2.4618
N3900 G1 X0.8216 Y-0.0402
N3905 X0.8113 Y-0.0428
N3910 X0.8015 Y-0.0471
N3915 X0.7798 Y-0.0585
N3920 X0.7736 Y-0.0617
N3925 X0.765 Y-0.066
N3930 X0.7586 Y-0.0687
N3935 X0.7286 Y-0.0814
N3940 X0.7211 Y-0.0844
N3945 X0.7137 Y-0.0872
N3950 X0.71 Y-0.0885
N3955 X0.6762 Y-0.0994
N3960 X0.6687 Y-0.1017
N3965 X0.6612 Y-0.1037
N3970 X0.6537 Y-0.1055
N3975 X0.6237 Y-0.1124
N3980 X0.6162 Y-0.114
N3985 X0.6087 Y-0.1153
N3990 X0.6012 Y-0.1164
N3995 X0.5712 Y-0.1207
N4000 X0.5637 Y-0.1216
N4005 X0.5562 Y-0.1223
N4010 X0.5487 Y-0.1228
N4015 X0.5187 Y-0.1244
N4020 X0.5112 Y-0.1248
N4025 X0.5037
N4030 X0.4963 Y-0.1247
N4035 X0.4663 Y-0.1238
N4040 X0.4588 Y-0.1235
N4045 X0.4513 Y-0.123
N4050 X0.4438 Y-0.1225
N4055 X0.1364 Y-0.0995
N4060 G2 X0.0914 Y-0.0931 I0.0287 J0.3638
N4065 G1 X0.0839 Y-0.0914
N4070 G2 X0.0532 Y-0.081 I0.1257 J0.4226
N4075 X0.0234 Y-0.066 I0.0758 J0.1882
N4080 X-0.006 Y-0.0461 I0.086 J0.1588
N4085 G1 X-0.0181 Y-0.036
N4090 G2 X-0.036 Y-0.0181 I0.0985 J0.1164
N4095 G1 X-0.0461 Y-0.006
N4100 G2 X-0.066 Y0.0234 I0.1405 J0.1165
N4105 X-0.081 Y0.0532 I0.1805 J0.1096
N4110 X-0.0914 Y0.0839 I0.5408 J0.1997
N4115 X-0.097 Y0.1139 I0.3017 J0.0718
N4120 G1 X-0.0981 Y0.1214
N4125 X-0.0989 Y0.1289
N4130 X-0.0995 Y0.1364
N4135 X-0.1225 Y0.4438
N4140 X-0.123 Y0.4513
N4145 X-0.1235 Y0.4588
N4150 X-0.1238 Y0.4663
N4155 X-0.1247 Y0.4963
N4160 X-0.1248 Y0.5037
N4165 Y0.5112
N4170 X-0.1244 Y0.5187
N4175 X-0.1228 Y0.5487
N4180 X-0.1223 Y0.5562
N4185 X-0.1216 Y0.5637
N4190 X-0.1207 Y0.5712
N4195 X-0.1164 Y0.6012
N4200 X-0.1153 Y0.6087
N4205 X-0.114 Y0.6162
N4210 X-0.1124 Y0.6237
N4215 X-0.1055 Y0.6537
N4220 X-0.1037 Y0.6612
N4225 X-0.1017 Y0.6687
N4230 X-0.0994 Y0.6762
N4235 X-0.0885 Y0.71
N4240 X-0.0872 Y0.7137
N4245 X-0.0844 Y0.7211
N4250 X-0.0814 Y0.7286
N4255 X-0.0752 Y0.7457
N4260 X-0.0698 Y0.763
N4265 X-0.0653 Y0.7806
N4270 G3 X-0.0537 Y0.8522 I-0.6087 J0.1353
N4275 G1 X-0.0518 Y0.8703
N4280 X-0.0503 Y0.8883
N4285 X-0.0481 Y0.9064
N4290 X-0.0413 Y0.9232
N4295 X-0.0316 Y0.9385
N4300 X-0.0197 Y0.9522
N4305 X-0.0062 Y0.9644
N4310 X0.0084 Y0.9751
N4315 X0.024 Y0.9845
N4320 X0.0402 Y0.9927
N4325 X0.0569 Y0.9997
N4330 X0.0739 Y1.0059
N4335 X0.0913 Y1.0112
N4340 G2 X0.1489 Y1.0237 I0.1404 J-0.5075
N4345 G1 X0.1581 Y1.0258
N4350 X0.167 Y1.0292
N4355 X0.1754 Y1.0337
N4360 X0.1814 Y1.0376
N4365 X0.1889 Y1.042
N4370 G2 X0.235 Y1.066 I0.7897 J-1.4606
N4375 G1 X0.2414 Y1.0687
N4380 X0.2714 Y1.0814
N4385 X0.2789 Y1.0844
N4390 X0.2863 Y1.0872
N4395 X0.29 Y1.0885
N4400 X0.3238 Y1.0994
N4405 X0.3313 Y1.1017
N4410 X0.3388 Y1.1037
N4415 X0.3463 Y1.1055
N4420 X0.3763 Y1.1124
N4425 X0.3838 Y1.114
N4430 X0.3913 Y1.1153
N4435 X0.3988 Y1.1164
N4440 X0.4288 Y1.1207
N4445 X0.4363 Y1.1216
N4450 X0.4438 Y1.1223
N4455 X0.4513 Y1.1228
N4460 X0.4813 Y1.1244
N4465 X0.4888 Y1.1248
N4470 X0.4963
N4475 X0.5037 Y1.1247
N4480 X0.5337 Y1.1238
N4485 X0.5412 Y1.1235
N4490 X0.5487 Y1.123
N4495 X0.5562 Y1.1225
N4500 X0.8636 Y1.0995
N4505 G2 X0.9086 Y1.0931 I-0.0286 J-0.3633
N4510 G1 X0.9161 Y1.0914
N4515 G2 X0.9468 Y1.081 I-0.1257 J-0.4226
N4520 X0.9766 Y1.066 I-0.0758 J-0.1883
N4525 X1.006 Y1.0461 I-0.086 J-0.1587
N4530 G1 X1.0181 Y1.036
N4535 G2 X1.036 Y1.0181 I-0.0985 J-0.1164
N4540 G1 X1.0461 Y1.006
N4545 G2 X1.066 Y0.9766 I-0.1405 J-0.1164
N4550 X1.081 Y0.9468 I-0.1806 J-0.1096
N4555 X1.0914 Y0.9161 I-0.541 J-0.1997
N4560 X1.097 Y0.8861 I-0.3021 J-0.0719
N4565 G1 X1.0981 Y0.8786
N4570 X1.0989 Y0.8711
N4575 X1.0995 Y0.8636
N4580 X1.1225 Y0.5562
N4585 X1.123 Y0.5487
N4590 X1.1235 Y0.5412
N4595 X1.1238 Y0.5337
N4600 X1.1247 Y0.5037
N4605 X1.1248 Y0.4963
N4610 Y0.4888
N4615 X1.1244 Y0.4813
N4620 X1.1228 Y0.4513
N4625 X1.1223 Y0.4438
N4630 X1.1216 Y0.4363
N4635 X1.1207 Y0.4288
N4640 X1.1164 Y0.3988
N4645 X1.1153 Y0.3913
N4650 X1.114 Y0.3838
N4655 X1.1124 Y0.3763
N4660 X1.1055 Y0.3463
N4665 X1.1037 Y0.3388
N4670 X1.1017 Y0.3313
N4675 X1.0994 Y0.3238
N4680 X1.0885 Y0.29
N4685 X1.0872 Y0.2863
N4690 X1.0844 Y0.2789
N4695 X1.0814 Y0.2714
N4700 X1.0752 Y0.2543
N4705 X1.0698 Y0.237
N4710 X1.0653 Y0.2194
N4715 X1.0616 Y0.2016
N4720 X1.0574 Y0.184
N4725 X1.0499 Y0.1674
N4730 X1.0399 Y0.1523
N4735 X1.0281 Y0.1385
N4740 X1.0148 Y0.1262
N4745 X1.0003 Y0.1152
N4750 X0.9935 Y0.1109
N4755 X0.9875 Y0.1066
N4760 X0.982 Y0.1018
N4765 X0.977 Y0.0963
N4770 G3 X0.9817 Y0.0613 Z-0.194 I0.0199 J-0.0152
N4775 X1.0183 Y0.0683 I0.0152 J0.0198
N4780 G1 X1.1255 Y0.2481
N4785 G3 X1.1145 Y0.2836 I-0.0215 J0.0128
N4790 X1.0814 Y0.2714 Z-0.202 I-0.0105 J-0.0227
N4795 G1 X1.0687 Y0.2414
N4800 X1.066 Y0.2351
N4805 G2 X1.042 Y0.1889 I-1.3193 J0.6577
N4810 G1 X1.0376 Y0.1814
N4815 X1.0285 Y0.1672
N4820 X1.0184 Y0.1514
N4825 G2 X1.0025 Y0.1289 I-0.2272 J0.1441
N4830 G1 X0.9852 Y0.1064
N4835 G2 X0.9727 Y0.0914 I-0.2015 J0.1545
N4840 G1 X0.9521 Y0.0689
N4845 X0.946 Y0.0625
N4850 X0.9375 Y0.054
N4855 X0.9311 Y0.0479
N4860 X0.9086 Y0.0273
N4865 X0.9049 Y0.024
N4870 X0.9011 Y0.0208
N4875 X0.8957 Y0.0165
N4880 X0.8711 Y-0.0025
N4885 G2 X0.8445 Y-0.021 I-0.1906 J0.2452
N4890 G1 X0.8328 Y-0.0285
N4895 X0.8211 Y-0.036
N4900 G3 X0.8111 Y-0.0632 I0.0142 J-0.0206
N4905 G1 X0.8122 Y-0.067 Z-0.2017
N4910 X0.8132 Y-0.0707 Z-0.2008
N4915 X0.8141 Y-0.0742 Z-0.1993
N4920 X0.815 Y-0.0774 Z-0.1972
N4925 X0.8158 Y-0.0803 Z-0.1947
N4930 X0.8165 Y-0.0827 Z-0.1917
N4935 X0.817 Y-0.0847 Z-0.1883
N4940 X0.8174 Y-0.0862 Z-0.1847
N4945 X0.8177 Y-0.087 Z-0.1809
N4950 X0.8178 Y-0.0873 Z-0.177
N4955 G0 Z0.2
N4960 G1 X-0.121 Y0.6898 F300.
N4965 G0 Z-0.152
N4970 G1 Z-0.177 F18.
N4975 X-0.1208 Y0.69 Z-0.1809
N4980 X-0.12 Y0.6906 Z-0.1847
N4985 X-0.1188 Y0.6914 Z-0.1883
N4990 X-0.1172 Y0.6927 Z-0.1917
N4995 X-0.1151 Y0.6942 Z-0.1947
N5000 X-0.1127 Y0.696 Z-0.1972
N5005 X-0.11 Y0.6979 Z-0.1993
N5010 X-0.1071 Y0.7001 Z-0.2008
N5015 X-0.104 Y0.7024 Z-0.2017
N5020 X-0.1009 Y0.7047 Z-0.202
N5025 G3 X-0.0814 Y0.7286 I-0.037 J0.0501
N5030 G1 X-0.0687 Y0.7586
N5035 X-0.066 Y0.765
N5040 G2 X-0.042 Y0.8111 I1.3176 J-0.6569
N5045 G1 X-0.0376 Y0.8186
N5050 X-0.0285 Y0.8328
N5055 X-0.0184 Y0.8486
N5060 G2 X-0.0025 Y0.8711 I0.2273 J-0.1441
N5065 G1 X0.0165 Y0.8957
N5070 X0.0208 Y0.9011
N5075 X0.024 Y0.9049
N5080 X0.0273 Y0.9086
N5085 X0.0479 Y0.9311
N5090 X0.054 Y0.9375
N5095 X0.0625 Y0.946
N5100 X0.0689 Y0.9521
N5105 X0.0914 Y0.9727
N5110 X0.0951 Y0.976
N5115 X0.0989 Y0.9792
N5120 X0.1043 Y0.9835
N5125 X0.1289 Y1.0025
N5130 G2 X0.1555 Y1.021 I0.1906 J-0.2451
N5135 G1 X0.1672 Y1.0285
N5140 X0.1754 Y1.0337
N5145 X0.1777 Y1.0355
N5150 X0.1798 Y1.0376
N5155 X0.1814 Y1.0402 Z-0.2018
N5160 X0.1829 Y1.0427 Z-0.2013
N5165 X0.1844 Y1.0451 Z-0.2004
N5170 X0.1851 Y1.0482 Z-0.1989
N5175 X0.1856 Y1.0511 Z-0.197
N5180 X0.1862 Y1.0537 Z-0.1947
N5185 Y1.0543 Z-0.1941
N5190 X0.1859 Y1.0566 Z-0.1911
N5195 X0.1856 Y1.0585 Z-0.1879
N5200 X0.1854 Y1.0598 Z-0.1844
N5205 X0.1853 Y1.0607 Z-0.1807
N5210 Y1.061 Z-0.177
N5215 G0 Z0.2
N5220 G1 X1.286 Y-0.0258 F300.
N5225 G0 Z-0.187
N5230 G1 Z-0.212 F18.
N5235 X1.2857 Y-0.0257 Z-0.2159
N5240 X1.2848 Y-0.0255 Z-0.2197
N5245 X1.2834 Y-0.0251 Z-0.2233
N5250 X1.2814 Y-0.0246 Z-0.2267
N5255 X1.2789 Y-0.024 Z-0.2297
N5260 X1.276 Y-0.0232 Z-0.2322
N5265 X1.2728 Y-0.0224 Z-0.2343
N5270 X1.2693 Y-0.0215 Z-0.2358
N5275 X1.2656 Y-0.0205 Z-0.2367
N5280 X1.2618 Y-0.0196 Z-0.237
N5285 G3 X1.1257 Y0. I-0.1584 J-0.6183
N5290 G1 X1.1244
N5295 X1.1073 Y-0.0061
N5300 X1.0899 Y-0.0114
N5305 G2 X1.0188 Y-0.0259 I-0.1495 J0.5501
N5310 X0.9105 Y-0.0359 I-0.1637 J1.1742
N5315 X0.8322 Y-0.0391 I-0.1369 J2.4618
N5320 G1 X0.8216 Y-0.0402
N5325 X0.8113 Y-0.0428
N5330 X0.8015 Y-0.0471
N5335 X0.7798 Y-0.0585
N5340 X0.7736 Y-0.0617
N5345 X0.765 Y-0.066
N5350 X0.7586 Y-0.0687
N5355 X0.7286 Y-0.0814
N5360 X0.7211 Y-0.0844
N5365 X0.7137 Y-0.0872
N5370 X0.71 Y-0.0885
N5375 X0.6762 Y-0.0994
N5380 X0.6687 Y-0.1017
N5385 X0.6612 Y-0.1037
N5390 X0.6537 Y-0.1055
N5395 X0.6237 Y-0.1124
N5400 X0.6162 Y-0.114
N5405 X0.6087 Y-0.1153
N5410 X0.6012 Y-0.1164
N5415 X0.5712 Y-0.1207
N5420 X0.5637 Y-0.1216
N5425 X0.5562 Y-0.1223
N5430 X0.5487 Y-0.1228
N5435 X0.5187 Y-0.1244
N5440 X0.5112 Y-0.1248
N5445 X0.5037
N5450 X0.4963 Y-0.1247
N5455 X0.4663 Y-0.1238
N5460 X0.4588 Y-0.1235
N5465 X0.4513 Y-0.123
N5470 X0.4438 Y-0.1225
N5475 X0.1364 Y-0.0995
N5480 G2 X0.0914 Y-0.0931 I0.0287 J0.3638
N5485 G1 X0.0839 Y-0.0914
N5490 G2 X0.0532 Y-0.081 I0.1257 J0.4226
N5495 X0.0234 Y-0.066 I0.0758 J0.1882
N5500 X-0.006 Y-0.0461 I0.086 J0.1588
N5505 G1 X-0.0181 Y-0.036
N5510 G2 X-0.036 Y-0.0181 I0.0985 J0.1164
N5515 G1 X-0.0461 Y-0.006
N5520 G2 X-0.066 Y0.0234 I0.1405 J0.1165
N5525 X-0.081 Y0.0532 I0.1805 J0.1096
N5530 X-0.0914 Y0.0839 I0.5408 J0.1997
N5535 X-0.097 Y0.1139 I0.3017 J0.0718
N5540 G1 X-0.0981 Y0.1214
N5545 X-0.0989 Y0.1289
N5550 X-0.0995 Y0.1364
N5555 X-0.1225 Y0.4438
N5560 X-0.123 Y0.4513
N5565 X-0.1235 Y0.4588
N5570 X-0.1238 Y0.4663
N5575 X-0.1247 Y0.4963
N5580 X-0.1248 Y0.5037
N5585 Y0.5112
N5590 X-0.1244 Y0.5187
N5595 X-0.1228 Y0.5487
N5600 X-0.1223 Y0.5562
N5605 X-0.1216 Y0.5637
N5610 X-0.1207 Y0.5712
N5615 X-0.1164 Y0.6012
N5620 X-0.1153 Y0.6087
N5625 X-0.114 Y0.6162
N5630 X-0.1124 Y0.6237
N5635 X-0.1055 Y0.6537
N5640 X-0.1037 Y0.6612
N5645 X-0.1017 Y0.6687
N5650 X-0.0994 Y0.6762
N5655 X-0.0885 Y0.71
N5660 X-0.0872 Y0.7137
N5665 X-0.0844 Y0.7211
N5670 X-0.0814 Y0.7286
N5675 X-0.0752 Y0.7457
N5680 X-0.0698 Y0.763
N5685 X-0.0653 Y0.7806
N5690 G3 X-0.0537 Y0.8522 I-0.6087 J0.1353
N5695 G1 X-0.0518 Y0.8703
N5700 X-0.0503 Y0.8883
N5705 X-0.0481 Y0.9064
N5710 X-0.0413 Y0.9232
N5715 X-0.0316 Y0.9385
N5720 X-0.0197 Y0.9522
N5725 X-0.0062 Y0.9644
N5730 X0.0084 Y0.9751
N5735 X0.024 Y0.9845
N5740 X0.0402 Y0.9927
N5745 X0.0569 Y0.9997
N5750 X0.0739 Y1.0059
N5755 X0.0913 Y1.0112
N5760 G2 X0.1489 Y1.0237 I0.1404 J-0.5075
N5765 G1 X0.1581 Y1.0258
N5770 X0.167 Y1.0292
N5775 X0.1754 Y1.0337
N5780 X0.1814 Y1.0376
N5785 X0.1889 Y1.042
N5790 G2 X0.235 Y1.066 I0.7897 J-1.4606
N5795 G1 X0.2414 Y1.0687
N5800 X0.2714 Y1.0814
N5805 X0.2789 Y1.0844
N5810 X0.2863 Y1.0872
N5815 X0.29 Y1.0885
N5820 X0.3238 Y1.0994
N5825 X0.3313 Y1.1017
N5830 X0.3388 Y1.1037
N5835 X0.3463 Y1.1055
N5840 X0.3763 Y1.1124
N5845 X0.3838 Y1.114
N5850 X0.3913 Y1.1153
N5855 X0.3988 Y1.1164
N5860 X0.4288 Y1.1207
N5865 X0.4363 Y1.1216
N5870 X0.4438 Y1.1223
N5875 X0.4513 Y1.1228
N5880 X0.4813 Y1.1244
N5885 X0.4888 Y1.1248
N5890 X0.4963
N5895 X0.5037 Y1.1247
N5900 X0.5337 Y1.1238
N5905 X0.5412 Y1.1235
N5910 X0.5487 Y1.123
N5915 X0.5562 Y1.1225
N5920 X0.8636 Y1.0995
N5925 G2 X0.9086 Y1.0931 I-0.0286 J-0.3633
N5930 G1 X0.9161 Y1.0914
N5935 G2 X0.9468 Y1.081 I-0.1257 J-0.4226
N5940 X0.9766 Y1.066 I-0.0758 J-0.1883
N5945 X1.006 Y1.0461 I-0.086 J-0.1587
N5950 G1 X1.0181 Y1.036
N5955 G2 X1.036 Y1.0181 I-0.0985 J-0.1164
N5960 G1 X1.0461 Y1.006
N5965 G2 X1.066 Y0.9766 I-0.1405 J-0.1164
N5970 X1.081 Y0.9468 I-0.1806 J-0.1096
N5975 X1.0914 Y0.9161 I-0.541 J-0.1997
N5980 X1.097 Y0.8861 I-0.3021 J-0.0719
N5985 G1 X1.0981 Y0.8786
N5990 X1.0989 Y0.8711
N5995 X1.0995 Y0.8636
N6000 X1.1225 Y0.5562
N6005 X1.123 Y0.5487
N6010 X1.1235 Y0.5412
N6015 X1.1238 Y0.5337
N6020 X1.1247 Y0.5037
N6025 X1.1248 Y0.4963
N6030 Y0.4888
N6035 X1.1244 Y0.4813
N6040 X1.1228 Y0.4513
N6045 X1.1223 Y0.4438
N6050 X1.1216 Y0.4363
N6055 X1.1207 Y0.4288
N6060 X1.1164 Y0.3988
N6065 X1.1153 Y0.3913
N6070 X1.114 Y0.3838
N6075 X1.1124 Y0.3763
N6080 X1.1055 Y0.3463
N6085 X1.1037 Y0.3388
N6090 X1.1017 Y0.3313
N6095 X1.0994 Y0.3238
N6100 X1.0885 Y0.29
N6105 X1.0872 Y0.2863
N6110 X1.0844 Y0.2789
N6115 X1.0814 Y0.2714
N6120 X1.0752 Y0.2543
N6125 X1.0698 Y0.237
N6130 X1.0653 Y0.2194
N6135 X1.0616 Y0.2016
N6140 X1.0574 Y0.184
N6145 X1.0499 Y0.1674
N6150 X1.0399 Y0.1523
N6155 X1.0281 Y0.1385
N6160 X1.0148 Y0.1262
N6165 X1.0003 Y0.1152
N6170 X0.9935 Y0.1109
N6175 X0.9875 Y0.1066
N6180 X0.982 Y0.1018
N6185 X0.977 Y0.0963
N6190 G3 X0.9817 Y0.0613 Z-0.229 I0.0199 J-0.0152
N6195 X1.0183 Y0.0683 I0.0152 J0.0198
N6200 G1 X1.1255 Y0.2481
N6205 G3 X1.1145 Y0.2836 I-0.0215 J0.0128
N6210 X1.0814 Y0.2714 Z-0.237 I-0.0105 J-0.0227
N6215 G1 X1.0687 Y0.2414
N6220 X1.066 Y0.2351
N6225 G2 X1.042 Y0.1889 I-1.3193 J0.6577
N6230 G1 X1.0376 Y0.1814
N6235 X1.0285 Y0.1672
N6240 X1.0184 Y0.1514
N6245 G2 X1.0025 Y0.1289 I-0.2272 J0.1441
N6250 G1 X0.9852 Y0.1064
N6255 G2 X0.9727 Y0.0914 I-0.2015 J0.1545
N6260 G1 X0.9521 Y0.0689
N6265 X0.946 Y0.0625
N6270 X0.9375 Y0.054
N6275 X0.9311 Y0.0479
N6280 X0.9086 Y0.0273
N6285 X0.9049 Y0.024
N6290 X0.9011 Y0.0208
N6295 X0.8957 Y0.0165
N6300 X0.8711 Y-0.0025
N6305 G2 X0.8445 Y-0.021 I-0.1906 J0.2452
N6310 G1 X0.8328 Y-0.0285
N6315 X0.8211 Y-0.036
N6320 G3 X0.8111 Y-0.0632 I0.0142 J-0.0206
N6325 G1 X0.8122 Y-0.067 Z-0.2367
N6330 X0.8132 Y-0.0707 Z-0.2358
N6335 X0.8141 Y-0.0742 Z-0.2343
N6340 X0.815 Y-0.0774 Z-0.2322
N6345 X0.8158 Y-0.0803 Z-0.2297
N6350 X0.8165 Y-0.0827 Z-0.2267
N6355 X0.817 Y-0.0847 Z-0.2233
N6360 X0.8174 Y-0.0862 Z-0.2197
N6365 X0.8177 Y-0.087 Z-0.2159
N6370 X0.8178 Y-0.0873 Z-0.212
N6375 G0 Z0.2
N6380 G1 X-0.121 Y0.6898 F300.
N6385 G0 Z-0.187
N6390 G1 Z-0.212 F18.
N6395 X-0.1208 Y0.69 Z-0.2159
N6400 X-0.12 Y0.6906 Z-0.2197
N6405 X-0.1188 Y0.6914 Z-0.2233
N6410 X-0.1172 Y0.6927 Z-0.2267
N6415 X-0.1151 Y0.6942 Z-0.2297
N6420 X-0.1127 Y0.696 Z-0.2322
N6425 X-0.11 Y0.6979 Z-0.2343
N6430 X-0.1071 Y0.7001 Z-0.2358
N6435 X-0.104 Y0.7024 Z-0.2367
N6440 X-0.1009 Y0.7047 Z-0.237
N6445 G3 X-0.0814 Y0.7286 I-0.037 J0.0501
N6450 G1 X-0.0687 Y0.7586
N6455 X-0.066 Y0.765
N6460 G2 X-0.042 Y0.8111 I1.3176 J-0.6569
N6465 G1 X-0.0376 Y0.8186
N6470 X-0.0285 Y0.8328
N6475 X-0.0184 Y0.8486
N6480 G2 X-0.0025 Y0.8711 I0.2273 J-0.1441
N6485 G1 X0.0165 Y0.8957
N6490 X0.0208 Y0.9011
N6495 X0.024 Y0.9049
N6500 X0.0273 Y0.9086
N6505 X0.0479 Y0.9311
N6510 X0.054 Y0.9375
N6515 X0.0625 Y0.946
N6520 X0.0689 Y0.9521
N6525 X0.0914 Y0.9727
N6530 X0.0951 Y0.976
N6535 X0.0989 Y0.9792
N6540 X0.1043 Y0.9835
N6545 X0.1289 Y1.0025
N6550 G2 X0.1555 Y1.021 I0.1906 J-0.2451
N6555 G1 X0.1672 Y1.0285
N6560 X0.1754 Y1.0337
N6565 X0.1777 Y1.0355
N6570 X0.1798 Y1.0376
N6575 X0.1814 Y1.0402 Z-0.2368
N6580 X0.1829 Y1.0427 Z-0.2363
N6585 X0.1844 Y1.0451 Z-0.2354
N6590 X0.1851 Y1.0482 Z-0.2339
N6595 X0.1856 Y1.0511 Z-0.232
N6600 X0.1862 Y1.0537 Z-0.2297
N6605 Y1.0543 Z-0.2291
N6610 X0.1859 Y1.0566 Z-0.2261
N6615 X0.1856 Y1.0585 Z-0.2229
N6620 X0.1854 Y1.0598 Z-0.2194
N6625 X0.1853 Y1.0607 Z-0.2157
N6630 Y1.061 Z-0.212
N6635 G0 Z0.2
N6640 G1 X1.286 Y-0.0258 F300.
N6645 G0 Z-0.222
N6650 G1 Z-0.247 F18.
N6655 X1.2857 Y-0.0257 Z-0.2509
N6660 X1.2848 Y-0.0255 Z-0.2547
N6665 X1.2834 Y-0.0251 Z-0.2583
N6670 X1.2814 Y-0.0246 Z-0.2617
N6675 X1.2789 Y-0.024 Z-0.2647
N6680 X1.276 Y-0.0232 Z-0.2672
N6685 X1.2728 Y-0.0224 Z-0.2693
N6690 X1.2693 Y-0.0215 Z-0.2708
N6695 X1.2656 Y-0.0205 Z-0.2717
N6700 X1.2618 Y-0.0196 Z-0.272
N6705 G3 X1.1257 Y0. I-0.1584 J-0.6183
N6710 G1 X1.1244
N6715 X1.1073 Y-0.0061
N6720 X1.0899 Y-0.0114
N6725 G2 X1.0188 Y-0.0259 I-0.1495 J0.5501
N6730 X0.9105 Y-0.0359 I-0.1637 J1.1742
N6735 X0.8322 Y-0.0391 I-0.1369 J2.4618
N6740 G1 X0.8216 Y-0.0402
N6745 X0.8113 Y-0.0428
N6750 X0.8015 Y-0.0471
N6755 X0.7798 Y-0.0585
N6760 X0.7736 Y-0.0617
N6765 X0.765 Y-0.066
N6770 X0.7586 Y-0.0687
N6775 X0.7286 Y-0.0814
N6780 X0.7211 Y-0.0844
N6785 X0.7137 Y-0.0872
N6790 X0.71 Y-0.0885
N6795 X0.6762 Y-0.0994
N6800 X0.6687 Y-0.1017
N6805 X0.6612 Y-0.1037
N6810 X0.6537 Y-0.1055
N6815 X0.6237 Y-0.1124
N6820 X0.6162 Y-0.114
N6825 X0.6087 Y-0.1153
N6830 X0.6012 Y-0.1164
N6835 X0.5712 Y-0.1207
N6840 X0.5637 Y-0.1216
N6845 X0.5562 Y-0.1223
N6850 X0.5487 Y-0.1228
N6855 X0.5187 Y-0.1244
N6860 X0.5112 Y-0.1248
N6865 X0.5037
N6870 X0.4963 Y-0.1247
N6875 X0.4663 Y-0.1238
N6880 X0.4588 Y-0.1235
N6885 X0.4513 Y-0.123
N6890 X0.4438 Y-0.1225
N6895 X0.1364 Y-0.0995
N6900 G2 X0.0914 Y-0.0931 I0.0287 J0.3638
N6905 G1 X0.0839 Y-0.0914
N6910 G2 X0.0532 Y-0.081 I0.1257 J0.4226
N6915 X0.0234 Y-0.066 I0.0758 J0.1882
N6920 X-0.006 Y-0.0461 I0.086 J0.1588
N6925 G1 X-0.0181 Y-0.036
N6930 G2 X-0.036 Y-0.0181 I0.0985 J0.1164
N6935 G1 X-0.0461 Y-0.006
N6940 G2 X-0.066 Y0.0234 I0.1405 J0.1165
N6945 X-0.081 Y0.0532 I0.1805 J0.1096
N6950 X-0.0914 Y0.0839 I0.5408 J0.1997
N6955 X-0.097 Y0.1139 I0.3017 J0.0718
N6960 G1 X-0.0981 Y0.1214
N6965 X-0.0989 Y0.1289
N6970 X-0.0995 Y0.1364
N6975 X-0.1225 Y0.4438
N6980 X-0.123 Y0.4513
N6985 X-0.1235 Y0.4588
N6990 X-0.1238 Y0.4663
N6995 X-0.1247 Y0.4963
N7000 X-0.1248 Y0.5037
N7005 Y0.5112
N7010 X-0.1244 Y0.5187
N7015 X-0.1228 Y0.5487
N7020 X-0.1223 Y0.5562
N7025 X-0.1216 Y0.5637
N7030 X-0.1207 Y0.5712
N7035 X-0.1164 Y0.6012
N7040 X-0.1153 Y0.6087
N7045 X-0.114 Y0.6162
N7050 X-0.1124 Y0.6237
N7055 X-0.1055 Y0.6537
N7060 X-0.1037 Y0.6612
N7065 X-0.1017 Y0.6687
N7070 X-0.0994 Y0.6762
N7075 X-0.0885 Y0.71
N7080 X-0.0872 Y0.7137
N7085 X-0.0844 Y0.7211
N7090 X-0.0814 Y0.7286
N7095 X-0.0752 Y0.7457
N7100 X-0.0698 Y0.763
N7105 X-0.0653 Y0.7806
N7110 G3 X-0.0537 Y0.8522 I-0.6087 J0.1353
N7115 G1 X-0.0518 Y0.8703
N7120 X-0.0503 Y0.8883
N7125 X-0.0481 Y0.9064
N7130 X-0.0413 Y0.9232
N7135 X-0.0316 Y0.9385
N7140 X-0.0197 Y0.9522
N7145 X-0.0062 Y0.9644
N7150 X0.0084 Y0.9751
N7155 X0.024 Y0.9845
N7160 X0.0402 Y0.9927
N7165 X0.0569 Y0.9997
N7170 X0.0739 Y1.0059
N7175 X0.0913 Y1.0112
N7180 G2 X0.1489 Y1.0237 I0.1404 J-0.5075
N7185 G1 X0.1581 Y1.0258
N7190 X0.167 Y1.0292
N7195 X0.1754 Y1.0337
N7200 X0.1814 Y1.0376
N7205 X0.1889 Y1.042
N7210 G2 X0.235 Y1.066 I0.7897 J-1.4606
N7215 G1 X0.2414 Y1.0687
N7220 X0.2714 Y1.0814
N7225 X0.2789 Y1.0844
N7230 X0.2863 Y1.0872
N7235 X0.29 Y1.0885
N7240 X0.3238 Y1.0994
N7245 X0.3313 Y1.1017
N7250 X0.3388 Y1.1037
N7255 X0.3463 Y1.1055
N7260 X0.3763 Y1.1124
N7265 X0.3838 Y1.114
N7270 X0.3913 Y1.1153
N7275 X0.3988 Y1.1164
N7280 X0.4288 Y1.1207
N7285 X0.4363 Y1.1216
N7290 X0.4438 Y1.1223
N7295 X0.4513 Y1.1228
N7300 X0.4813 Y1.1244
N7305 X0.4888 Y1.1248
N7310 X0.4963
N7315 X0.5037 Y1.1247
N7320 X0.5337 Y1.1238
N7325 X0.5412 Y1.1235
N7330 X0.5487 Y1.123
N7335 X0.5562 Y1.1225
N7340 X0.8636 Y1.0995
N7345 G2 X0.9086 Y1.0931 I-0.0286 J-0.3633
N7350 G1 X0.9161 Y1.0914
N7355 G2 X0.9468 Y1.081 I-0.1257 J-0.4226
N7360 X0.9766 Y1.066 I-0.0758 J-0.1883
N7365 X1.006 Y1.0461 I-0.086 J-0.1587
N7370 G1 X1.0181 Y1.036
N7375 G2 X1.036 Y1.0181 I-0.0985 J-0.1164
N7380 G1 X1.0461 Y1.006
N7385 G2 X1.066 Y0.9766 I-0.1405 J-0.1164
N7390 X1.081 Y0.9468 I-0.1806 J-0.1096
N7395 X1.0914 Y0.9161 I-0.541 J-0.1997
N7400 X1.097 Y0.8861 I-0.3021 J-0.0719
N7405 G1 X1.0981 Y0.8786
N7410 X1.0989 Y0.8711
N7415 X1.0995 Y0.8636
N7420 X1.1225 Y0.5562
N7425 X1.123 Y0.5487
N7430 X1.1235 Y0.5412
N7435 X1.1238 Y0.5337
N7440 X1.1247 Y0.5037
N7445 X1.1248 Y0.4963
N7450 Y0.4888
N7455 X1.1244 Y0.4813
N7460 X1.1228 Y0.4513
N7465 X1.1223 Y0.4438
N7470 X1.1216 Y0.4363
N7475 X1.1207 Y0.4288
N7480 X1.1164 Y0.3988
N7485 X1.1153 Y0.3913
N7490 X1.114 Y0.3838
N7495 X1.1124 Y0.3763
N7500 X1.1055 Y0.3463
N7505 X1.1037 Y0.3388
N7510 X1.1017 Y0.3313
N7515 X1.0994 Y0.3238
N7520 X1.0885 Y0.29
N7525 X1.0872 Y0.2863
N7530 X1.0844 Y0.2789
N7535 X1.0814 Y0.2714
N7540 X1.0752 Y0.2543
N7545 X1.0698 Y0.237
N7550 X1.0653 Y0.2194
N7555 X1.0616 Y0.2016
N7560 X1.0574 Y0.184
N7565 X1.0499 Y0.1674
N7570 X1.0399 Y0.1523
N7575 X1.0281 Y0.1385
N7580 X1.0148 Y0.1262
N7585 X1.0003 Y0.1152
N7590 X0.9935 Y0.1109
N7595 X0.9875 Y0.1066
N7600 X0.982 Y0.1018
N7605 X0.977 Y0.0963
N7610 G3 X0.9817 Y0.0613 Z-0.264 I0.0199 J-0.0152
N7615 X1.0183 Y0.0683 I0.0152 J0.0198
N7620 G1 X1.1255 Y0.2481
N7625 G3 X1.1145 Y0.2836 I-0.0215 J0.0128
N7630 X1.0814 Y0.2714 Z-0.272 I-0.0105 J-0.0227
N7635 G1 X1.0687 Y0.2414
N7640 X1.066 Y0.2351
N7645 G2 X1.042 Y0.1889 I-1.3193 J0.6577
N7650 G1 X1.0376 Y0.1814
N7655 X1.0285 Y0.1672
N7660 X1.0184 Y0.1514
N7665 G2 X1.0025 Y0.1289 I-0.2272 J0.1441
N7670 G1 X0.9852 Y0.1064
N7675 G2 X0.9727 Y0.0914 I-0.2015 J0.1545
N7680 G1 X0.9521 Y0.0689
N7685 X0.946 Y0.0625
N7690 X0.9375 Y0.054
N7695 X0.9311 Y0.0479
N7700 X0.9086 Y0.0273
N7705 X0.9049 Y0.024
N7710 X0.9011 Y0.0208
N7715 X0.8957 Y0.0165
N7720 X0.8711 Y-0.0025
N7725 G2 X0.8445 Y-0.021 I-0.1906 J0.2452
N7730 G1 X0.8328 Y-0.0285
N7735 X0.8211 Y-0.036
N7740 G3 X0.8111 Y-0.0632 I0.0142 J-0.0206
N7745 G1 X0.8122 Y-0.067 Z-0.2717
N7750 X0.8132 Y-0.0707 Z-0.2708
N7755 X0.8141 Y-0.0742 Z-0.2693
N7760 X0.815 Y-0.0774 Z-0.2672
N7765 X0.8158 Y-0.0803 Z-0.2647
N7770 X0.8165 Y-0.0827 Z-0.2617
N7775 X0.817 Y-0.0847 Z-0.2583
N7780 X0.8174 Y-0.0862 Z-0.2547
N7785 X0.8177 Y-0.087 Z-0.2509
N7790 X0.8178 Y-0.0873 Z-0.247
N7795 G0 Z0.2
N7800 G1 X-0.121 Y0.6898 F300.
N7805 G0 Z-0.222
N7810 G1 Z-0.247 F18.
N7815 X-0.1208 Y0.69 Z-0.2509
N7820 X-0.12 Y0.6906 Z-0.2547
N7825 X-0.1188 Y0.6914 Z-0.2583
N7830 X-0.1172 Y0.6927 Z-0.2617
N7835 X-0.1151 Y0.6942 Z-0.2647
N7840 X-0.1127 Y0.696 Z-0.2672
N7845 X-0.11 Y0.6979 Z-0.2693
N7850 X-0.1071 Y0.7001 Z-0.2708
N7855 X-0.104 Y0.7024 Z-0.2717
N7860 X-0.1009 Y0.7047 Z-0.272
N7865 G3 X-0.0814 Y0.7286 I-0.037 J0.0501
N7870 G1 X-0.0687 Y0.7586
N7875 X-0.066 Y0.765
N7880 G2 X-0.042 Y0.8111 I1.3176 J-0.6569
N7885 G1 X-0.0376 Y0.8186
N7890 X-0.0285 Y0.8328
N7895 X-0.0184 Y0.8486
N7900 G2 X-0.0025 Y0.8711 I0.2273 J-0.1441
N7905 G1 X0.0165 Y0.8957
N7910 X0.0208 Y0.9011
N7915 X0.024 Y0.9049
N7920 X0.0273 Y0.9086
N7925 X0.0479 Y0.9311
N7930 X0.054 Y0.9375
N7935 X0.0625 Y0.946
N7940 X0.0689 Y0.9521
N7945 X0.0914 Y0.9727
N7950 X0.0951 Y0.976
N7955 X0.0989 Y0.9792
N7960 X0.1043 Y0.9835
N7965 X0.1289 Y1.0025
N7970 G2 X0.1555 Y1.021 I0.1906 J-0.2451
N7975 G1 X0.1672 Y1.0285
N7980 X0.1754 Y1.0337
N7985 X0.1777 Y1.0355
N7990 X0.1798 Y1.0376
N7995 X0.1814 Y1.0402 Z-0.2718
N8000 X0.1829 Y1.0427 Z-0.2713
N8005 X0.1844 Y1.0451 Z-0.2704
N8010 X0.1851 Y1.0482 Z-0.2689
N8015 X0.1856 Y1.0511 Z-0.267
N8020 X0.1862 Y1.0537 Z-0.2647
N8025 Y1.0543 Z-0.2641
N8030 X0.1859 Y1.0566 Z-0.2611
N8035 X0.1856 Y1.0585 Z-0.2579
N8040 X0.1854 Y1.0598 Z-0.2544
N8045 X0.1853 Y1.0607 Z-0.2507
N8050 Y1.061 Z-0.247
N8055 G0 Z0.2
N8060 G1 X1.286 Y-0.0258 F300.
N8065 G0 Z-0.257
N8070 G1 Z-0.282 F18.
N8075 X1.2857 Y-0.0257 Z-0.2859
N8080 X1.2848 Y-0.0255 Z-0.2897
N8085 X1.2834 Y-0.0251 Z-0.2933
N8090 X1.2814 Y-0.0246 Z-0.2967
N8095 X1.2789 Y-0.024 Z-0.2997
N8100 X1.276 Y-0.0232 Z-0.3022
N8105 X1.2728 Y-0.0224 Z-0.3043
N8110 X1.2693 Y-0.0215 Z-0.3058
N8115 X1.2656 Y-0.0205 Z-0.3067
N8120 X1.2618 Y-0.0196 Z-0.307
N8125 G3 X1.1257 Y0. I-0.1584 J-0.6183
N8130 G1 X1.1244
N8135 X1.1073 Y-0.0061
N8140 X1.0899 Y-0.0114
N8145 G2 X1.0188 Y-0.0259 I-0.1495 J0.5501
N8150 X0.9105 Y-0.0359 I-0.1637 J1.1742
N8155 X0.8322 Y-0.0391 I-0.1369 J2.4618
N8160 G1 X0.8216 Y-0.0402
N8165 X0.8113 Y-0.0428
N8170 X0.8015 Y-0.0471
N8175 X0.7798 Y-0.0585
N8180 X0.7736 Y-0.0617
N8185 X0.765 Y-0.066
N8190 X0.7586 Y-0.0687
N8195 X0.7286 Y-0.0814
N8200 X0.7211 Y-0.0844
N8205 X0.7137 Y-0.0872
N8210 X0.71 Y-0.0885
N8215 X0.6762 Y-0.0994
N8220 X0.6687 Y-0.1017
N8225 X0.6612 Y-0.1037
N8230 X0.6537 Y-0.1055
N8235 X0.6237 Y-0.1124
N8240 X0.6162 Y-0.114
N8245 X0.6087 Y-0.1153
N8250 X0.6012 Y-0.1164
N8255 X0.5712 Y-0.1207
N8260 X0.5637 Y-0.1216
N8265 X0.5562 Y-0.1223
N8270 X0.5487 Y-0.1228
N8275 X0.5187 Y-0.1244
N8280 X0.5112 Y-0.1248
N8285 X0.5037
N8290 X0.4963 Y-0.1247
N8295 X0.4663 Y-0.1238
N8300 X0.4588 Y-0.1235
N8305 X0.4513 Y-0.123
N8310 X0.4438 Y-0.1225
N8315 X0.1364 Y-0.0995
N8320 G2 X0.0914 Y-0.0931 I0.0287 J0.3638
N8325 G1 X0.0839 Y-0.0914
N8330 G2 X0.0532 Y-0.081 I0.1257 J0.4226
N8335 X0.0234 Y-0.066 I0.0758 J0.1882
N8340 X-0.006 Y-0.0461 I0.086 J0.1588
N8345 G1 X-0.0181 Y-0.036
N8350 G2 X-0.036 Y-0.0181 I0.0985 J0.1164
N8355 G1 X-0.0461 Y-0.006
N8360 G2 X-0.066 Y0.0234 I0.1405 J0.1165
N8365 X-0.081 Y0.0532 I0.1805 J0.1096
N8370 X-0.0914 Y0.0839 I0.5408 J0.1997
N8375 X-0.097 Y0.1139 I0.3017 J0.0718
N8380 G1 X-0.0981 Y0.1214
N8385 X-0.0989 Y0.1289
N8390 X-0.0995 Y0.1364
N8395 X-0.1225 Y0.4438
N8400 X-0.123 Y0.4513
N8405 X-0.1235 Y0.4588
N8410 X-0.1238 Y0.4663
N8415 X-0.1247 Y0.4963
N8420 X-0.1248 Y0.5037
N8425 Y0.5112
N8430 X-0.1244 Y0.5187
N8435 X-0.1228 Y0.5487
N8440 X-0.1223 Y0.5562
N8445 X-0.1216 Y0.5637
N8450 X-0.1207 Y0.5712
N8455 X-0.1164 Y0.6012
N8460 X-0.1153 Y0.6087
N8465 X-0.114 Y0.6162
N8470 X-0.1124 Y0.6237
N8475 X-0.1055 Y0.6537
N8480 X-0.1037 Y0.6612
N8485 X-0.1017 Y0.6687
N8490 X-0.0994 Y0.6762
N8495 X-0.0885 Y0.71
N8500 X-0.0872 Y0.7137
N8505 X-0.0844 Y0.7211
N8510 X-0.0814 Y0.7286
N8515 X-0.0752 Y0.7457
N8520 X-0.0698 Y0.763
N8525 X-0.0653 Y0.7806
N8530 G3 X-0.0537 Y0.8522 I-0.6087 J0.1353
N8535 G1 X-0.0518 Y0.8703
N8540 X-0.0503 Y0.8883
N8545 X-0.0481 Y0.9064
N8550 X-0.0413 Y0.9232
N8555 X-0.0316 Y0.9385
N8560 X-0.0197 Y0.9522
N8565 X-0.0062 Y0.9644
N8570 X0.0084 Y0.9751
N8575 X0.024 Y0.9845
N8580 X0.0402 Y0.9927
N8585 X0.0569 Y0.9997
N8590 X0.0739 Y1.0059
N8595 X0.0913 Y1.0112
N8600 G2 X0.1489 Y1.0237 I0.1404 J-0.5075
N8605 G1 X0.1581 Y1.0258
N8610 X0.167 Y1.0292
N8615 X0.1754 Y1.0337
N8620 X0.1814 Y1.0376
N8625 X0.1889 Y1.042
N8630 G2 X0.235 Y1.066 I0.7897 J-1.4606
N8635 G1 X0.2414 Y1.0687
N8640 X0.2714 Y1.0814
N8645 X0.2789 Y1.0844
N8650 X0.2863 Y1.0872
N8655 X0.29 Y1.0885
N8660 X0.3238 Y1.0994
N8665 X0.3313 Y1.1017
N8670 X0.3388 Y1.1037
N8675 X0.3463 Y1.1055
N8680 X0.3763 Y1.1124
N8685 X0.3838 Y1.114
N8690 X0.3913 Y1.1153
N8695 X0.3988 Y1.1164
N8700 X0.4288 Y1.1207
N8705 X0.4363 Y1.1216
N8710 X0.4438 Y1.1223
N8715 X0.4513 Y1.1228
N8720 X0.4813 Y1.1244
N8725 X0.4888 Y1.1248
N8730 X0.4963
N8735 X0.5037 Y1.1247
N8740 X0.5337 Y1.1238
N8745 X0.5412 Y1.1235
N8750 X0.5487 Y1.123
N8755 X0.5562 Y1.1225
N8760 X0.8636 Y1.0995
N8765 G2 X0.9086 Y1.0931 I-0.0286 J-0.3633
N8770 G1 X0.9161 Y1.0914
N8775 G2 X0.9468 Y1.081 I-0.1257 J-0.4226
N8780 X0.9766 Y1.066 I-0.0758 J-0.1883
N8785 X1.006 Y1.0461 I-0.086 J-0.1587
N8790 G1 X1.0181 Y1.036
N8795 G2 X1.036 Y1.0181 I-0.0985 J-0.1164
N8800 G1 X1.0461 Y1.006
N8805 G2 X1.066 Y0.9766 I-0.1405 J-0.1164
N8810 X1.081 Y0.9468 I-0.1806 J-0.1096
N8815 X1.0914 Y0.9161 I-0.541 J-0.1997
N8820 X1.097 Y0.8861 I-0.3021 J-0.0719
N8825 G1 X1.0981 Y0.8786
N8830 X1.0989 Y0.8711
N8835 X1.0995 Y0.8636
N8840 X1.1225 Y0.5562
N8845 X1.123 Y0.5487
N8850 X1.1235 Y0.5412
N8855 X1.1238 Y0.5337
N8860 X1.1247 Y0.5037
N8865 X1.1248 Y0.4963
N8870 Y0.4888
N8875 X1.1244 Y0.4813
N8880 X1.1228 Y0.4513
N8885 X1.1223 Y0.4438
N8890 X1.1216 Y0.4363
N8895 X1.1207 Y0.4288
N8900 X1.1164 Y0.3988
N8905 X1.1153 Y0.3913
N8910 X1.114 Y0.3838
N8915 X1.1124 Y0.3763
N8920 X1.1055 Y0.3463
N8925 X1.1037 Y0.3388
N8930 X1.1017 Y0.3313
N8935 X1.0994 Y0.3238
N8940 X1.0885 Y0.29
N8945 X1.0872 Y0.2863
N8950 X1.0844 Y0.2789
N8955 X1.0814 Y0.2714
N8960 X1.0752 Y0.2543
N8965 X1.0698 Y0.237
N8970 X1.0653 Y0.2194
N8975 X1.0616 Y0.2016
N8980 X1.0574 Y0.184
N8985 X1.0499 Y0.1674
N8990 X1.0399 Y0.1523
N8995 X1.0281 Y0.1385
N9000 X1.0148 Y0.1262
N9005 X1.0003 Y0.1152
N9010 X0.9935 Y0.1109
N9015 X0.9875 Y0.1066
N9020 X0.982 Y0.1018
N9025 X0.977 Y0.0963
N9030 G3 X0.9817 Y0.0613 Z-0.299 I0.0199 J-0.0152
N9035 X1.0183 Y0.0683 I0.0152 J0.0198
N9040 G1 X1.1255 Y0.2481
N9045 G3 X1.1145 Y0.2836 I-0.0215 J0.0128
N9050 X1.0814 Y0.2714 Z-0.307 I-0.0105 J-0.0227
N9055 G1 X1.0687 Y0.2414
N9060 X1.066 Y0.2351
N9065 G2 X1.042 Y0.1889 I-1.3193 J0.6577
N9070 G1 X1.0376 Y0.1814
N9075 X1.0285 Y0.1672
N9080 X1.0184 Y0.1514
N9085 G2 X1.0025 Y0.1289 I-0.2272 J0.1441
N9090 G1 X0.9852 Y0.1064
N9095 G2 X0.9727 Y0.0914 I-0.2015 J0.1545
N9100 G1 X0.9521 Y0.0689
N9105 X0.946 Y0.0625
N9110 X0.9375 Y0.054
N9115 X0.9311 Y0.0479
N9120 X0.9086 Y0.0273
N9125 X0.9049 Y0.024
N9130 X0.9011 Y0.0208
N9135 X0.8957 Y0.0165
N9140 X0.8711 Y-0.0025
N9145 G2 X0.8445 Y-0.021 I-0.1906 J0.2452
N9150 G1 X0.8328 Y-0.0285
N9155 X0.8211 Y-0.036
N9160 G3 X0.8111 Y-0.0632 I0.0142 J-0.0206
N9165 G1 X0.8122 Y-0.067 Z-0.3067
N9170 X0.8132 Y-0.0707 Z-0.3058
N9175 X0.8141 Y-0.0742 Z-0.3043
N9180 X0.815 Y-0.0774 Z-0.3022
N9185 X0.8158 Y-0.0803 Z-0.2997
N9190 X0.8165 Y-0.0827 Z-0.2967
N9195 X0.817 Y-0.0847 Z-0.2933
N9200 X0.8174 Y-0.0862 Z-0.2897
N9205 X0.8177 Y-0.087 Z-0.2859
N9210 X0.8178 Y-0.0873 Z-0.282
N9215 G0 Z0.2
N9220 G1 X-0.121 Y0.6898 F300.
N9225 G0 Z-0.257
N9230 G1 Z-0.282 F18.
N9235 X-0.1208 Y0.69 Z-0.2859
N9240 X-0.12 Y0.6906 Z-0.2897
N9245 X-0.1188 Y0.6914 Z-0.2933
N9250 X-0.1172 Y0.6927 Z-0.2967
N9255 X-0.1151 Y0.6942 Z-0.2997
N9260 X-0.1127 Y0.696 Z-0.3022
N9265 X-0.11 Y0.6979 Z-0.3043
N9270 X-0.1071 Y0.7001 Z-0.3058
N9275 X-0.104 Y0.7024 Z-0.3067
N9280 X-0.1009 Y0.7047 Z-0.307
N9285 G3 X-0.0814 Y0.7286 I-0.037 J0.0501
N9290 G1 X-0.0687 Y0.7586
N9295 X-0.066 Y0.765
N9300 G2 X-0.042 Y0.8111 I1.3176 J-0.6569
N9305 G1 X-0.0376 Y0.8186
N9310 X-0.0285 Y0.8328
N9315 X-0.0184 Y0.8486
N9320 G2 X-0.0025 Y0.8711 I0.2273 J-0.1441
N9325 G1 X0.0165 Y0.8957
N9330 X0.0208 Y0.9011
N9335 X0.024 Y0.9049
N9340 X0.0273 Y0.9086
N9345 X0.0479 Y0.9311
N9350 X0.054 Y0.9375
N9355 X0.0625 Y0.946
N9360 X0.0689 Y0.9521
N9365 X0.0914 Y0.9727
N9370 X0.0951 Y0.976
N9375 X0.0989 Y0.9792
N9380 X0.1043 Y0.9835
N9385 X0.1289 Y1.0025
N9390 G2 X0.1555 Y1.021 I0.1906 J-0.2451
N9395 G1 X0.1672 Y1.0285
N9400 X0.1754 Y1.0337
N9405 X0.1777 Y1.0355
N9410 X0.1798 Y1.0376
N9415 X0.1814 Y1.0402 Z-0.3068
N9420 X0.1829 Y1.0427 Z-0.3063
N9425 X0.1844 Y1.0451 Z-0.3054
N9430 X0.1851 Y1.0482 Z-0.3039
N9435 X0.1856 Y1.0511 Z-0.302
N9440 X0.1862 Y1.0537 Z-0.2997
N9445 Y1.0543 Z-0.2991
N9450 X0.1859 Y1.0566 Z-0.2961
N9455 X0.1856 Y1.0585 Z-0.2929
N9460 X0.1854 Y1.0598 Z-0.2894
N9465 X0.1853 Y1.0607 Z-0.2857
N9470 Y1.061 Z-0.282
N9475 G0 Z0.2
N9480 G1 X1.286 Y-0.0258 F300.
N9485 G0 Z-0.2895
N9490 G1 Z-0.3145 F18.
N9495 X1.2857 Y-0.0257 Z-0.3184
N9500 X1.2848 Y-0.0255 Z-0.3222
N9505 X1.2834 Y-0.0251 Z-0.3258
N9510 X1.2814 Y-0.0246 Z-0.3292
N9515 X1.2789 Y-0.024 Z-0.3322
N9520 X1.276 Y-0.0232 Z-0.3347
N9525 X1.2728 Y-0.0224 Z-0.3368
N9530 X1.2693 Y-0.0215 Z-0.3383
N9535 X1.2656 Y-0.0205 Z-0.3392
N9540 X1.2618 Y-0.0196 Z-0.3395
N9545 G3 X1.1257 Y0. I-0.1584 J-0.6183
N9550 G1 X1.1244
N9555 X1.1073 Y-0.0061
N9560 X1.0899 Y-0.0114
N9565 G2 X1.0188 Y-0.0259 I-0.1495 J0.5501
N9570 X0.9105 Y-0.0359 I-0.1637 J1.1742
N9575 X0.8322 Y-0.0391 I-0.1369 J2.4618
N9580 G1 X0.8216 Y-0.0402
N9585 X0.8113 Y-0.0428
N9590 X0.8015 Y-0.0471
N9595 X0.7798 Y-0.0585
N9600 X0.7736 Y-0.0617
N9605 X0.765 Y-0.066
N9610 X0.7586 Y-0.0687
N9615 X0.7286 Y-0.0814
N9620 X0.7211 Y-0.0844
N9625 X0.7137 Y-0.0872
N9630 X0.71 Y-0.0885
N9635 X0.6762 Y-0.0994
N9640 X0.6687 Y-0.1017
N9645 X0.6612 Y-0.1037
N9650 X0.6537 Y-0.1055
N9655 X0.6237 Y-0.1124
N9660 X0.6162 Y-0.114
N9665 X0.6087 Y-0.1153
N9670 X0.6012 Y-0.1164
N9675 X0.5712 Y-0.1207
N9680 X0.5637 Y-0.1216
N9685 X0.5562 Y-0.1223
N9690 X0.5487 Y-0.1228
N9695 X0.5187 Y-0.1244
N9700 X0.5112 Y-0.1248
N9705 X0.5037
N9710 X0.4963 Y-0.1247
N9715 X0.4663 Y-0.1238
N9720 X0.4588 Y-0.1235
N9725 X0.4513 Y-0.123
N9730 X0.4438 Y-0.1225
N9735 X0.1364 Y-0.0995
N9740 G2 X0.0914 Y-0.0931 I0.0287 J0.3638
N9745 G1 X0.0839 Y-0.0914
N9750 G2 X0.0532 Y-0.081 I0.1257 J0.4226
N9755 X0.0234 Y-0.066 I0.0758 J0.1882
N9760 X-0.006 Y-0.0461 I0.086 J0.1588
N9765 G1 X-0.0181 Y-0.036
N9770 G2 X-0.036 Y-0.0181 I0.0985 J0.1164
N9775 G1 X-0.0461 Y-0.006
N9780 G2 X-0.066 Y0.0234 I0.1405 J0.1165
N9785 X-0.081 Y0.0532 I0.1805 J0.1096
N9790 X-0.0914 Y0.0839 I0.5408 J0.1997
N9795 X-0.097 Y0.1139 I0.3017 J0.0718
N9800 G1 X-0.0981 Y0.1214
N9805 X-0.0989 Y0.1289
N9810 X-0.0995 Y0.1364
N9815 X-0.1225 Y0.4438
N9820 X-0.123 Y0.4513
N9825 X-0.1235 Y0.4588
N9830 X-0.1238 Y0.4663
N9835 X-0.1247 Y0.4963
N9840 X-0.1248 Y0.5037
N9845 Y0.5112
N9850 X-0.1244 Y0.5187
N9855 X-0.1228 Y0.5487
N9860 X-0.1223 Y0.5562
N9865 X-0.1216 Y0.5637
N9870 X-0.1207 Y0.5712
N9875 X-0.1164 Y0.6012
N9880 X-0.1153 Y0.6087
N9885 X-0.114 Y0.6162
N9890 X-0.1124 Y0.6237
N9895 X-0.1055 Y0.6537
N9900 X-0.1037 Y0.6612
N9905 X-0.1017 Y0.6687
N9910 X-0.0994 Y0.6762
N9915 X-0.0885 Y0.71
N9920 X-0.0872 Y0.7137
N9925 X-0.0844 Y0.7211
N9930 X-0.0814 Y0.7286
N9935 X-0.0752 Y0.7457
N9940 X-0.0698 Y0.763
N9945 X-0.0653 Y0.7806
N9950 G3 X-0.0537 Y0.8522 I-0.6087 J0.1353
N9955 G1 X-0.0518 Y0.8703
N9960 X-0.0503 Y0.8883
N9965 X-0.0481 Y0.9064
N9970 X-0.0413 Y0.9232
N9975 X-0.0316 Y0.9385
N9980 X-0.0197 Y0.9522
N9985 X-0.0062 Y0.9644
N9990 X0.0084 Y0.9751
N9995 X0.024 Y0.9845
N10000 X0.0402 Y0.9927
N10005 X0.0569 Y0.9997
N10010 X0.0739 Y1.0059
N10015 X0.0913 Y1.0112
N10020 G2 X0.1489 Y1.0237 I0.1404 J-0.5075
N10025 G1 X0.1581 Y1.0258
N10030 X0.167 Y1.0292
N10035 X0.1754 Y1.0337
N10040 X0.1814 Y1.0376
N10045 X0.1889 Y1.042
N10050 G2 X0.235 Y1.066 I0.7897 J-1.4606
N10055 G1 X0.2414 Y1.0687
N10060 X0.2714 Y1.0814
N10065 X0.2789 Y1.0844
N10070 X0.2863 Y1.0872
N10075 X0.29 Y1.0885
N10080 X0.3238 Y1.0994
N10085 X0.3313 Y1.1017
N10090 X0.3388 Y1.1037
N10095 X0.3463 Y1.1055
N10100 X0.3763 Y1.1124
N10105 X0.3838 Y1.114
N10110 X0.3913 Y1.1153
N10115 X0.3988 Y1.1164
N10120 X0.4288 Y1.1207
N10125 X0.4363 Y1.1216
N10130 X0.4438 Y1.1223
N10135 X0.4513 Y1.1228
N10140 X0.4813 Y1.1244
N10145 X0.4888 Y1.1248
N10150 X0.4963
N10155 X0.5037 Y1.1247
N10160 X0.5337 Y1.1238
N10165 X0.5412 Y1.1235
N10170 X0.5487 Y1.123
N10175 X0.5562 Y1.1225
N10180 X0.8636 Y1.0995
N10185 G2 X0.9086 Y1.0931 I-0.0286 J-0.3633
N10190 G1 X0.9161 Y1.0914
N10195 G2 X0.9468 Y1.081 I-0.1257 J-0.4226
N10200 X0.9766 Y1.066 I-0.0758 J-0.1883
N10205 X1.006 Y1.0461 I-0.086 J-0.1587
N10210 G1 X1.0181 Y1.036
N10215 G2 X1.036 Y1.0181 I-0.0985 J-0.1164
N10220 G1 X1.0461 Y1.006
N10225 G2 X1.066 Y0.9766 I-0.1405 J-0.1164
N10230 X1.081 Y0.9468 I-0.1806 J-0.1096
N10235 X1.0914 Y0.9161 I-0.541 J-0.1997
N10240 X1.097 Y0.8861 I-0.3021 J-0.0719
N10245 G1 X1.0981 Y0.8786
N10250 X1.0989 Y0.8711
N10255 X1.0995 Y0.8636
N10260 X1.1225 Y0.5562
N10265 X1.123 Y0.5487
N10270 X1.1235 Y0.5412
N10275 X1.1238 Y0.5337
N10280 X1.1247 Y0.5037
N10285 X1.1248 Y0.4963
N10290 Y0.4888
N10295 X1.1244 Y0.4813
N10300 X1.1228 Y0.4513
N10305 X1.1223 Y0.4438
N10310 X1.1216 Y0.4363
N10315 X1.1207 Y0.4288
N10320 X1.1164 Y0.3988
N10325 X1.1153 Y0.3913
N10330 X1.114 Y0.3838
N10335 X1.1124 Y0.3763
N10340 X1.1055 Y0.3463
N10345 X1.1037 Y0.3388
N10350 X1.1017 Y0.3313
N10355 X1.0994 Y0.3238
N10360 X1.0885 Y0.29
N10365 X1.0872 Y0.2863
N10370 X1.0844 Y0.2789
N10375 X1.0814 Y0.2714
N10380 X1.0752 Y0.2543
N10385 X1.0698 Y0.237
N10390 X1.0653 Y0.2194
N10395 X1.0616 Y0.2016
N10400 X1.0574 Y0.184
N10405 X1.0499 Y0.1674
N10410 X1.0399 Y0.1523
N10415 X1.0281 Y0.1385
N10420 X1.0148 Y0.1262
N10425 X1.0003 Y0.1152
N10430 X0.9935 Y0.1109
N10435 X0.9875 Y0.1066
N10440 X0.982 Y0.1018
N10445 X0.977 Y0.0963
N10450 G3 X0.9817 Y0.0613 Z-0.3315 I0.0199 J-0.0152
N10455 X1.0183 Y0.0683 I0.0152 J0.0198
N10460 G1 X1.1255 Y0.2481
N10465 G3 X1.1145 Y0.2836 I-0.0215 J0.0128
N10470 X1.0814 Y0.2714 Z-0.3395 I-0.0105 J-0.0227
N10475 G1 X1.0687 Y0.2414
N10480 X1.066 Y0.2351
N10485 G2 X1.042 Y0.1889 I-1.3193 J0.6577
N10490 G1 X1.0376 Y0.1814
N10495 X1.0285 Y0.1672
N10500 X1.0184 Y0.1514
N10505 G2 X1.0025 Y0.1289 I-0.2272 J0.1441
N10510 G1 X0.9852 Y0.1064
N10515 G2 X0.9727 Y0.0914 I-0.2015 J0.1545
N10520 G1 X0.9521 Y0.0689
N10525 X0.946 Y0.0625
N10530 X0.9375 Y0.054
N10535 X0.9311 Y0.0479
N10540 X0.9086 Y0.0273
N10545 X0.9049 Y0.024
N10550 X0.9011 Y0.0208
N10555 X0.8957 Y0.0165
N10560 X0.8711 Y-0.0025
N10565 G2 X0.8445 Y-0.021 I-0.1906 J0.2452
N10570 G1 X0.8328 Y-0.0285
N10575 X0.8211 Y-0.036
N10580 G3 X0.8111 Y-0.0632 I0.0142 J-0.0206
N10585 G1 X0.8122 Y-0.067 Z-0.3392
N10590 X0.8132 Y-0.0707 Z-0.3383
N10595 X0.8141 Y-0.0742 Z-0.3368
N10600 X0.815 Y-0.0774 Z-0.3347
N10605 X0.8158 Y-0.0803 Z-0.3322
N10610 X0.8165 Y-0.0827 Z-0.3292
N10615 X0.817 Y-0.0847 Z-0.3258
N10620 X0.8174 Y-0.0862 Z-0.3222
N10625 X0.8177 Y-0.087 Z-0.3184
N10630 X0.8178 Y-0.0873 Z-0.3145
N10635 G0 Z0.2
N10640 G1 X-0.121 Y0.6898 F300.
N10645 G0 Z-0.2895
N10650 G1 Z-0.3145 F18.
N10655 X-0.1208 Y0.69 Z-0.3184
N10660 X-0.12 Y0.6906 Z-0.3222
N10665 X-0.1188 Y0.6914 Z-0.3258
N10670 X-0.1172 Y0.6927 Z-0.3292
N10675 X-0.1151 Y0.6942 Z-0.3322
N10680 X-0.1127 Y0.696 Z-0.3347
N10685 X-0.11 Y0.6979 Z-0.3368
N10690 X-0.1071 Y0.7001 Z-0.3383
N10695 X-0.104 Y0.7024 Z-0.3392
N10700 X-0.1009 Y0.7047 Z-0.3395
N10705 G3 X-0.0814 Y0.7286 I-0.037 J0.0501
N10710 G1 X-0.0687 Y0.7586
N10715 X-0.066 Y0.765
N10720 G2 X-0.042 Y0.8111 I1.3176 J-0.6569
N10725 G1 X-0.0376 Y0.8186
N10730 X-0.0285 Y0.8328
N10735 X-0.0184 Y0.8486
N10740 G2 X-0.0025 Y0.8711 I0.2273 J-0.1441
N10745 G1 X0.0165 Y0.8957
N10750 X0.0208 Y0.9011
N10755 X0.024 Y0.9049
N10760 X0.0273 Y0.9086
N10765 X0.0479 Y0.9311
N10770 X0.054 Y0.9375
N10775 X0.0625 Y0.946
N10780 X0.0689 Y0.9521
N10785 X0.0914 Y0.9727
N10790 X0.0951 Y0.976
N10795 X0.0989 Y0.9792
N10800 X0.1043 Y0.9835
N10805 X0.1289 Y1.0025
N10810 G2 X0.1555 Y1.021 I0.1906 J-0.2451
N10815 G1 X0.1672 Y1.0285
N10820 X0.1754 Y1.0337
N10825 G3 X0.1853 Y1.061 I-0.0142 J0.0206
N10830 G1 X0.1842 Y1.0647 Z-0.3392
N10835 X0.1832 Y1.0684 Z-0.3383
N10840 X0.1823 Y1.0719 Z-0.3368
N10845 X0.1814 Y1.0751 Z-0.3347
N10850 X0.1806 Y1.078 Z-0.3322
N10855 X0.1799 Y1.0805 Z-0.3292
N10860 X0.1794 Y1.0824 Z-0.3258
N10865 X0.179 Y1.0839 Z-0.3222
N10870 X0.1787 Y1.0848 Z-0.3184
N10875 X0.1786 Y1.0851 Z-0.3145
N10880 G0 Z0.6

N10885 M5
N10890 M9
N10895 G53 G0 Z0.
N10900 G53 G0 X0. Y0.
N10905 M30

%
