%
O01008
(Using high feed G1 F300. instead of G0.)
(T9 D=0.25 CR=0. - ZMIN=-0.64 - flat end mill)
N10 G90 G94 G17
N15 G20
N20 G53 G0 Z0.

(2D Adaptive3)
N25 T9 M6
N30 S4000 M3
N35 G17 G90 G94
N40 G55
N45 M8
N50 G1 X0. Y0. F300.
N55 G0 G43 Z0.6 H9
N60 G0 Z0.125
N65 G1 Z0.1 F18.
N70 Z-0.04 F3.
N75 X-0.0002 Y-0.0015 F18.
N80 X0.001 Y-0.0025
N85 X0.0024 Y-0.0021
N90 X0.0034 Y-0.001
N95 X0.0038 Y0.0005
N100 X0.0035 Y0.002
N105 X0.0027 Y0.0032
N110 X0.0015 Y0.0041
N115 X0. Y0.0045
N120 X-0.0014 Y0.0043
N125 X-0.0028 Y0.0037
N130 X-0.0039 Y0.0027
N135 X-0.0053 Y0.
N140 X-0.0052 Y-0.003
N145 X-0.0039 Y-0.0057
N150 X-0.0015 Y-0.0075
N155 X0.0014 Y-0.0082
N160 X0.0044 Y-0.0078
N165 X0.0071 Y-0.0065
N170 X0.0092 Y-0.0043
N175 X0.0105 Y-0.0016
N180 X0.0109 Y0.0014
N185 X0.0106 Y0.0043
N190 X0.0094 Y0.0071
N195 X0.0057 Y0.0118
N200 X0.0002 Y0.0141
N205 X-0.0058 Y0.0138
N210 X-0.0112 Y0.0111
N215 X-0.0152 Y0.0067
N220 X-0.0175 Y0.0011
N225 X-0.0178 Y-0.0049
N230 X-0.0162 Y-0.0106
N235 X-0.0129 Y-0.0157
N240 X-0.0084 Y-0.0195
N245 X-0.0029 Y-0.022
N250 X0.0031 Y-0.0228
N255 X0.009 Y-0.0221
N260 X0.0146 Y-0.0199
N265 X0.0195 Y-0.0164
N270 X0.0234 Y-0.0118
N275 X0.0261 Y-0.0065
N280 X0.0276 Y-0.0007
N285 X0.0279 Y0.0053
N290 X0.0268 Y0.0112
N295 X0.0247 Y0.0168
N300 X0.0214 Y0.0219
N305 X0.0172 Y0.0262
N310 X0.0123 Y0.0296
N315 X0.0068 Y0.032
N320 X0.001 Y0.0334
N325 X-0.005 Y0.0337
N330 X-0.011 Y0.033
N335 X-0.0167 Y0.0312
N340 X-0.0221 Y0.0285
N345 X-0.0269 Y0.025
N350 X-0.0312 Y0.0207
N355 X-0.0346 Y0.0158
N360 X-0.0373 Y0.0105
N365 X-0.0392 Y0.0048
N370 X-0.0401 Y-0.0012
N375 X-0.0402 Y-0.0072
N380 X-0.0394 Y-0.0131
N385 X-0.0377 Y-0.0189
N390 X-0.0353 Y-0.0243
N395 X-0.0321 Y-0.0294
N400 X-0.0282 Y-0.034
N405 X-0.0238 Y-0.0381
N410 X-0.0188 Y-0.0415
N415 G3 X0.004 Y-0.0479 I0.0237 J0.0402
N420 X0.0324 Y-0.0396 I0.0009 J0.0492
N425 X0.0549 Y-0.0054 I-0.0296 J0.0441
N430 X0.0443 Y0.04 I-0.056 J0.0108
N435 X-0.0019 Y0.0644 I-0.0493 J-0.0372
N440 X-0.0555 Y0.0421 I-0.0036 J-0.0667
N445 X-0.0728 Y-0.0192 I0.0537 J-0.0483
N450 X-0.026 Y-0.0776 I0.0768 J0.0137
N455 X0.0491 Y-0.073 I0.033 J0.0774
N460 X0.0944 Y-0.0036 I-0.0449 J0.0788
N465 X0.0678 Y0.0744 I-0.0962 J0.0108
N470 X-0.0141 Y0.1061 I-0.0746 J-0.0712
N475 X-0.0958 Y0.061 I0.0071 J-0.1095
N480 X-0.1165 Y-0.0283 I0.0936 J-0.0687
N485 X-0.0771 Y-0.0988 I0.1199 J0.0208
N490 X0.0096 Y-0.131 I0.0847 J0.0953
N495 X0.0926 Y-0.1008 I-0.0015 J0.1334
N500 X0.1407 Y-0.0224 I-0.0878 J0.1078
N505 X0.1332 Y0.0635 I-0.1409 J0.0309
N510 X0.0763 Y0.1322 I-0.1383 J-0.0566
N515 X-0.0021 Y0.1572 I-0.0844 J-0.1293
N520 X-0.0749 Y0.1428 I-0.0065 J-0.1588
N525 G1 X-0.0846 Y0.138
N530 X-0.0941 Y0.1325
N535 G3 X-0.1475 Y0.0775 I0.088 J-0.1391
N540 X-0.1678 Y0.025 I0.1443 J-0.086
N545 X-0.1697 Y-0.0321 I0.1675 J-0.0342
N550 X-0.1574 Y-0.0771 I0.1722 J0.0233
N555 G1 X-0.1524 Y-0.0877
N560 X-0.1467 Y-0.0981
N565 X-0.1403 Y-0.1081
N570 X-0.1332 Y-0.1176
N575 X-0.1255 Y-0.1267
N580 X-0.1171 Y-0.1353
N585 X-0.1082 Y-0.1433
N590 X-0.0987 Y-0.1507
N595 X-0.0887 Y-0.1575
N600 X-0.0782 Y-0.1637
N605 X-0.0673 Y-0.1691
N610 X-0.056 Y-0.1738
N615 X-0.0444 Y-0.1778
N620 X-0.0325 Y-0.181
N625 X-0.0204 Y-0.1833
N630 X-0.0081 Y-0.1849
N635 X0.0043 Y-0.1856
N640 X0.0168
N645 X0.0293 Y-0.1846
N650 X0.0417 Y-0.1828
N655 X0.0541 Y-0.1802
N660 X0.0663 Y-0.1768
N665 X0.0782 Y-0.1725
N670 X0.0899 Y-0.1674
N675 X0.1012 Y-0.1616
N680 X0.1122 Y-0.1549
N685 X0.1227 Y-0.1475
N690 X0.1328 Y-0.1394
N695 X0.1423 Y-0.1306
N700 X0.1512 Y-0.1212
N705 X0.1577 Y-0.1133
N710 X0.1595 Y-0.111
N715 Y-0.1109
N720 X0.1681 Y-0.0991
N725 X0.1706 Y-0.0945
N730 X0.1845 Y-0.0632
N735 X0.1851 Y-0.0616
N740 X0.1872 Y-0.0534
N745 X0.1927 Y-0.0278
N750 X0.1941 Y-0.0205
N755 X0.1942 Y-0.0123
N760 Y0.0123
N765 X0.1941 Y0.0205
N770 X0.1925 Y0.0288
N775 X0.1872 Y0.0534
N780 X0.1851 Y0.0616
N785 X0.1845 Y0.0632
N790 X0.1706 Y0.0945
N795 X0.1681 Y0.0991
N800 X0.1476 Y0.1273
N805 X0.1457 Y0.1298
N810 X0.1435 Y0.1322
N815 X0.1189 Y0.1543
N820 X0.1149 Y0.1577
N825 X0.1107 Y0.1604
N830 X0.0826 Y0.1766
N835 X0.0779 Y0.1789
N840 X0.0533 Y0.1869
N845 X0.0451 Y0.1896
N850 X0.041 Y0.1908
N855 X0.0369 Y0.1914
N860 X0.0041 Y0.1949
N865 X0. Y0.1952
N870 X-0.0041 Y0.1949
N875 X-0.0369 Y0.1914
N880 X-0.041 Y0.1908
N885 X-0.0451 Y0.1896
N890 X-0.0697 Y0.1816
N895 X-0.0779 Y0.1789
N900 X-0.0826 Y0.1766
N905 X-0.111 Y0.1602
N910 X-0.1149 Y0.1577
N915 X-0.1189 Y0.1543
N920 X-0.1435 Y0.1322
N925 X-0.1457 Y0.1298
N930 X-0.1476 Y0.1273
N935 X-0.1681 Y0.0991
N940 X-0.1706 Y0.0945
N945 X-0.1845 Y0.0632
N950 X-0.1851 Y0.0616
N955 X-0.1872 Y0.0534
N960 X-0.1927 Y0.0278
N965 X-0.1941 Y0.0205
N970 X-0.1942 Y0.0123
N975 Y-0.0123
N980 X-0.1941 Y-0.0205
N985 X-0.1925 Y-0.0288
N990 X-0.1872 Y-0.0534
N995 X-0.1851 Y-0.0616
N1000 X-0.1845 Y-0.0632
N1005 X-0.1706 Y-0.0945
N1010 X-0.1681 Y-0.0991
N1015 X-0.1476 Y-0.1273
N1020 X-0.1457 Y-0.1298
N1025 X-0.1435 Y-0.1322
N1030 X-0.1189 Y-0.1543
N1035 X-0.1149 Y-0.1577
N1040 X-0.1107 Y-0.1604
N1045 X-0.0826 Y-0.1766
N1050 X-0.0779 Y-0.1789
N1055 X-0.0533 Y-0.1869
N1060 X-0.0451 Y-0.1896
N1065 X-0.041 Y-0.1908
N1070 X-0.0369 Y-0.1914
N1075 X-0.0041 Y-0.1949
N1080 X0. Y-0.1952
N1085 X0.0041 Y-0.1949
N1090 X0.0369 Y-0.1914
N1095 X0.041 Y-0.1908
N1100 X0.0451 Y-0.1896
N1105 X0.0697 Y-0.1816
N1110 X0.0779 Y-0.1789
N1115 X0.0826 Y-0.1766
N1120 X0.111 Y-0.1602
N1125 X0.1149 Y-0.1577
N1130 X0.1189 Y-0.1543
N1135 X0.1435 Y-0.1322
N1140 X0.1457 Y-0.1298
N1145 X0.1476 Y-0.1273
N1150 X0.1595 Y-0.111
N1155 X0.161 Y-0.1084
N1160 X0.1622 Y-0.1057
N1165 X0.1627 Y-0.1028 Z-0.0398
N1170 X0.1632 Y-0.0999 Z-0.0393
N1175 X0.1637 Y-0.0971 Z-0.0384
N1180 Y-0.097
N1185 X0.1632 Y-0.0938 Z-0.0369
N1190 X0.1627 Y-0.0909 Z-0.0349
N1195 X0.1622 Y-0.0883 Z-0.0326
N1200 X0.161 Y-0.0861 Z-0.0296
N1205 X0.16 Y-0.0844 Z-0.0263
N1210 X0.1593 Y-0.0831 Z-0.0227
N1215 X0.1589 Y-0.0823 Z-0.0189
N1220 X0.1587 Y-0.082 Z-0.015
N1225 G0 Z0.2
N1230 G1 X0. Y0. F300.
N1235 G0 Z0.085
N1240 G1 Z0.06 F18.
N1245 Z-0.08 F3.
N1250 X-0.0002 Y-0.0015 F18.
N1255 X0.001 Y-0.0025
N1260 X0.0024 Y-0.0021
N1265 X0.0034 Y-0.001
N1270 X0.0038 Y0.0005
N1275 X0.0035 Y0.002
N1280 X0.0027 Y0.0032
N1285 X0.0015 Y0.0041
N1290 X0. Y0.0045
N1295 X-0.0014 Y0.0043
N1300 X-0.0028 Y0.0037
N1305 X-0.0039 Y0.0027
N1310 X-0.0053 Y0.
N1315 X-0.0052 Y-0.003
N1320 X-0.0039 Y-0.0057
N1325 X-0.0015 Y-0.0075
N1330 X0.0014 Y-0.0082
N1335 X0.0044 Y-0.0078
N1340 X0.0071 Y-0.0065
N1345 X0.0092 Y-0.0043
N1350 X0.0105 Y-0.0016
N1355 X0.0109 Y0.0014
N1360 X0.0106 Y0.0043
N1365 X0.0094 Y0.0071
N1370 X0.0057 Y0.0118
N1375 X0.0002 Y0.0141
N1380 X-0.0058 Y0.0138
N1385 X-0.0112 Y0.0111
N1390 X-0.0152 Y0.0067
N1395 X-0.0175 Y0.0011
N1400 X-0.0178 Y-0.0049
N1405 X-0.0162 Y-0.0106
N1410 X-0.0129 Y-0.0157
N1415 X-0.0084 Y-0.0195
N1420 X-0.0029 Y-0.022
N1425 X0.0031 Y-0.0228
N1430 X0.009 Y-0.0221
N1435 X0.0146 Y-0.0199
N1440 X0.0195 Y-0.0164
N1445 X0.0234 Y-0.0118
N1450 X0.0261 Y-0.0065
N1455 X0.0276 Y-0.0007
N1460 X0.0279 Y0.0053
N1465 X0.0268 Y0.0112
N1470 X0.0247 Y0.0168
N1475 X0.0214 Y0.0219
N1480 X0.0172 Y0.0262
N1485 X0.0123 Y0.0296
N1490 X0.0068 Y0.032
N1495 X0.001 Y0.0334
N1500 X-0.005 Y0.0337
N1505 X-0.011 Y0.033
N1510 X-0.0167 Y0.0312
N1515 X-0.0221 Y0.0285
N1520 X-0.0269 Y0.025
N1525 X-0.0312 Y0.0207
N1530 X-0.0346 Y0.0158
N1535 X-0.0373 Y0.0105
N1540 X-0.0392 Y0.0048
N1545 X-0.0401 Y-0.0012
N1550 X-0.0402 Y-0.0072
N1555 X-0.0394 Y-0.0131
N1560 X-0.0377 Y-0.0189
N1565 X-0.0353 Y-0.0243
N1570 X-0.0321 Y-0.0294
N1575 X-0.0282 Y-0.034
N1580 X-0.0238 Y-0.0381
N1585 X-0.0188 Y-0.0415
N1590 G3 X0.004 Y-0.0479 I0.0237 J0.0402
N1595 X0.0324 Y-0.0396 I0.0009 J0.0492
N1600 X0.0549 Y-0.0054 I-0.0296 J0.0441
N1605 X0.0443 Y0.04 I-0.056 J0.0108
N1610 X-0.0019 Y0.0644 I-0.0493 J-0.0372
N1615 X-0.0555 Y0.0421 I-0.0036 J-0.0667
N1620 X-0.0728 Y-0.0192 I0.0537 J-0.0483
N1625 X-0.026 Y-0.0776 I0.0768 J0.0137
N1630 X0.0491 Y-0.073 I0.033 J0.0774
N1635 X0.0944 Y-0.0036 I-0.0449 J0.0788
N1640 X0.0678 Y0.0744 I-0.0962 J0.0108
N1645 X-0.0141 Y0.1061 I-0.0746 J-0.0712
N1650 X-0.0958 Y0.061 I0.0071 J-0.1095
N1655 X-0.1165 Y-0.0283 I0.0936 J-0.0687
N1660 X-0.0771 Y-0.0988 I0.1199 J0.0208
N1665 X0.0096 Y-0.131 I0.0847 J0.0953
N1670 X0.0926 Y-0.1008 I-0.0015 J0.1334
N1675 X0.1407 Y-0.0224 I-0.0878 J0.1078
N1680 X0.1332 Y0.0635 I-0.1409 J0.0309
N1685 X0.0763 Y0.1322 I-0.1383 J-0.0566
N1690 X-0.0021 Y0.1572 I-0.0844 J-0.1293
N1695 X-0.0749 Y0.1428 I-0.0065 J-0.1588
N1700 G1 X-0.0846 Y0.138
N1705 X-0.0941 Y0.1325
N1710 G3 X-0.1475 Y0.0775 I0.088 J-0.1391
N1715 X-0.1678 Y0.025 I0.1443 J-0.086
N1720 X-0.1697 Y-0.0321 I0.1675 J-0.0342
N1725 X-0.1574 Y-0.0771 I0.1722 J0.0233
N1730 G1 X-0.1524 Y-0.0877
N1735 X-0.1467 Y-0.0981
N1740 X-0.1403 Y-0.1081
N1745 X-0.1332 Y-0.1176
N1750 X-0.1255 Y-0.1267
N1755 X-0.1171 Y-0.1353
N1760 X-0.1082 Y-0.1433
N1765 X-0.0987 Y-0.1507
N1770 X-0.0887 Y-0.1575
N1775 X-0.0782 Y-0.1637
N1780 X-0.0673 Y-0.1691
N1785 X-0.056 Y-0.1738
N1790 X-0.0444 Y-0.1778
N1795 X-0.0325 Y-0.181
N1800 X-0.0204 Y-0.1833
N1805 X-0.0081 Y-0.1849
N1810 X0.0043 Y-0.1856
N1815 X0.0168
N1820 X0.0293 Y-0.1846
N1825 X0.0417 Y-0.1828
N1830 X0.0541 Y-0.1802
N1835 X0.0663 Y-0.1768
N1840 X0.0782 Y-0.1725
N1845 X0.0899 Y-0.1674
N1850 X0.1012 Y-0.1616
N1855 X0.1122 Y-0.1549
N1860 X0.1227 Y-0.1475
N1865 X0.1328 Y-0.1394
N1870 X0.1423 Y-0.1306
N1875 X0.1512 Y-0.1212
N1880 X0.1577 Y-0.1133
N1885 X0.1595 Y-0.111
N1890 Y-0.1109
N1895 X0.1681 Y-0.0991
N1900 X0.1706 Y-0.0945
N1905 X0.1845 Y-0.0632
N1910 X0.1851 Y-0.0616
N1915 X0.1872 Y-0.0534
N1920 X0.1927 Y-0.0278
N1925 X0.1941 Y-0.0205
N1930 X0.1942 Y-0.0123
N1935 Y0.0123
N1940 X0.1941 Y0.0205
N1945 X0.1925 Y0.0288
N1950 X0.1872 Y0.0534
N1955 X0.1851 Y0.0616
N1960 X0.1845 Y0.0632
N1965 X0.1706 Y0.0945
N1970 X0.1681 Y0.0991
N1975 X0.1476 Y0.1273
N1980 X0.1457 Y0.1298
N1985 X0.1435 Y0.1322
N1990 X0.1189 Y0.1543
N1995 X0.1149 Y0.1577
N2000 X0.1107 Y0.1604
N2005 X0.0826 Y0.1766
N2010 X0.0779 Y0.1789
N2015 X0.0533 Y0.1869
N2020 X0.0451 Y0.1896
N2025 X0.041 Y0.1908
N2030 X0.0369 Y0.1914
N2035 X0.0041 Y0.1949
N2040 X0. Y0.1952
N2045 X-0.0041 Y0.1949
N2050 X-0.0369 Y0.1914
N2055 X-0.041 Y0.1908
N2060 X-0.0451 Y0.1896
N2065 X-0.0697 Y0.1816
N2070 X-0.0779 Y0.1789
N2075 X-0.0826 Y0.1766
N2080 X-0.111 Y0.1602
N2085 X-0.1149 Y0.1577
N2090 X-0.1189 Y0.1543
N2095 X-0.1435 Y0.1322
N2100 X-0.1457 Y0.1298
N2105 X-0.1476 Y0.1273
N2110 X-0.1681 Y0.0991
N2115 X-0.1706 Y0.0945
N2120 X-0.1845 Y0.0632
N2125 X-0.1851 Y0.0616
N2130 X-0.1872 Y0.0534
N2135 X-0.1927 Y0.0278
N2140 X-0.1941 Y0.0205
N2145 X-0.1942 Y0.0123
N2150 Y-0.0123
N2155 X-0.1941 Y-0.0205
N2160 X-0.1925 Y-0.0288
N2165 X-0.1872 Y-0.0534
N2170 X-0.1851 Y-0.0616
N2175 X-0.1845 Y-0.0632
N2180 X-0.1706 Y-0.0945
N2185 X-0.1681 Y-0.0991
N2190 X-0.1476 Y-0.1273
N2195 X-0.1457 Y-0.1298
N2200 X-0.1435 Y-0.1322
N2205 X-0.1189 Y-0.1543
N2210 X-0.1149 Y-0.1577
N2215 X-0.1107 Y-0.1604
N2220 X-0.0826 Y-0.1766
N2225 X-0.0779 Y-0.1789
N2230 X-0.0533 Y-0.1869
N2235 X-0.0451 Y-0.1896
N2240 X-0.041 Y-0.1908
N2245 X-0.0369 Y-0.1914
N2250 X-0.0041 Y-0.1949
N2255 X0. Y-0.1952
N2260 X0.0041 Y-0.1949
N2265 X0.0369 Y-0.1914
N2270 X0.041 Y-0.1908
N2275 X0.0451 Y-0.1896
N2280 X0.0697 Y-0.1816
N2285 X0.0779 Y-0.1789
N2290 X0.0826 Y-0.1766
N2295 X0.111 Y-0.1602
N2300 X0.1149 Y-0.1577
N2305 X0.1189 Y-0.1543
N2310 X0.1435 Y-0.1322
N2315 X0.1457 Y-0.1298
N2320 X0.1476 Y-0.1273
N2325 X0.1595 Y-0.111
N2330 X0.161 Y-0.1084
N2335 X0.1622 Y-0.1057
N2340 X0.1627 Y-0.1028 Z-0.0798
N2345 X0.1632 Y-0.0999 Z-0.0793
N2350 X0.1637 Y-0.0971 Z-0.0784
N2355 Y-0.097
N2360 X0.1632 Y-0.0938 Z-0.0769
N2365 X0.1627 Y-0.0909 Z-0.0749
N2370 X0.1622 Y-0.0883 Z-0.0726
N2375 X0.161 Y-0.0861 Z-0.0696
N2380 X0.16 Y-0.0844 Z-0.0663
N2385 X0.1593 Y-0.0831 Z-0.0627
N2390 X0.1589 Y-0.0823 Z-0.0589
N2395 X0.1587 Y-0.082 Z-0.055
N2400 G0 Z0.2
N2405 G1 X0. Y0. F300.
N2410 G0 Z0.045
N2415 G1 Z0.02 F18.
N2420 Z-0.12 F3.
N2425 X-0.0002 Y-0.0015 F18.
N2430 X0.001 Y-0.0025
N2435 X0.0024 Y-0.0021
N2440 X0.0034 Y-0.001
N2445 X0.0038 Y0.0005
N2450 X0.0035 Y0.002
N2455 X0.0027 Y0.0032
N2460 X0.0015 Y0.0041
N2465 X0. Y0.0045
N2470 X-0.0014 Y0.0043
N2475 X-0.0028 Y0.0037
N2480 X-0.0039 Y0.0027
N2485 X-0.0053 Y0.
N2490 X-0.0052 Y-0.003
N2495 X-0.0039 Y-0.0057
N2500 X-0.0015 Y-0.0075
N2505 X0.0014 Y-0.0082
N2510 X0.0044 Y-0.0078
N2515 X0.0071 Y-0.0065
N2520 X0.0092 Y-0.0043
N2525 X0.0105 Y-0.0016
N2530 X0.0109 Y0.0014
N2535 X0.0106 Y0.0043
N2540 X0.0094 Y0.0071
N2545 X0.0057 Y0.0118
N2550 X0.0002 Y0.0141
N2555 X-0.0058 Y0.0138
N2560 X-0.0112 Y0.0111
N2565 X-0.0152 Y0.0067
N2570 X-0.0175 Y0.0011
N2575 X-0.0178 Y-0.0049
N2580 X-0.0162 Y-0.0106
N2585 X-0.0129 Y-0.0157
N2590 X-0.0084 Y-0.0195
N2595 X-0.0029 Y-0.022
N2600 X0.0031 Y-0.0228
N2605 X0.009 Y-0.0221
N2610 X0.0146 Y-0.0199
N2615 X0.0195 Y-0.0164
N2620 X0.0234 Y-0.0118
N2625 X0.0261 Y-0.0065
N2630 X0.0276 Y-0.0007
N2635 X0.0279 Y0.0053
N2640 X0.0268 Y0.0112
N2645 X0.0247 Y0.0168
N2650 X0.0214 Y0.0219
N2655 X0.0172 Y0.0262
N2660 X0.0123 Y0.0296
N2665 X0.0068 Y0.032
N2670 X0.001 Y0.0334
N2675 X-0.005 Y0.0337
N2680 X-0.011 Y0.033
N2685 X-0.0167 Y0.0312
N2690 X-0.0221 Y0.0285
N2695 X-0.0269 Y0.025
N2700 X-0.0312 Y0.0207
N2705 X-0.0346 Y0.0158
N2710 X-0.0373 Y0.0105
N2715 X-0.0392 Y0.0048
N2720 X-0.0401 Y-0.0012
N2725 X-0.0402 Y-0.0072
N2730 X-0.0394 Y-0.0131
N2735 X-0.0377 Y-0.0189
N2740 X-0.0353 Y-0.0243
N2745 X-0.0321 Y-0.0294
N2750 X-0.0282 Y-0.034
N2755 X-0.0238 Y-0.0381
N2760 X-0.0188 Y-0.0415
N2765 G3 X0.004 Y-0.0479 I0.0237 J0.0402
N2770 X0.0324 Y-0.0396 I0.0009 J0.0492
N2775 X0.0549 Y-0.0054 I-0.0296 J0.0441
N2780 X0.0443 Y0.04 I-0.056 J0.0108
N2785 X-0.0019 Y0.0644 I-0.0493 J-0.0372
N2790 X-0.0555 Y0.0421 I-0.0036 J-0.0667
N2795 X-0.0728 Y-0.0192 I0.0537 J-0.0483
N2800 X-0.026 Y-0.0776 I0.0768 J0.0137
N2805 X0.0491 Y-0.073 I0.033 J0.0774
N2810 X0.0944 Y-0.0036 I-0.0449 J0.0788
N2815 X0.0678 Y0.0744 I-0.0962 J0.0108
N2820 X-0.0141 Y0.1061 I-0.0746 J-0.0712
N2825 X-0.0958 Y0.061 I0.0071 J-0.1095
N2830 X-0.1165 Y-0.0283 I0.0936 J-0.0687
N2835 X-0.0771 Y-0.0988 I0.1199 J0.0208
N2840 X0.0096 Y-0.131 I0.0847 J0.0953
N2845 X0.0926 Y-0.1008 I-0.0015 J0.1334
N2850 X0.1407 Y-0.0224 I-0.0878 J0.1078
N2855 X0.1332 Y0.0635 I-0.1409 J0.0309
N2860 X0.0763 Y0.1322 I-0.1383 J-0.0566
N2865 X-0.0021 Y0.1572 I-0.0844 J-0.1293
N2870 X-0.0749 Y0.1428 I-0.0065 J-0.1588
N2875 G1 X-0.0846 Y0.138
N2880 X-0.0941 Y0.1325
N2885 G3 X-0.1475 Y0.0775 I0.088 J-0.1391
N2890 X-0.1678 Y0.025 I0.1443 J-0.086
N2895 X-0.1697 Y-0.0321 I0.1675 J-0.0342
N2900 X-0.1574 Y-0.0771 I0.1722 J0.0233
N2905 G1 X-0.1524 Y-0.0877
N2910 X-0.1467 Y-0.0981
N2915 X-0.1403 Y-0.1081
N2920 X-0.1332 Y-0.1176
N2925 X-0.1255 Y-0.1267
N2930 X-0.1171 Y-0.1353
N2935 X-0.1082 Y-0.1433
N2940 X-0.0987 Y-0.1507
N2945 X-0.0887 Y-0.1575
N2950 X-0.0782 Y-0.1637
N2955 X-0.0673 Y-0.1691
N2960 X-0.056 Y-0.1738
N2965 X-0.0444 Y-0.1778
N2970 X-0.0325 Y-0.181
N2975 X-0.0204 Y-0.1833
N2980 X-0.0081 Y-0.1849
N2985 X0.0043 Y-0.1856
N2990 X0.0168
N2995 X0.0293 Y-0.1846
N3000 X0.0417 Y-0.1828
N3005 X0.0541 Y-0.1802
N3010 X0.0663 Y-0.1768
N3015 X0.0782 Y-0.1725
N3020 X0.0899 Y-0.1674
N3025 X0.1012 Y-0.1616
N3030 X0.1122 Y-0.1549
N3035 X0.1227 Y-0.1475
N3040 X0.1328 Y-0.1394
N3045 X0.1423 Y-0.1306
N3050 X0.1512 Y-0.1212
N3055 X0.1577 Y-0.1133
N3060 X0.1595 Y-0.111
N3065 Y-0.1109
N3070 X0.1681 Y-0.0991
N3075 X0.1706 Y-0.0945
N3080 X0.1845 Y-0.0632
N3085 X0.1851 Y-0.0616
N3090 X0.1872 Y-0.0534
N3095 X0.1927 Y-0.0278
N3100 X0.1941 Y-0.0205
N3105 X0.1942 Y-0.0123
N3110 Y0.0123
N3115 X0.1941 Y0.0205
N3120 X0.1925 Y0.0288
N3125 X0.1872 Y0.0534
N3130 X0.1851 Y0.0616
N3135 X0.1845 Y0.0632
N3140 X0.1706 Y0.0945
N3145 X0.1681 Y0.0991
N3150 X0.1476 Y0.1273
N3155 X0.1457 Y0.1298
N3160 X0.1435 Y0.1322
N3165 X0.1189 Y0.1543
N3170 X0.1149 Y0.1577
N3175 X0.1107 Y0.1604
N3180 X0.0826 Y0.1766
N3185 X0.0779 Y0.1789
N3190 X0.0533 Y0.1869
N3195 X0.0451 Y0.1896
N3200 X0.041 Y0.1908
N3205 X0.0369 Y0.1914
N3210 X0.0041 Y0.1949
N3215 X0. Y0.1952
N3220 X-0.0041 Y0.1949
N3225 X-0.0369 Y0.1914
N3230 X-0.041 Y0.1908
N3235 X-0.0451 Y0.1896
N3240 X-0.0697 Y0.1816
N3245 X-0.0779 Y0.1789
N3250 X-0.0826 Y0.1766
N3255 X-0.111 Y0.1602
N3260 X-0.1149 Y0.1577
N3265 X-0.1189 Y0.1543
N3270 X-0.1435 Y0.1322
N3275 X-0.1457 Y0.1298
N3280 X-0.1476 Y0.1273
N3285 X-0.1681 Y0.0991
N3290 X-0.1706 Y0.0945
N3295 X-0.1845 Y0.0632
N3300 X-0.1851 Y0.0616
N3305 X-0.1872 Y0.0534
N3310 X-0.1927 Y0.0278
N3315 X-0.1941 Y0.0205
N3320 X-0.1942 Y0.0123
N3325 Y-0.0123
N3330 X-0.1941 Y-0.0205
N3335 X-0.1925 Y-0.0288
N3340 X-0.1872 Y-0.0534
N3345 X-0.1851 Y-0.0616
N3350 X-0.1845 Y-0.0632
N3355 X-0.1706 Y-0.0945
N3360 X-0.1681 Y-0.0991
N3365 X-0.1476 Y-0.1273
N3370 X-0.1457 Y-0.1298
N3375 X-0.1435 Y-0.1322
N3380 X-0.1189 Y-0.1543
N3385 X-0.1149 Y-0.1577
N3390 X-0.1107 Y-0.1604
N3395 X-0.0826 Y-0.1766
N3400 X-0.0779 Y-0.1789
N3405 X-0.0533 Y-0.1869
N3410 X-0.0451 Y-0.1896
N3415 X-0.041 Y-0.1908
N3420 X-0.0369 Y-0.1914
N3425 X-0.0041 Y-0.1949
N3430 X0. Y-0.1952
N3435 X0.0041 Y-0.1949
N3440 X0.0369 Y-0.1914
N3445 X0.041 Y-0.1908
N3450 X0.0451 Y-0.1896
N3455 X0.0697 Y-0.1816
N3460 X0.0779 Y-0.1789
N3465 X0.0826 Y-0.1766
N3470 X0.111 Y-0.1602
N3475 X0.1149 Y-0.1577
N3480 X0.1189 Y-0.1543
N3485 X0.1435 Y-0.1322
N3490 X0.1457 Y-0.1298
N3495 X0.1476 Y-0.1273
N3500 X0.1595 Y-0.111
N3505 X0.161 Y-0.1084
N3510 X0.1622 Y-0.1057
N3515 X0.1627 Y-0.1028 Z-0.1198
N3520 X0.1632 Y-0.0999 Z-0.1193
N3525 X0.1637 Y-0.0971 Z-0.1184
N3530 Y-0.097
N3535 X0.1632 Y-0.0938 Z-0.1169
N3540 X0.1627 Y-0.0909 Z-0.1149
N3545 X0.1622 Y-0.0883 Z-0.1126
N3550 X0.161 Y-0.0861 Z-0.1096
N3555 X0.16 Y-0.0844 Z-0.1063
N3560 X0.1593 Y-0.0831 Z-0.1027
N3565 X0.1589 Y-0.0823 Z-0.0989
N3570 X0.1587 Y-0.082 Z-0.095
N3575 G0 Z0.2
N3580 G1 X0. Y0. F300.
N3585 G0 Z0.005
N3590 G1 Z-0.02 F18.
N3595 Z-0.16 F3.
N3600 X-0.0002 Y-0.0015 F18.
N3605 X0.001 Y-0.0025
N3610 X0.0024 Y-0.0021
N3615 X0.0034 Y-0.001
N3620 X0.0038 Y0.0005
N3625 X0.0035 Y0.002
N3630 X0.0027 Y0.0032
N3635 X0.0015 Y0.0041
N3640 X0. Y0.0045
N3645 X-0.0014 Y0.0043
N3650 X-0.0028 Y0.0037
N3655 X-0.0039 Y0.0027
N3660 X-0.0053 Y0.
N3665 X-0.0052 Y-0.003
N3670 X-0.0039 Y-0.0057
N3675 X-0.0015 Y-0.0075
N3680 X0.0014 Y-0.0082
N3685 X0.0044 Y-0.0078
N3690 X0.0071 Y-0.0065
N3695 X0.0092 Y-0.0043
N3700 X0.0105 Y-0.0016
N3705 X0.0109 Y0.0014
N3710 X0.0106 Y0.0043
N3715 X0.0094 Y0.0071
N3720 X0.0057 Y0.0118
N3725 X0.0002 Y0.0141
N3730 X-0.0058 Y0.0138
N3735 X-0.0112 Y0.0111
N3740 X-0.0152 Y0.0067
N3745 X-0.0175 Y0.0011
N3750 X-0.0178 Y-0.0049
N3755 X-0.0162 Y-0.0106
N3760 X-0.0129 Y-0.0157
N3765 X-0.0084 Y-0.0195
N3770 X-0.0029 Y-0.022
N3775 X0.0031 Y-0.0228
N3780 X0.009 Y-0.0221
N3785 X0.0146 Y-0.0199
N3790 X0.0195 Y-0.0164
N3795 X0.0234 Y-0.0118
N3800 X0.0261 Y-0.0065
N3805 X0.0276 Y-0.0007
N3810 X0.0279 Y0.0053
N3815 X0.0268 Y0.0112
N3820 X0.0247 Y0.0168
N3825 X0.0214 Y0.0219
N3830 X0.0172 Y0.0262
N3835 X0.0123 Y0.0296
N3840 X0.0068 Y0.032
N3845 X0.001 Y0.0334
N3850 X-0.005 Y0.0337
N3855 X-0.011 Y0.033
N3860 X-0.0167 Y0.0312
N3865 X-0.0221 Y0.0285
N3870 X-0.0269 Y0.025
N3875 X-0.0312 Y0.0207
N3880 X-0.0346 Y0.0158
N3885 X-0.0373 Y0.0105
N3890 X-0.0392 Y0.0048
N3895 X-0.0401 Y-0.0012
N3900 X-0.0402 Y-0.0072
N3905 X-0.0394 Y-0.0131
N3910 X-0.0377 Y-0.0189
N3915 X-0.0353 Y-0.0243
N3920 X-0.0321 Y-0.0294
N3925 X-0.0282 Y-0.034
N3930 X-0.0238 Y-0.0381
N3935 X-0.0188 Y-0.0415
N3940 G3 X0.004 Y-0.0479 I0.0237 J0.0402
N3945 X0.0324 Y-0.0396 I0.0009 J0.0492
N3950 X0.0549 Y-0.0054 I-0.0296 J0.0441
N3955 X0.0443 Y0.04 I-0.056 J0.0108
N3960 X-0.0019 Y0.0644 I-0.0493 J-0.0372
N3965 X-0.0555 Y0.0421 I-0.0036 J-0.0667
N3970 X-0.0728 Y-0.0192 I0.0537 J-0.0483
N3975 X-0.026 Y-0.0776 I0.0768 J0.0137
N3980 X0.0491 Y-0.073 I0.033 J0.0774
N3985 X0.0944 Y-0.0036 I-0.0449 J0.0788
N3990 X0.0678 Y0.0744 I-0.0962 J0.0108
N3995 X-0.0141 Y0.1061 I-0.0746 J-0.0712
N4000 X-0.0958 Y0.061 I0.0071 J-0.1095
N4005 X-0.1165 Y-0.0283 I0.0936 J-0.0687
N4010 X-0.0771 Y-0.0988 I0.1199 J0.0208
N4015 X0.0096 Y-0.131 I0.0847 J0.0953
N4020 X0.0926 Y-0.1008 I-0.0015 J0.1334
N4025 X0.1407 Y-0.0224 I-0.0878 J0.1078
N4030 X0.1332 Y0.0635 I-0.1409 J0.0309
N4035 X0.0763 Y0.1322 I-0.1383 J-0.0566
N4040 X-0.0021 Y0.1572 I-0.0844 J-0.1293
N4045 X-0.0749 Y0.1428 I-0.0065 J-0.1588
N4050 G1 X-0.0846 Y0.138
N4055 X-0.0941 Y0.1325
N4060 G3 X-0.1475 Y0.0775 I0.088 J-0.1391
N4065 X-0.1678 Y0.025 I0.1443 J-0.086
N4070 X-0.1697 Y-0.0321 I0.1675 J-0.0342
N4075 X-0.1574 Y-0.0771 I0.1722 J0.0233
N4080 G1 X-0.1524 Y-0.0877
N4085 X-0.1467 Y-0.0981
N4090 X-0.1403 Y-0.1081
N4095 X-0.1332 Y-0.1176
N4100 X-0.1255 Y-0.1267
N4105 X-0.1171 Y-0.1353
N4110 X-0.1082 Y-0.1433
N4115 X-0.0987 Y-0.1507
N4120 X-0.0887 Y-0.1575
N4125 X-0.0782 Y-0.1637
N4130 X-0.0673 Y-0.1691
N4135 X-0.056 Y-0.1738
N4140 X-0.0444 Y-0.1778
N4145 X-0.0325 Y-0.181
N4150 X-0.0204 Y-0.1833
N4155 X-0.0081 Y-0.1849
N4160 X0.0043 Y-0.1856
N4165 X0.0168
N4170 X0.0293 Y-0.1846
N4175 X0.0417 Y-0.1828
N4180 X0.0541 Y-0.1802
N4185 X0.0663 Y-0.1768
N4190 X0.0782 Y-0.1725
N4195 X0.0899 Y-0.1674
N4200 X0.1012 Y-0.1616
N4205 X0.1122 Y-0.1549
N4210 X0.1227 Y-0.1475
N4215 X0.1328 Y-0.1394
N4220 X0.1423 Y-0.1306
N4225 X0.1512 Y-0.1212
N4230 X0.1577 Y-0.1133
N4235 X0.1595 Y-0.111
N4240 Y-0.1109
N4245 X0.1681 Y-0.0991
N4250 X0.1706 Y-0.0945
N4255 X0.1845 Y-0.0632
N4260 X0.1851 Y-0.0616
N4265 X0.1872 Y-0.0534
N4270 X0.1927 Y-0.0278
N4275 X0.1941 Y-0.0205
N4280 X0.1942 Y-0.0123
N4285 Y0.0123
N4290 X0.1941 Y0.0205
N4295 X0.1925 Y0.0288
N4300 X0.1872 Y0.0534
N4305 X0.1851 Y0.0616
N4310 X0.1845 Y0.0632
N4315 X0.1706 Y0.0945
N4320 X0.1681 Y0.0991
N4325 X0.1476 Y0.1273
N4330 X0.1457 Y0.1298
N4335 X0.1435 Y0.1322
N4340 X0.1189 Y0.1543
N4345 X0.1149 Y0.1577
N4350 X0.1107 Y0.1604
N4355 X0.0826 Y0.1766
N4360 X0.0779 Y0.1789
N4365 X0.0533 Y0.1869
N4370 X0.0451 Y0.1896
N4375 X0.041 Y0.1908
N4380 X0.0369 Y0.1914
N4385 X0.0041 Y0.1949
N4390 X0. Y0.1952
N4395 X-0.0041 Y0.1949
N4400 X-0.0369 Y0.1914
N4405 X-0.041 Y0.1908
N4410 X-0.0451 Y0.1896
N4415 X-0.0697 Y0.1816
N4420 X-0.0779 Y0.1789
N4425 X-0.0826 Y0.1766
N4430 X-0.111 Y0.1602
N4435 X-0.1149 Y0.1577
N4440 X-0.1189 Y0.1543
N4445 X-0.1435 Y0.1322
N4450 X-0.1457 Y0.1298
N4455 X-0.1476 Y0.1273
N4460 X-0.1681 Y0.0991
N4465 X-0.1706 Y0.0945
N4470 X-0.1845 Y0.0632
N4475 X-0.1851 Y0.0616
N4480 X-0.1872 Y0.0534
N4485 X-0.1927 Y0.0278
N4490 X-0.1941 Y0.0205
N4495 X-0.1942 Y0.0123
N4500 Y-0.0123
N4505 X-0.1941 Y-0.0205
N4510 X-0.1925 Y-0.0288
N4515 X-0.1872 Y-0.0534
N4520 X-0.1851 Y-0.0616
N4525 X-0.1845 Y-0.0632
N4530 X-0.1706 Y-0.0945
N4535 X-0.1681 Y-0.0991
N4540 X-0.1476 Y-0.1273
N4545 X-0.1457 Y-0.1298
N4550 X-0.1435 Y-0.1322
N4555 X-0.1189 Y-0.1543
N4560 X-0.1149 Y-0.1577
N4565 X-0.1107 Y-0.1604
N4570 X-0.0826 Y-0.1766
N4575 X-0.0779 Y-0.1789
N4580 X-0.0533 Y-0.1869
N4585 X-0.0451 Y-0.1896
N4590 X-0.041 Y-0.1908
N4595 X-0.0369 Y-0.1914
N4600 X-0.0041 Y-0.1949
N4605 X0. Y-0.1952
N4610 X0.0041 Y-0.1949
N4615 X0.0369 Y-0.1914
N4620 X0.041 Y-0.1908
N4625 X0.0451 Y-0.1896
N4630 X0.0697 Y-0.1816
N4635 X0.0779 Y-0.1789
N4640 X0.0826 Y-0.1766
N4645 X0.111 Y-0.1602
N4650 X0.1149 Y-0.1577
N4655 X0.1189 Y-0.1543
N4660 X0.1435 Y-0.1322
N4665 X0.1457 Y-0.1298
N4670 X0.1476 Y-0.1273
N4675 X0.1595 Y-0.111
N4680 X0.161 Y-0.1084
N4685 X0.1622 Y-0.1057
N4690 X0.1627 Y-0.1028 Z-0.1598
N4695 X0.1632 Y-0.0999 Z-0.1593
N4700 X0.1637 Y-0.0971 Z-0.1584
N4705 Y-0.097
N4710 X0.1632 Y-0.0938 Z-0.1569
N4715 X0.1627 Y-0.0909 Z-0.1549
N4720 X0.1622 Y-0.0883 Z-0.1526
N4725 X0.161 Y-0.0861 Z-0.1496
N4730 X0.16 Y-0.0844 Z-0.1463
N4735 X0.1593 Y-0.0831 Z-0.1427
N4740 X0.1589 Y-0.0823 Z-0.1389
N4745 X0.1587 Y-0.082 Z-0.135
N4750 G0 Z0.2
N4755 G1 X0. Y0. F300.
N4760 G0 Z-0.035
N4765 G1 Z-0.06 F18.
N4770 Z-0.2 F3.
N4775 X-0.0002 Y-0.0015 F18.
N4780 X0.001 Y-0.0025
N4785 X0.0024 Y-0.0021
N4790 X0.0034 Y-0.001
N4795 X0.0038 Y0.0005
N4800 X0.0035 Y0.002
N4805 X0.0027 Y0.0032
N4810 X0.0015 Y0.0041
N4815 X0. Y0.0045
N4820 X-0.0014 Y0.0043
N4825 X-0.0028 Y0.0037
N4830 X-0.0039 Y0.0027
N4835 X-0.0053 Y0.
N4840 X-0.0052 Y-0.003
N4845 X-0.0039 Y-0.0057
N4850 X-0.0015 Y-0.0075
N4855 X0.0014 Y-0.0082
N4860 X0.0044 Y-0.0078
N4865 X0.0071 Y-0.0065
N4870 X0.0092 Y-0.0043
N4875 X0.0105 Y-0.0016
N4880 X0.0109 Y0.0014
N4885 X0.0106 Y0.0043
N4890 X0.0094 Y0.0071
N4895 X0.0057 Y0.0118
N4900 X0.0002 Y0.0141
N4905 X-0.0058 Y0.0138
N4910 X-0.0112 Y0.0111
N4915 X-0.0152 Y0.0067
N4920 X-0.0175 Y0.0011
N4925 X-0.0178 Y-0.0049
N4930 X-0.0162 Y-0.0106
N4935 X-0.0129 Y-0.0157
N4940 X-0.0084 Y-0.0195
N4945 X-0.0029 Y-0.022
N4950 X0.0031 Y-0.0228
N4955 X0.009 Y-0.0221
N4960 X0.0146 Y-0.0199
N4965 X0.0195 Y-0.0164
N4970 X0.0234 Y-0.0118
N4975 X0.0261 Y-0.0065
N4980 X0.0276 Y-0.0007
N4985 X0.0279 Y0.0053
N4990 X0.0268 Y0.0112
N4995 X0.0247 Y0.0168
N5000 X0.0214 Y0.0219
N5005 X0.0172 Y0.0262
N5010 X0.0123 Y0.0296
N5015 X0.0068 Y0.032
N5020 X0.001 Y0.0334
N5025 X-0.005 Y0.0337
N5030 X-0.011 Y0.033
N5035 X-0.0167 Y0.0312
N5040 X-0.0221 Y0.0285
N5045 X-0.0269 Y0.025
N5050 X-0.0312 Y0.0207
N5055 X-0.0346 Y0.0158
N5060 X-0.0373 Y0.0105
N5065 X-0.0392 Y0.0048
N5070 X-0.0401 Y-0.0012
N5075 X-0.0402 Y-0.0072
N5080 X-0.0394 Y-0.0131
N5085 X-0.0377 Y-0.0189
N5090 X-0.0353 Y-0.0243
N5095 X-0.0321 Y-0.0294
N5100 X-0.0282 Y-0.034
N5105 X-0.0238 Y-0.0381
N5110 X-0.0188 Y-0.0415
N5115 G3 X0.004 Y-0.0479 I0.0237 J0.0402
N5120 X0.0324 Y-0.0396 I0.0009 J0.0492
N5125 X0.0549 Y-0.0054 I-0.0296 J0.0441
N5130 X0.0443 Y0.04 I-0.056 J0.0108
N5135 X-0.0019 Y0.0644 I-0.0493 J-0.0372
N5140 X-0.0555 Y0.0421 I-0.0036 J-0.0667
N5145 X-0.0728 Y-0.0192 I0.0537 J-0.0483
N5150 X-0.026 Y-0.0776 I0.0768 J0.0137
N5155 X0.0491 Y-0.073 I0.033 J0.0774
N5160 X0.0944 Y-0.0036 I-0.0449 J0.0788
N5165 X0.0678 Y0.0744 I-0.0962 J0.0108
N5170 X-0.0141 Y0.1061 I-0.0746 J-0.0712
N5175 X-0.0958 Y0.061 I0.0071 J-0.1095
N5180 X-0.1165 Y-0.0283 I0.0936 J-0.0687
N5185 X-0.0771 Y-0.0988 I0.1199 J0.0208
N5190 X0.0096 Y-0.131 I0.0847 J0.0953
N5195 X0.0926 Y-0.1008 I-0.0015 J0.1334
N5200 X0.1407 Y-0.0224 I-0.0878 J0.1078
N5205 X0.1332 Y0.0635 I-0.1409 J0.0309
N5210 X0.0763 Y0.1322 I-0.1383 J-0.0566
N5215 X-0.0021 Y0.1572 I-0.0844 J-0.1293
N5220 X-0.0749 Y0.1428 I-0.0065 J-0.1588
N5225 G1 X-0.0846 Y0.138
N5230 X-0.0941 Y0.1325
N5235 G3 X-0.1475 Y0.0775 I0.088 J-0.1391
N5240 X-0.1678 Y0.025 I0.1443 J-0.086
N5245 X-0.1697 Y-0.0321 I0.1675 J-0.0342
N5250 X-0.1574 Y-0.0771 I0.1722 J0.0233
N5255 G1 X-0.1524 Y-0.0877
N5260 X-0.1467 Y-0.0981
N5265 X-0.1403 Y-0.1081
N5270 X-0.1332 Y-0.1176
N5275 X-0.1255 Y-0.1267
N5280 X-0.1171 Y-0.1353
N5285 X-0.1082 Y-0.1433
N5290 X-0.0987 Y-0.1507
N5295 X-0.0887 Y-0.1575
N5300 X-0.0782 Y-0.1637
N5305 X-0.0673 Y-0.1691
N5310 X-0.056 Y-0.1738
N5315 X-0.0444 Y-0.1778
N5320 X-0.0325 Y-0.181
N5325 X-0.0204 Y-0.1833
N5330 X-0.0081 Y-0.1849
N5335 X0.0043 Y-0.1856
N5340 X0.0168
N5345 X0.0293 Y-0.1846
N5350 X0.0417 Y-0.1828
N5355 X0.0541 Y-0.1802
N5360 X0.0663 Y-0.1768
N5365 X0.0782 Y-0.1725
N5370 X0.0899 Y-0.1674
N5375 X0.1012 Y-0.1616
N5380 X0.1122 Y-0.1549
N5385 X0.1227 Y-0.1475
N5390 X0.1328 Y-0.1394
N5395 X0.1423 Y-0.1306
N5400 X0.1512 Y-0.1212
N5405 X0.1577 Y-0.1133
N5410 X0.1595 Y-0.111
N5415 Y-0.1109
N5420 X0.1681 Y-0.0991
N5425 X0.1706 Y-0.0945
N5430 X0.1845 Y-0.0632
N5435 X0.1851 Y-0.0616
N5440 X0.1872 Y-0.0534
N5445 X0.1927 Y-0.0278
N5450 X0.1941 Y-0.0205
N5455 X0.1942 Y-0.0123
N5460 Y0.0123
N5465 X0.1941 Y0.0205
N5470 X0.1925 Y0.0288
N5475 X0.1872 Y0.0534
N5480 X0.1851 Y0.0616
N5485 X0.1845 Y0.0632
N5490 X0.1706 Y0.0945
N5495 X0.1681 Y0.0991
N5500 X0.1476 Y0.1273
N5505 X0.1457 Y0.1298
N5510 X0.1435 Y0.1322
N5515 X0.1189 Y0.1543
N5520 X0.1149 Y0.1577
N5525 X0.1107 Y0.1604
N5530 X0.0826 Y0.1766
N5535 X0.0779 Y0.1789
N5540 X0.0533 Y0.1869
N5545 X0.0451 Y0.1896
N5550 X0.041 Y0.1908
N5555 X0.0369 Y0.1914
N5560 X0.0041 Y0.1949
N5565 X0. Y0.1952
N5570 X-0.0041 Y0.1949
N5575 X-0.0369 Y0.1914
N5580 X-0.041 Y0.1908
N5585 X-0.0451 Y0.1896
N5590 X-0.0697 Y0.1816
N5595 X-0.0779 Y0.1789
N5600 X-0.0826 Y0.1766
N5605 X-0.111 Y0.1602
N5610 X-0.1149 Y0.1577
N5615 X-0.1189 Y0.1543
N5620 X-0.1435 Y0.1322
N5625 X-0.1457 Y0.1298
N5630 X-0.1476 Y0.1273
N5635 X-0.1681 Y0.0991
N5640 X-0.1706 Y0.0945
N5645 X-0.1845 Y0.0632
N5650 X-0.1851 Y0.0616
N5655 X-0.1872 Y0.0534
N5660 X-0.1927 Y0.0278
N5665 X-0.1941 Y0.0205
N5670 X-0.1942 Y0.0123
N5675 Y-0.0123
N5680 X-0.1941 Y-0.0205
N5685 X-0.1925 Y-0.0288
N5690 X-0.1872 Y-0.0534
N5695 X-0.1851 Y-0.0616
N5700 X-0.1845 Y-0.0632
N5705 X-0.1706 Y-0.0945
N5710 X-0.1681 Y-0.0991
N5715 X-0.1476 Y-0.1273
N5720 X-0.1457 Y-0.1298
N5725 X-0.1435 Y-0.1322
N5730 X-0.1189 Y-0.1543
N5735 X-0.1149 Y-0.1577
N5740 X-0.1107 Y-0.1604
N5745 X-0.0826 Y-0.1766
N5750 X-0.0779 Y-0.1789
N5755 X-0.0533 Y-0.1869
N5760 X-0.0451 Y-0.1896
N5765 X-0.041 Y-0.1908
N5770 X-0.0369 Y-0.1914
N5775 X-0.0041 Y-0.1949
N5780 X0. Y-0.1952
N5785 X0.0041 Y-0.1949
N5790 X0.0369 Y-0.1914
N5795 X0.041 Y-0.1908
N5800 X0.0451 Y-0.1896
N5805 X0.0697 Y-0.1816
N5810 X0.0779 Y-0.1789
N5815 X0.0826 Y-0.1766
N5820 X0.111 Y-0.1602
N5825 X0.1149 Y-0.1577
N5830 X0.1189 Y-0.1543
N5835 X0.1435 Y-0.1322
N5840 X0.1457 Y-0.1298
N5845 X0.1476 Y-0.1273
N5850 X0.1595 Y-0.111
N5855 X0.161 Y-0.1084
N5860 X0.1622 Y-0.1057
N5865 X0.1627 Y-0.1028 Z-0.1998
N5870 X0.1632 Y-0.0999 Z-0.1993
N5875 X0.1637 Y-0.0971 Z-0.1984
N5880 Y-0.097
N5885 X0.1632 Y-0.0938 Z-0.1969
N5890 X0.1627 Y-0.0909 Z-0.1949
N5895 X0.1622 Y-0.0883 Z-0.1926
N5900 X0.161 Y-0.0861 Z-0.1896
N5905 X0.16 Y-0.0844 Z-0.1863
N5910 X0.1593 Y-0.0831 Z-0.1827
N5915 X0.1589 Y-0.0823 Z-0.1789
N5920 X0.1587 Y-0.082 Z-0.175
N5925 G0 Z0.2
N5930 G1 X0. Y0. F300.
N5935 G0 Z-0.075
N5940 G1 Z-0.1 F18.
N5945 Z-0.24 F3.
N5950 X-0.0002 Y-0.0015 F18.
N5955 X0.001 Y-0.0025
N5960 X0.0024 Y-0.0021
N5965 X0.0034 Y-0.001
N5970 X0.0038 Y0.0005
N5975 X0.0035 Y0.002
N5980 X0.0027 Y0.0032
N5985 X0.0015 Y0.0041
N5990 X0. Y0.0045
N5995 X-0.0014 Y0.0043
N6000 X-0.0028 Y0.0037
N6005 X-0.0039 Y0.0027
N6010 X-0.0053 Y0.
N6015 X-0.0052 Y-0.003
N6020 X-0.0039 Y-0.0057
N6025 X-0.0015 Y-0.0075
N6030 X0.0014 Y-0.0082
N6035 X0.0044 Y-0.0078
N6040 X0.0071 Y-0.0065
N6045 X0.0092 Y-0.0043
N6050 X0.0105 Y-0.0016
N6055 X0.0109 Y0.0014
N6060 X0.0106 Y0.0043
N6065 X0.0094 Y0.0071
N6070 X0.0057 Y0.0118
N6075 X0.0002 Y0.0141
N6080 X-0.0058 Y0.0138
N6085 X-0.0112 Y0.0111
N6090 X-0.0152 Y0.0067
N6095 X-0.0175 Y0.0011
N6100 X-0.0178 Y-0.0049
N6105 X-0.0162 Y-0.0106
N6110 X-0.0129 Y-0.0157
N6115 X-0.0084 Y-0.0195
N6120 X-0.0029 Y-0.022
N6125 X0.0031 Y-0.0228
N6130 X0.009 Y-0.0221
N6135 X0.0146 Y-0.0199
N6140 X0.0195 Y-0.0164
N6145 X0.0234 Y-0.0118
N6150 X0.0261 Y-0.0065
N6155 X0.0276 Y-0.0007
N6160 X0.0279 Y0.0053
N6165 X0.0268 Y0.0112
N6170 X0.0247 Y0.0168
N6175 X0.0214 Y0.0219
N6180 X0.0172 Y0.0262
N6185 X0.0123 Y0.0296
N6190 X0.0068 Y0.032
N6195 X0.001 Y0.0334
N6200 X-0.005 Y0.0337
N6205 X-0.011 Y0.033
N6210 X-0.0167 Y0.0312
N6215 X-0.0221 Y0.0285
N6220 X-0.0269 Y0.025
N6225 X-0.0312 Y0.0207
N6230 X-0.0346 Y0.0158
N6235 X-0.0373 Y0.0105
N6240 X-0.0392 Y0.0048
N6245 X-0.0401 Y-0.0012
N6250 X-0.0402 Y-0.0072
N6255 X-0.0394 Y-0.0131
N6260 X-0.0377 Y-0.0189
N6265 X-0.0353 Y-0.0243
N6270 X-0.0321 Y-0.0294
N6275 X-0.0282 Y-0.034
N6280 X-0.0238 Y-0.0381
N6285 X-0.0188 Y-0.0415
N6290 G3 X0.004 Y-0.0479 I0.0237 J0.0402
N6295 X0.0324 Y-0.0396 I0.0009 J0.0492
N6300 X0.0549 Y-0.0054 I-0.0296 J0.0441
N6305 X0.0443 Y0.04 I-0.056 J0.0108
N6310 X-0.0019 Y0.0644 I-0.0493 J-0.0372
N6315 X-0.0555 Y0.0421 I-0.0036 J-0.0667
N6320 X-0.0728 Y-0.0192 I0.0537 J-0.0483
N6325 X-0.026 Y-0.0776 I0.0768 J0.0137
N6330 X0.0491 Y-0.073 I0.033 J0.0774
N6335 X0.0944 Y-0.0036 I-0.0449 J0.0788
N6340 X0.0678 Y0.0744 I-0.0962 J0.0108
N6345 X-0.0141 Y0.1061 I-0.0746 J-0.0712
N6350 X-0.0958 Y0.061 I0.0071 J-0.1095
N6355 X-0.1165 Y-0.0283 I0.0936 J-0.0687
N6360 X-0.0771 Y-0.0988 I0.1199 J0.0208
N6365 X0.0096 Y-0.131 I0.0847 J0.0953
N6370 X0.0926 Y-0.1008 I-0.0015 J0.1334
N6375 X0.1407 Y-0.0224 I-0.0878 J0.1078
N6380 X0.1332 Y0.0635 I-0.1409 J0.0309
N6385 X0.0763 Y0.1322 I-0.1383 J-0.0566
N6390 X-0.0021 Y0.1572 I-0.0844 J-0.1293
N6395 X-0.0749 Y0.1428 I-0.0065 J-0.1588
N6400 G1 X-0.0846 Y0.138
N6405 X-0.0941 Y0.1325
N6410 G3 X-0.1475 Y0.0775 I0.088 J-0.1391
N6415 X-0.1678 Y0.025 I0.1443 J-0.086
N6420 X-0.1697 Y-0.0321 I0.1675 J-0.0342
N6425 X-0.1574 Y-0.0771 I0.1722 J0.0233
N6430 G1 X-0.1524 Y-0.0877
N6435 X-0.1467 Y-0.0981
N6440 X-0.1403 Y-0.1081
N6445 X-0.1332 Y-0.1176
N6450 X-0.1255 Y-0.1267
N6455 X-0.1171 Y-0.1353
N6460 X-0.1082 Y-0.1433
N6465 X-0.0987 Y-0.1507
N6470 X-0.0887 Y-0.1575
N6475 X-0.0782 Y-0.1637
N6480 X-0.0673 Y-0.1691
N6485 X-0.056 Y-0.1738
N6490 X-0.0444 Y-0.1778
N6495 X-0.0325 Y-0.181
N6500 X-0.0204 Y-0.1833
N6505 X-0.0081 Y-0.1849
N6510 X0.0043 Y-0.1856
N6515 X0.0168
N6520 X0.0293 Y-0.1846
N6525 X0.0417 Y-0.1828
N6530 X0.0541 Y-0.1802
N6535 X0.0663 Y-0.1768
N6540 X0.0782 Y-0.1725
N6545 X0.0899 Y-0.1674
N6550 X0.1012 Y-0.1616
N6555 X0.1122 Y-0.1549
N6560 X0.1227 Y-0.1475
N6565 X0.1328 Y-0.1394
N6570 X0.1423 Y-0.1306
N6575 X0.1512 Y-0.1212
N6580 X0.1577 Y-0.1133
N6585 X0.1595 Y-0.111
N6590 Y-0.1109
N6595 X0.1681 Y-0.0991
N6600 X0.1706 Y-0.0945
N6605 X0.1845 Y-0.0632
N6610 X0.1851 Y-0.0616
N6615 X0.1872 Y-0.0534
N6620 X0.1927 Y-0.0278
N6625 X0.1941 Y-0.0205
N6630 X0.1942 Y-0.0123
N6635 Y0.0123
N6640 X0.1941 Y0.0205
N6645 X0.1925 Y0.0288
N6650 X0.1872 Y0.0534
N6655 X0.1851 Y0.0616
N6660 X0.1845 Y0.0632
N6665 X0.1706 Y0.0945
N6670 X0.1681 Y0.0991
N6675 X0.1476 Y0.1273
N6680 X0.1457 Y0.1298
N6685 X0.1435 Y0.1322
N6690 X0.1189 Y0.1543
N6695 X0.1149 Y0.1577
N6700 X0.1107 Y0.1604
N6705 X0.0826 Y0.1766
N6710 X0.0779 Y0.1789
N6715 X0.0533 Y0.1869
N6720 X0.0451 Y0.1896
N6725 X0.041 Y0.1908
N6730 X0.0369 Y0.1914
N6735 X0.0041 Y0.1949
N6740 X0. Y0.1952
N6745 X-0.0041 Y0.1949
N6750 X-0.0369 Y0.1914
N6755 X-0.041 Y0.1908
N6760 X-0.0451 Y0.1896
N6765 X-0.0697 Y0.1816
N6770 X-0.0779 Y0.1789
N6775 X-0.0826 Y0.1766
N6780 X-0.111 Y0.1602
N6785 X-0.1149 Y0.1577
N6790 X-0.1189 Y0.1543
N6795 X-0.1435 Y0.1322
N6800 X-0.1457 Y0.1298
N6805 X-0.1476 Y0.1273
N6810 X-0.1681 Y0.0991
N6815 X-0.1706 Y0.0945
N6820 X-0.1845 Y0.0632
N6825 X-0.1851 Y0.0616
N6830 X-0.1872 Y0.0534
N6835 X-0.1927 Y0.0278
N6840 X-0.1941 Y0.0205
N6845 X-0.1942 Y0.0123
N6850 Y-0.0123
N6855 X-0.1941 Y-0.0205
N6860 X-0.1925 Y-0.0288
N6865 X-0.1872 Y-0.0534
N6870 X-0.1851 Y-0.0616
N6875 X-0.1845 Y-0.0632
N6880 X-0.1706 Y-0.0945
N6885 X-0.1681 Y-0.0991
N6890 X-0.1476 Y-0.1273
N6895 X-0.1457 Y-0.1298
N6900 X-0.1435 Y-0.1322
N6905 X-0.1189 Y-0.1543
N6910 X-0.1149 Y-0.1577
N6915 X-0.1107 Y-0.1604
N6920 X-0.0826 Y-0.1766
N6925 X-0.0779 Y-0.1789
N6930 X-0.0533 Y-0.1869
N6935 X-0.0451 Y-0.1896
N6940 X-0.041 Y-0.1908
N6945 X-0.0369 Y-0.1914
N6950 X-0.0041 Y-0.1949
N6955 X0. Y-0.1952
N6960 X0.0041 Y-0.1949
N6965 X0.0369 Y-0.1914
N6970 X0.041 Y-0.1908
N6975 X0.0451 Y-0.1896
N6980 X0.0697 Y-0.1816
N6985 X0.0779 Y-0.1789
N6990 X0.0826 Y-0.1766
N6995 X0.111 Y-0.1602
N7000 X0.1149 Y-0.1577
N7005 X0.1189 Y-0.1543
N7010 X0.1435 Y-0.1322
N7015 X0.1457 Y-0.1298
N7020 X0.1476 Y-0.1273
N7025 X0.1595 Y-0.111
N7030 X0.161 Y-0.1084
N7035 X0.1622 Y-0.1057
N7040 X0.1627 Y-0.1028 Z-0.2398
N7045 X0.1632 Y-0.0999 Z-0.2393
N7050 X0.1637 Y-0.0971 Z-0.2384
N7055 Y-0.097
N7060 X0.1632 Y-0.0938 Z-0.2369
N7065 X0.1627 Y-0.0909 Z-0.2349
N7070 X0.1622 Y-0.0883 Z-0.2326
N7075 X0.161 Y-0.0861 Z-0.2296
N7080 X0.16 Y-0.0844 Z-0.2263
N7085 X0.1593 Y-0.0831 Z-0.2227
N7090 X0.1589 Y-0.0823 Z-0.2189
N7095 X0.1587 Y-0.082 Z-0.215
N7100 G0 Z0.2
N7105 G1 X0. Y0. F300.
N7110 G0 Z-0.115
N7115 G1 Z-0.14 F18.
N7120 Z-0.28 F3.
N7125 X-0.0002 Y-0.0015 F18.
N7130 X0.001 Y-0.0025
N7135 X0.0024 Y-0.0021
N7140 X0.0034 Y-0.001
N7145 X0.0038 Y0.0005
N7150 X0.0035 Y0.002
N7155 X0.0027 Y0.0032
N7160 X0.0015 Y0.0041
N7165 X0. Y0.0045
N7170 X-0.0014 Y0.0043
N7175 X-0.0028 Y0.0037
N7180 X-0.0039 Y0.0027
N7185 X-0.0053 Y0.
N7190 X-0.0052 Y-0.003
N7195 X-0.0039 Y-0.0057
N7200 X-0.0015 Y-0.0075
N7205 X0.0014 Y-0.0082
N7210 X0.0044 Y-0.0078
N7215 X0.0071 Y-0.0065
N7220 X0.0092 Y-0.0043
N7225 X0.0105 Y-0.0016
N7230 X0.0109 Y0.0014
N7235 X0.0106 Y0.0043
N7240 X0.0094 Y0.0071
N7245 X0.0057 Y0.0118
N7250 X0.0002 Y0.0141
N7255 X-0.0058 Y0.0138
N7260 X-0.0112 Y0.0111
N7265 X-0.0152 Y0.0067
N7270 X-0.0175 Y0.0011
N7275 X-0.0178 Y-0.0049
N7280 X-0.0162 Y-0.0106
N7285 X-0.0129 Y-0.0157
N7290 X-0.0084 Y-0.0195
N7295 X-0.0029 Y-0.022
N7300 X0.0031 Y-0.0228
N7305 X0.009 Y-0.0221
N7310 X0.0146 Y-0.0199
N7315 X0.0195 Y-0.0164
N7320 X0.0234 Y-0.0118
N7325 X0.0261 Y-0.0065
N7330 X0.0276 Y-0.0007
N7335 X0.0279 Y0.0053
N7340 X0.0268 Y0.0112
N7345 X0.0247 Y0.0168
N7350 X0.0214 Y0.0219
N7355 X0.0172 Y0.0262
N7360 X0.0123 Y0.0296
N7365 X0.0068 Y0.032
N7370 X0.001 Y0.0334
N7375 X-0.005 Y0.0337
N7380 X-0.011 Y0.033
N7385 X-0.0167 Y0.0312
N7390 X-0.0221 Y0.0285
N7395 X-0.0269 Y0.025
N7400 X-0.0312 Y0.0207
N7405 X-0.0346 Y0.0158
N7410 X-0.0373 Y0.0105
N7415 X-0.0392 Y0.0048
N7420 X-0.0401 Y-0.0012
N7425 X-0.0402 Y-0.0072
N7430 X-0.0394 Y-0.0131
N7435 X-0.0377 Y-0.0189
N7440 X-0.0353 Y-0.0243
N7445 X-0.0321 Y-0.0294
N7450 X-0.0282 Y-0.034
N7455 X-0.0238 Y-0.0381
N7460 X-0.0188 Y-0.0415
N7465 G3 X0.004 Y-0.0479 I0.0237 J0.0402
N7470 X0.0324 Y-0.0396 I0.0009 J0.0492
N7475 X0.0549 Y-0.0054 I-0.0296 J0.0441
N7480 X0.0443 Y0.04 I-0.056 J0.0108
N7485 X-0.0019 Y0.0644 I-0.0493 J-0.0372
N7490 X-0.0555 Y0.0421 I-0.0036 J-0.0667
N7495 X-0.0728 Y-0.0192 I0.0537 J-0.0483
N7500 X-0.026 Y-0.0776 I0.0768 J0.0137
N7505 X0.0491 Y-0.073 I0.033 J0.0774
N7510 X0.0944 Y-0.0036 I-0.0449 J0.0788
N7515 X0.0678 Y0.0744 I-0.0962 J0.0108
N7520 X-0.0141 Y0.1061 I-0.0746 J-0.0712
N7525 X-0.0958 Y0.061 I0.0071 J-0.1095
N7530 X-0.1165 Y-0.0283 I0.0936 J-0.0687
N7535 X-0.0771 Y-0.0988 I0.1199 J0.0208
N7540 X0.0096 Y-0.131 I0.0847 J0.0953
N7545 X0.0926 Y-0.1008 I-0.0015 J0.1334
N7550 X0.1407 Y-0.0224 I-0.0878 J0.1078
N7555 X0.1332 Y0.0635 I-0.1409 J0.0309
N7560 X0.0763 Y0.1322 I-0.1383 J-0.0566
N7565 X-0.0021 Y0.1572 I-0.0844 J-0.1293
N7570 X-0.0749 Y0.1428 I-0.0065 J-0.1588
N7575 G1 X-0.0846 Y0.138
N7580 X-0.0941 Y0.1325
N7585 G3 X-0.1475 Y0.0775 I0.088 J-0.1391
N7590 X-0.1678 Y0.025 I0.1443 J-0.086
N7595 X-0.1697 Y-0.0321 I0.1675 J-0.0342
N7600 X-0.1574 Y-0.0771 I0.1722 J0.0233
N7605 G1 X-0.1524 Y-0.0877
N7610 X-0.1467 Y-0.0981
N7615 X-0.1403 Y-0.1081
N7620 X-0.1332 Y-0.1176
N7625 X-0.1255 Y-0.1267
N7630 X-0.1171 Y-0.1353
N7635 X-0.1082 Y-0.1433
N7640 X-0.0987 Y-0.1507
N7645 X-0.0887 Y-0.1575
N7650 X-0.0782 Y-0.1637
N7655 X-0.0673 Y-0.1691
N7660 X-0.056 Y-0.1738
N7665 X-0.0444 Y-0.1778
N7670 X-0.0325 Y-0.181
N7675 X-0.0204 Y-0.1833
N7680 X-0.0081 Y-0.1849
N7685 X0.0043 Y-0.1856
N7690 X0.0168
N7695 X0.0293 Y-0.1846
N7700 X0.0417 Y-0.1828
N7705 X0.0541 Y-0.1802
N7710 X0.0663 Y-0.1768
N7715 X0.0782 Y-0.1725
N7720 X0.0899 Y-0.1674
N7725 X0.1012 Y-0.1616
N7730 X0.1122 Y-0.1549
N7735 X0.1227 Y-0.1475
N7740 X0.1328 Y-0.1394
N7745 X0.1423 Y-0.1306
N7750 X0.1512 Y-0.1212
N7755 X0.1577 Y-0.1133
N7760 X0.1595 Y-0.111
N7765 Y-0.1109
N7770 X0.1681 Y-0.0991
N7775 X0.1706 Y-0.0945
N7780 X0.1845 Y-0.0632
N7785 X0.1851 Y-0.0616
N7790 X0.1872 Y-0.0534
N7795 X0.1927 Y-0.0278
N7800 X0.1941 Y-0.0205
N7805 X0.1942 Y-0.0123
N7810 Y0.0123
N7815 X0.1941 Y0.0205
N7820 X0.1925 Y0.0288
N7825 X0.1872 Y0.0534
N7830 X0.1851 Y0.0616
N7835 X0.1845 Y0.0632
N7840 X0.1706 Y0.0945
N7845 X0.1681 Y0.0991
N7850 X0.1476 Y0.1273
N7855 X0.1457 Y0.1298
N7860 X0.1435 Y0.1322
N7865 X0.1189 Y0.1543
N7870 X0.1149 Y0.1577
N7875 X0.1107 Y0.1604
N7880 X0.0826 Y0.1766
N7885 X0.0779 Y0.1789
N7890 X0.0533 Y0.1869
N7895 X0.0451 Y0.1896
N7900 X0.041 Y0.1908
N7905 X0.0369 Y0.1914
N7910 X0.0041 Y0.1949
N7915 X0. Y0.1952
N7920 X-0.0041 Y0.1949
N7925 X-0.0369 Y0.1914
N7930 X-0.041 Y0.1908
N7935 X-0.0451 Y0.1896
N7940 X-0.0697 Y0.1816
N7945 X-0.0779 Y0.1789
N7950 X-0.0826 Y0.1766
N7955 X-0.111 Y0.1602
N7960 X-0.1149 Y0.1577
N7965 X-0.1189 Y0.1543
N7970 X-0.1435 Y0.1322
N7975 X-0.1457 Y0.1298
N7980 X-0.1476 Y0.1273
N7985 X-0.1681 Y0.0991
N7990 X-0.1706 Y0.0945
N7995 X-0.1845 Y0.0632
N8000 X-0.1851 Y0.0616
N8005 X-0.1872 Y0.0534
N8010 X-0.1927 Y0.0278
N8015 X-0.1941 Y0.0205
N8020 X-0.1942 Y0.0123
N8025 Y-0.0123
N8030 X-0.1941 Y-0.0205
N8035 X-0.1925 Y-0.0288
N8040 X-0.1872 Y-0.0534
N8045 X-0.1851 Y-0.0616
N8050 X-0.1845 Y-0.0632
N8055 X-0.1706 Y-0.0945
N8060 X-0.1681 Y-0.0991
N8065 X-0.1476 Y-0.1273
N8070 X-0.1457 Y-0.1298
N8075 X-0.1435 Y-0.1322
N8080 X-0.1189 Y-0.1543
N8085 X-0.1149 Y-0.1577
N8090 X-0.1107 Y-0.1604
N8095 X-0.0826 Y-0.1766
N8100 X-0.0779 Y-0.1789
N8105 X-0.0533 Y-0.1869
N8110 X-0.0451 Y-0.1896
N8115 X-0.041 Y-0.1908
N8120 X-0.0369 Y-0.1914
N8125 X-0.0041 Y-0.1949
N8130 X0. Y-0.1952
N8135 X0.0041 Y-0.1949
N8140 X0.0369 Y-0.1914
N8145 X0.041 Y-0.1908
N8150 X0.0451 Y-0.1896
N8155 X0.0697 Y-0.1816
N8160 X0.0779 Y-0.1789
N8165 X0.0826 Y-0.1766
N8170 X0.111 Y-0.1602
N8175 X0.1149 Y-0.1577
N8180 X0.1189 Y-0.1543
N8185 X0.1435 Y-0.1322
N8190 X0.1457 Y-0.1298
N8195 X0.1476 Y-0.1273
N8200 X0.1595 Y-0.111
N8205 X0.161 Y-0.1084
N8210 X0.1622 Y-0.1057
N8215 X0.1627 Y-0.1028 Z-0.2798
N8220 X0.1632 Y-0.0999 Z-0.2793
N8225 X0.1637 Y-0.0971 Z-0.2784
N8230 Y-0.097
N8235 X0.1632 Y-0.0938 Z-0.2769
N8240 X0.1627 Y-0.0909 Z-0.2749
N8245 X0.1622 Y-0.0883 Z-0.2726
N8250 X0.161 Y-0.0861 Z-0.2696
N8255 X0.16 Y-0.0844 Z-0.2663
N8260 X0.1593 Y-0.0831 Z-0.2627
N8265 X0.1589 Y-0.0823 Z-0.2589
N8270 X0.1587 Y-0.082 Z-0.255
N8275 G0 Z0.2
N8280 G1 X0. Y0. F300.
N8285 G0 Z-0.155
N8290 G1 Z-0.18 F18.
N8295 Z-0.3 F3.
N8300 X-0.0002 Y-0.0015 F18.
N8305 X0.001 Y-0.0025
N8310 X0.0024 Y-0.0021
N8315 X0.0034 Y-0.001
N8320 X0.0038 Y0.0005
N8325 X0.0035 Y0.002
N8330 X0.0027 Y0.0032
N8335 X0.0015 Y0.0041
N8340 X0. Y0.0045
N8345 X-0.0014 Y0.0043
N8350 X-0.0028 Y0.0037
N8355 X-0.0039 Y0.0027
N8360 X-0.0053 Y0.
N8365 X-0.0052 Y-0.003
N8370 X-0.0039 Y-0.0057
N8375 X-0.0015 Y-0.0075
N8380 X0.0014 Y-0.0082
N8385 X0.0044 Y-0.0078
N8390 X0.0071 Y-0.0065
N8395 X0.0092 Y-0.0043
N8400 X0.0105 Y-0.0016
N8405 X0.0109 Y0.0014
N8410 X0.0106 Y0.0043
N8415 X0.0094 Y0.0071
N8420 X0.0057 Y0.0118
N8425 X0.0002 Y0.0141
N8430 X-0.0058 Y0.0138
N8435 X-0.0112 Y0.0111
N8440 X-0.0152 Y0.0067
N8445 X-0.0175 Y0.0011
N8450 X-0.0178 Y-0.0049
N8455 X-0.0162 Y-0.0106
N8460 X-0.0129 Y-0.0157
N8465 X-0.0084 Y-0.0195
N8470 X-0.0029 Y-0.022
N8475 X0.0031 Y-0.0228
N8480 X0.009 Y-0.0221
N8485 X0.0146 Y-0.0199
N8490 X0.0195 Y-0.0164
N8495 X0.0234 Y-0.0118
N8500 X0.0261 Y-0.0065
N8505 X0.0276 Y-0.0007
N8510 X0.0279 Y0.0053
N8515 X0.0268 Y0.0112
N8520 X0.0247 Y0.0168
N8525 X0.0214 Y0.0219
N8530 X0.0172 Y0.0262
N8535 X0.0123 Y0.0296
N8540 X0.0068 Y0.032
N8545 X0.001 Y0.0334
N8550 X-0.005 Y0.0337
N8555 X-0.011 Y0.033
N8560 X-0.0167 Y0.0312
N8565 X-0.0221 Y0.0285
N8570 X-0.0269 Y0.025
N8575 X-0.0312 Y0.0207
N8580 X-0.0346 Y0.0158
N8585 X-0.0373 Y0.0105
N8590 X-0.0392 Y0.0048
N8595 X-0.0401 Y-0.0012
N8600 X-0.0402 Y-0.0072
N8605 X-0.0394 Y-0.0131
N8610 X-0.0377 Y-0.0189
N8615 X-0.0353 Y-0.0243
N8620 X-0.0321 Y-0.0294
N8625 X-0.0282 Y-0.034
N8630 X-0.0238 Y-0.0381
N8635 X-0.0188 Y-0.0415
N8640 G3 X0.004 Y-0.0479 I0.0237 J0.0402
N8645 X0.0324 Y-0.0396 I0.0009 J0.0492
N8650 X0.0549 Y-0.0054 I-0.0296 J0.0441
N8655 X0.0443 Y0.04 I-0.056 J0.0108
N8660 X-0.0019 Y0.0644 I-0.0493 J-0.0372
N8665 X-0.0555 Y0.0421 I-0.0036 J-0.0667
N8670 X-0.0728 Y-0.0192 I0.0537 J-0.0483
N8675 X-0.026 Y-0.0776 I0.0768 J0.0137
N8680 X0.0491 Y-0.073 I0.033 J0.0774
N8685 X0.0944 Y-0.0036 I-0.0449 J0.0788
N8690 X0.0678 Y0.0744 I-0.0962 J0.0108
N8695 X-0.0141 Y0.1061 I-0.0746 J-0.0712
N8700 X-0.0958 Y0.061 I0.0071 J-0.1095
N8705 X-0.1165 Y-0.0283 I0.0936 J-0.0687
N8710 X-0.0771 Y-0.0988 I0.1199 J0.0208
N8715 X0.0096 Y-0.131 I0.0847 J0.0953
N8720 X0.0926 Y-0.1008 I-0.0015 J0.1334
N8725 X0.1407 Y-0.0224 I-0.0878 J0.1078
N8730 X0.1332 Y0.0635 I-0.1409 J0.0309
N8735 X0.0763 Y0.1322 I-0.1383 J-0.0566
N8740 X-0.0021 Y0.1572 I-0.0844 J-0.1293
N8745 X-0.0749 Y0.1428 I-0.0065 J-0.1588
N8750 G1 X-0.0846 Y0.138
N8755 X-0.0941 Y0.1325
N8760 G3 X-0.1475 Y0.0775 I0.088 J-0.1391
N8765 X-0.1678 Y0.025 I0.1443 J-0.086
N8770 X-0.1697 Y-0.0321 I0.1675 J-0.0342
N8775 X-0.1574 Y-0.0771 I0.1722 J0.0233
N8780 G1 X-0.1524 Y-0.0877
N8785 X-0.1467 Y-0.0981
N8790 X-0.1403 Y-0.1081
N8795 X-0.1332 Y-0.1176
N8800 X-0.1255 Y-0.1267
N8805 X-0.1171 Y-0.1353
N8810 X-0.1082 Y-0.1433
N8815 X-0.0987 Y-0.1507
N8820 X-0.0887 Y-0.1575
N8825 X-0.0782 Y-0.1637
N8830 X-0.0673 Y-0.1691
N8835 X-0.056 Y-0.1738
N8840 X-0.0444 Y-0.1778
N8845 X-0.0325 Y-0.181
N8850 X-0.0204 Y-0.1833
N8855 X-0.0081 Y-0.1849
N8860 X0.0043 Y-0.1856
N8865 X0.0168
N8870 X0.0293 Y-0.1846
N8875 X0.0417 Y-0.1828
N8880 X0.0541 Y-0.1802
N8885 X0.0663 Y-0.1768
N8890 X0.0782 Y-0.1725
N8895 X0.0899 Y-0.1674
N8900 X0.1012 Y-0.1616
N8905 X0.1122 Y-0.1549
N8910 X0.1227 Y-0.1475
N8915 X0.1328 Y-0.1394
N8920 X0.1423 Y-0.1306
N8925 X0.1512 Y-0.1212
N8930 X0.1577 Y-0.1133
N8935 X0.1595 Y-0.111
N8940 Y-0.1109
N8945 X0.1681 Y-0.0991
N8950 X0.1706 Y-0.0945
N8955 X0.1845 Y-0.0632
N8960 X0.1851 Y-0.0616
N8965 X0.1872 Y-0.0534
N8970 X0.1927 Y-0.0278
N8975 X0.1941 Y-0.0205
N8980 X0.1942 Y-0.0123
N8985 Y0.0123
N8990 X0.1941 Y0.0205
N8995 X0.1925 Y0.0288
N9000 X0.1872 Y0.0534
N9005 X0.1851 Y0.0616
N9010 X0.1845 Y0.0632
N9015 X0.1706 Y0.0945
N9020 X0.1681 Y0.0991
N9025 X0.1476 Y0.1273
N9030 X0.1457 Y0.1298
N9035 X0.1435 Y0.1322
N9040 X0.1189 Y0.1543
N9045 X0.1149 Y0.1577
N9050 X0.1107 Y0.1604
N9055 X0.0826 Y0.1766
N9060 X0.0779 Y0.1789
N9065 X0.0533 Y0.1869
N9070 X0.0451 Y0.1896
N9075 X0.041 Y0.1908
N9080 X0.0369 Y0.1914
N9085 X0.0041 Y0.1949
N9090 X0. Y0.1952
N9095 X-0.0041 Y0.1949
N9100 X-0.0369 Y0.1914
N9105 X-0.041 Y0.1908
N9110 X-0.0451 Y0.1896
N9115 X-0.0697 Y0.1816
N9120 X-0.0779 Y0.1789
N9125 X-0.0826 Y0.1766
N9130 X-0.111 Y0.1602
N9135 X-0.1149 Y0.1577
N9140 X-0.1189 Y0.1543
N9145 X-0.1435 Y0.1322
N9150 X-0.1457 Y0.1298
N9155 X-0.1476 Y0.1273
N9160 X-0.1681 Y0.0991
N9165 X-0.1706 Y0.0945
N9170 X-0.1845 Y0.0632
N9175 X-0.1851 Y0.0616
N9180 X-0.1872 Y0.0534
N9185 X-0.1927 Y0.0278
N9190 X-0.1941 Y0.0205
N9195 X-0.1942 Y0.0123
N9200 Y-0.0123
N9205 X-0.1941 Y-0.0205
N9210 X-0.1925 Y-0.0288
N9215 X-0.1872 Y-0.0534
N9220 X-0.1851 Y-0.0616
N9225 X-0.1845 Y-0.0632
N9230 X-0.1706 Y-0.0945
N9235 X-0.1681 Y-0.0991
N9240 X-0.1476 Y-0.1273
N9245 X-0.1457 Y-0.1298
N9250 X-0.1435 Y-0.1322
N9255 X-0.1189 Y-0.1543
N9260 X-0.1149 Y-0.1577
N9265 X-0.1107 Y-0.1604
N9270 X-0.0826 Y-0.1766
N9275 X-0.0779 Y-0.1789
N9280 X-0.0533 Y-0.1869
N9285 X-0.0451 Y-0.1896
N9290 X-0.041 Y-0.1908
N9295 X-0.0369 Y-0.1914
N9300 X-0.0041 Y-0.1949
N9305 X0. Y-0.1952
N9310 X0.0041 Y-0.1949
N9315 X0.0369 Y-0.1914
N9320 X0.041 Y-0.1908
N9325 X0.0451 Y-0.1896
N9330 X0.0697 Y-0.1816
N9335 X0.0779 Y-0.1789
N9340 X0.0826 Y-0.1766
N9345 X0.111 Y-0.1602
N9350 X0.1149 Y-0.1577
N9355 X0.1189 Y-0.1543
N9360 X0.1435 Y-0.1322
N9365 X0.1457 Y-0.1298
N9370 X0.1476 Y-0.1273
N9375 X0.1595 Y-0.111
N9380 G3 X0.1587 Y-0.082 I-0.0207 J0.014
N9385 G1 X0.1564 Y-0.0789 Z-0.2997
N9390 X0.1541 Y-0.0758 Z-0.2988
N9395 X0.1519 Y-0.0729 Z-0.2973
N9400 X0.1499 Y-0.0702 Z-0.2952
N9405 X0.1481 Y-0.0679 Z-0.2927
N9410 X0.1466 Y-0.0658 Z-0.2897
N9415 X0.1454 Y-0.0642 Z-0.2863
N9420 X0.1445 Y-0.063 Z-0.2827
N9425 X0.1439 Y-0.0622 Z-0.2789
N9430 X0.1437 Y-0.062 Z-0.275
N9435 G0 Z0.6

(2D Adaptive3 2)
N9440 G1 X0. Y0. F300.
N9445 G0 Z0.6
N9450 Z-0.175
N9455 G1 Z-0.2 F18.
N9460 Z-0.34 F3.
N9465 X0.0013 Y-0.0007 F18.
N9470 X0.0027 Y0.
N9475 X0.0028 Y0.0015
N9480 X0.0022 Y0.0028
N9485 X0.0009 Y0.0037
N9490 X-0.0005 Y0.004
N9495 X-0.002 Y0.0037
N9500 X-0.0033 Y0.0029
N9505 X-0.0041 Y0.0017
N9510 X-0.0046 Y0.0002
N9515 X-0.0045 Y-0.0013
N9520 X-0.0039 Y-0.0026
N9525 X-0.002 Y-0.0049
N9530 X0.0009 Y-0.006
N9535 X0.0038 Y-0.0057
N9540 X0.0064 Y-0.0041
N9545 X0.0082 Y-0.0017
N9550 X0.0089 Y0.0012
N9555 X0.0086 Y0.0042
N9560 X0.0074 Y0.0069
N9565 X0.0054 Y0.0091
N9570 X0.0028 Y0.0107
N9575 X-0.0001 Y0.0114
N9580 X-0.0031
N9585 X-0.0089 Y0.0097
N9590 X-0.0131 Y0.0054
N9595 X-0.0149 Y-0.0003
N9600 X-0.0144 Y-0.0063
N9605 X-0.0118 Y-0.0117
N9610 X-0.0075 Y-0.0159
N9615 G3 X0.0236 Y0.0062 I0.0106 J0.018
N9620 X-0.0228 Y0.0221 I-0.0275 J-0.0045
N9625 X-0.0135 Y-0.0374 I0.023 J-0.0269
N9630 X0.0477 Y-0.0082 I0.019 J0.0389
N9635 X-0.003 Y0.0576 I-0.0506 J0.0134
N9640 X-0.0664 Y-0.0072 I-0.0021 J-0.0612
N9645 X0.0149 Y-0.0756 I0.0711 J0.002
N9650 X0.0856 Y0.0187 I-0.0093 J0.0806
N9655 X-0.0183 Y0.0967 I-0.091 J-0.013
N9660 X-0.1083 Y-0.0171 I0.0122 J-0.1021
N9665 X0.0075 Y-0.121 I0.1138 J0.0104
N9670 X0.1331 Y-0.0048 I0.0002 J0.1258
N9675 X0.0873 Y0.1107 I-0.1327 J0.0142
N9680 G1 X0.0697 Y0.1227
N9685 X0.0656 Y0.1252
N9690 X0.0615 Y0.127
N9695 X0.0369 Y0.1363
N9700 X0.0328 Y0.1375
N9705 X0.0287 Y0.1381
N9710 X0.0041 Y0.1411
N9715 X0. Y0.1414
N9720 X-0.0041 Y0.1411
N9725 X-0.0287 Y0.1381
N9730 X-0.0328 Y0.1375
N9735 X-0.0369 Y0.1363
N9740 X-0.0615 Y0.127
N9745 X-0.0656 Y0.1252
N9750 G3 X-0.0969 Y0.1028 I0.1162 J-0.1955
N9755 G1 X-0.115 Y0.0822
N9760 X-0.1165 Y0.0801
N9765 X-0.1178 Y0.078
N9770 X-0.1307 Y0.0534
N9775 X-0.1325 Y0.0493
N9780 X-0.1336 Y0.0452
N9785 X-0.1397 Y0.0205
N9790 X-0.1404 Y0.0164
N9795 X-0.1405 Y0.0123
N9800 Y-0.0123
N9805 X-0.1404 Y-0.0164
N9810 X-0.1397 Y-0.0205
N9815 X-0.1336 Y-0.0452
N9820 X-0.1325 Y-0.0493
N9825 X-0.1307 Y-0.0534
N9830 X-0.1178 Y-0.078
N9835 X-0.1165 Y-0.0801
N9840 X-0.115 Y-0.0822
N9845 X-0.0968 Y-0.1027
N9850 G3 X-0.0656 Y-0.1252 I0.1232 J0.1382
N9855 G1 X-0.0615 Y-0.127
N9860 X-0.0369 Y-0.1363
N9865 X-0.0328 Y-0.1375
N9870 X-0.0287 Y-0.1381
N9875 X-0.0041 Y-0.1411
N9880 X0. Y-0.1414
N9885 X0.0041 Y-0.1411
N9890 X0.0287 Y-0.1381
N9895 X0.0328 Y-0.1375
N9900 X0.0369 Y-0.1363
N9905 X0.0615 Y-0.127
N9910 X0.0656 Y-0.1252
N9915 G3 X0.0969 Y-0.1028 I-0.1162 J0.1955
N9920 G1 X0.115 Y-0.0822
N9925 X0.1165 Y-0.0801
N9930 X0.1178 Y-0.078
N9935 X0.1307 Y-0.0534
N9940 X0.1325 Y-0.0493
N9945 X0.1336 Y-0.0452
N9950 X0.1397 Y-0.0205
N9955 X0.1404 Y-0.0164
N9960 X0.1405 Y-0.0123
N9965 Y0.0123
N9970 X0.1404 Y0.0164
N9975 X0.1397 Y0.0205
N9980 X0.1336 Y0.0452
N9985 X0.1325 Y0.0493
N9990 X0.1307 Y0.0534
N9995 X0.1178 Y0.078
N10000 X0.1165 Y0.0801
N10005 X0.115 Y0.0822
N10010 X0.0968 Y0.1027
N10015 X0.0943 Y0.1054
N10020 X0.0872 Y0.1106
N10025 X0.0847 Y0.1121
N10030 X0.082 Y0.1133
N10035 X0.079 Y0.1139 Z-0.3398
N10040 X0.0761 Y0.1144 Z-0.3393
N10045 X0.0733 Y0.1149 Z-0.3384
N10050 X0.0731 Z-0.3383
N10055 X0.0699 Y0.1144 Z-0.3368
N10060 X0.067 Y0.1139 Z-0.3348
N10065 X0.0644 Y0.1134 Z-0.3324
N10070 X0.0623 Y0.1122 Z-0.3295
N10075 X0.0605 Y0.1113 Z-0.3262
N10080 X0.0592 Y0.1106 Z-0.3226
N10085 X0.0585 Y0.1102 Z-0.3189
N10090 X0.0582 Y0.11 Z-0.315
N10095 G0 Z0.2
N10100 G1 X0. Y0. F300.
N10105 G0 Z-0.215
N10110 G1 Z-0.24 F18.
N10115 Z-0.38 F3.
N10120 X0.0013 Y-0.0007 F18.
N10125 X0.0027 Y0.
N10130 X0.0028 Y0.0015
N10135 X0.0022 Y0.0028
N10140 X0.0009 Y0.0037
N10145 X-0.0005 Y0.004
N10150 X-0.002 Y0.0037
N10155 X-0.0033 Y0.0029
N10160 X-0.0041 Y0.0017
N10165 X-0.0046 Y0.0002
N10170 X-0.0045 Y-0.0013
N10175 X-0.0039 Y-0.0026
N10180 X-0.002 Y-0.0049
N10185 X0.0009 Y-0.006
N10190 X0.0038 Y-0.0057
N10195 X0.0064 Y-0.0041
N10200 X0.0082 Y-0.0017
N10205 X0.0089 Y0.0012
N10210 X0.0086 Y0.0042
N10215 X0.0074 Y0.0069
N10220 X0.0054 Y0.0091
N10225 X0.0028 Y0.0107
N10230 X-0.0001 Y0.0114
N10235 X-0.0031
N10240 X-0.0089 Y0.0097
N10245 X-0.0131 Y0.0054
N10250 X-0.0149 Y-0.0003
N10255 X-0.0144 Y-0.0063
N10260 X-0.0118 Y-0.0117
N10265 X-0.0075 Y-0.0159
N10270 G3 X0.0236 Y0.0062 I0.0106 J0.018
N10275 X-0.0228 Y0.0221 I-0.0275 J-0.0045
N10280 X-0.0135 Y-0.0374 I0.023 J-0.0269
N10285 X0.0477 Y-0.0082 I0.019 J0.0389
N10290 X-0.003 Y0.0576 I-0.0506 J0.0134
N10295 X-0.0664 Y-0.0072 I-0.0021 J-0.0612
N10300 X0.0149 Y-0.0756 I0.0711 J0.002
N10305 X0.0856 Y0.0187 I-0.0093 J0.0806
N10310 X-0.0183 Y0.0967 I-0.091 J-0.013
N10315 X-0.1083 Y-0.0171 I0.0122 J-0.1021
N10320 X0.0075 Y-0.121 I0.1138 J0.0104
N10325 X0.1331 Y-0.0048 I0.0002 J0.1258
N10330 X0.0873 Y0.1107 I-0.1327 J0.0142
N10335 G1 X0.0697 Y0.1227
N10340 X0.0656 Y0.1252
N10345 X0.0615 Y0.127
N10350 X0.0369 Y0.1363
N10355 X0.0328 Y0.1375
N10360 X0.0287 Y0.1381
N10365 X0.0041 Y0.1411
N10370 X0. Y0.1414
N10375 X-0.0041 Y0.1411
N10380 X-0.0287 Y0.1381
N10385 X-0.0328 Y0.1375
N10390 X-0.0369 Y0.1363
N10395 X-0.0615 Y0.127
N10400 X-0.0656 Y0.1252
N10405 G3 X-0.0969 Y0.1028 I0.1162 J-0.1955
N10410 G1 X-0.115 Y0.0822
N10415 X-0.1165 Y0.0801
N10420 X-0.1178 Y0.078
N10425 X-0.1307 Y0.0534
N10430 X-0.1325 Y0.0493
N10435 X-0.1336 Y0.0452
N10440 X-0.1397 Y0.0205
N10445 X-0.1404 Y0.0164
N10450 X-0.1405 Y0.0123
N10455 Y-0.0123
N10460 X-0.1404 Y-0.0164
N10465 X-0.1397 Y-0.0205
N10470 X-0.1336 Y-0.0452
N10475 X-0.1325 Y-0.0493
N10480 X-0.1307 Y-0.0534
N10485 X-0.1178 Y-0.078
N10490 X-0.1165 Y-0.0801
N10495 X-0.115 Y-0.0822
N10500 X-0.0968 Y-0.1027
N10505 G3 X-0.0656 Y-0.1252 I0.1232 J0.1382
N10510 G1 X-0.0615 Y-0.127
N10515 X-0.0369 Y-0.1363
N10520 X-0.0328 Y-0.1375
N10525 X-0.0287 Y-0.1381
N10530 X-0.0041 Y-0.1411
N10535 X0. Y-0.1414
N10540 X0.0041 Y-0.1411
N10545 X0.0287 Y-0.1381
N10550 X0.0328 Y-0.1375
N10555 X0.0369 Y-0.1363
N10560 X0.0615 Y-0.127
N10565 X0.0656 Y-0.1252
N10570 G3 X0.0969 Y-0.1028 I-0.1162 J0.1955
N10575 G1 X0.115 Y-0.0822
N10580 X0.1165 Y-0.0801
N10585 X0.1178 Y-0.078
N10590 X0.1307 Y-0.0534
N10595 X0.1325 Y-0.0493
N10600 X0.1336 Y-0.0452
N10605 X0.1397 Y-0.0205
N10610 X0.1404 Y-0.0164
N10615 X0.1405 Y-0.0123
N10620 Y0.0123
N10625 X0.1404 Y0.0164
N10630 X0.1397 Y0.0205
N10635 X0.1336 Y0.0452
N10640 X0.1325 Y0.0493
N10645 X0.1307 Y0.0534
N10650 X0.1178 Y0.078
N10655 X0.1165 Y0.0801
N10660 X0.115 Y0.0822
N10665 X0.0968 Y0.1027
N10670 X0.0943 Y0.1054
N10675 X0.0872 Y0.1106
N10680 X0.0847 Y0.1121
N10685 X0.082 Y0.1133
N10690 X0.079 Y0.1139 Z-0.3798
N10695 X0.0761 Y0.1144 Z-0.3793
N10700 X0.0733 Y0.1149 Z-0.3784
N10705 X0.0731 Z-0.3783
N10710 X0.0699 Y0.1144 Z-0.3768
N10715 X0.067 Y0.1139 Z-0.3748
N10720 X0.0644 Y0.1134 Z-0.3724
N10725 X0.0623 Y0.1122 Z-0.3695
N10730 X0.0605 Y0.1113 Z-0.3662
N10735 X0.0592 Y0.1106 Z-0.3626
N10740 X0.0585 Y0.1102 Z-0.3589
N10745 X0.0582 Y0.11 Z-0.355
N10750 G0 Z0.2
N10755 G1 X0. Y0. F300.
N10760 G0 Z-0.255
N10765 G1 Z-0.28 F18.
N10770 Z-0.42 F3.
N10775 X0.0013 Y-0.0007 F18.
N10780 X0.0027 Y0.
N10785 X0.0028 Y0.0015
N10790 X0.0022 Y0.0028
N10795 X0.0009 Y0.0037
N10800 X-0.0005 Y0.004
N10805 X-0.002 Y0.0037
N10810 X-0.0033 Y0.0029
N10815 X-0.0041 Y0.0017
N10820 X-0.0046 Y0.0002
N10825 X-0.0045 Y-0.0013
N10830 X-0.0039 Y-0.0026
N10835 X-0.002 Y-0.0049
N10840 X0.0009 Y-0.006
N10845 X0.0038 Y-0.0057
N10850 X0.0064 Y-0.0041
N10855 X0.0082 Y-0.0017
N10860 X0.0089 Y0.0012
N10865 X0.0086 Y0.0042
N10870 X0.0074 Y0.0069
N10875 X0.0054 Y0.0091
N10880 X0.0028 Y0.0107
N10885 X-0.0001 Y0.0114
N10890 X-0.0031
N10895 X-0.0089 Y0.0097
N10900 X-0.0131 Y0.0054
N10905 X-0.0149 Y-0.0003
N10910 X-0.0144 Y-0.0063
N10915 X-0.0118 Y-0.0117
N10920 X-0.0075 Y-0.0159
N10925 G3 X0.0236 Y0.0062 I0.0106 J0.018
N10930 X-0.0228 Y0.0221 I-0.0275 J-0.0045
N10935 X-0.0135 Y-0.0374 I0.023 J-0.0269
N10940 X0.0477 Y-0.0082 I0.019 J0.0389
N10945 X-0.003 Y0.0576 I-0.0506 J0.0134
N10950 X-0.0664 Y-0.0072 I-0.0021 J-0.0612
N10955 X0.0149 Y-0.0756 I0.0711 J0.002
N10960 X0.0856 Y0.0187 I-0.0093 J0.0806
N10965 X-0.0183 Y0.0967 I-0.091 J-0.013
N10970 X-0.1083 Y-0.0171 I0.0122 J-0.1021
N10975 X0.0075 Y-0.121 I0.1138 J0.0104
N10980 X0.1331 Y-0.0048 I0.0002 J0.1258
N10985 X0.0873 Y0.1107 I-0.1327 J0.0142
N10990 G1 X0.0697 Y0.1227
N10995 X0.0656 Y0.1252
N11000 X0.0615 Y0.127
N11005 X0.0369 Y0.1363
N11010 X0.0328 Y0.1375
N11015 X0.0287 Y0.1381
N11020 X0.0041 Y0.1411
N11025 X0. Y0.1414
N11030 X-0.0041 Y0.1411
N11035 X-0.0287 Y0.1381
N11040 X-0.0328 Y0.1375
N11045 X-0.0369 Y0.1363
N11050 X-0.0615 Y0.127
N11055 X-0.0656 Y0.1252
N11060 G3 X-0.0969 Y0.1028 I0.1162 J-0.1955
N11065 G1 X-0.115 Y0.0822
N11070 X-0.1165 Y0.0801
N11075 X-0.1178 Y0.078
N11080 X-0.1307 Y0.0534
N11085 X-0.1325 Y0.0493
N11090 X-0.1336 Y0.0452
N11095 X-0.1397 Y0.0205
N11100 X-0.1404 Y0.0164
N11105 X-0.1405 Y0.0123
N11110 Y-0.0123
N11115 X-0.1404 Y-0.0164
N11120 X-0.1397 Y-0.0205
N11125 X-0.1336 Y-0.0452
N11130 X-0.1325 Y-0.0493
N11135 X-0.1307 Y-0.0534
N11140 X-0.1178 Y-0.078
N11145 X-0.1165 Y-0.0801
N11150 X-0.115 Y-0.0822
N11155 X-0.0968 Y-0.1027
N11160 G3 X-0.0656 Y-0.1252 I0.1232 J0.1382
N11165 G1 X-0.0615 Y-0.127
N11170 X-0.0369 Y-0.1363
N11175 X-0.0328 Y-0.1375
N11180 X-0.0287 Y-0.1381
N11185 X-0.0041 Y-0.1411
N11190 X0. Y-0.1414
N11195 X0.0041 Y-0.1411
N11200 X0.0287 Y-0.1381
N11205 X0.0328 Y-0.1375
N11210 X0.0369 Y-0.1363
N11215 X0.0615 Y-0.127
N11220 X0.0656 Y-0.1252
N11225 G3 X0.0969 Y-0.1028 I-0.1162 J0.1955
N11230 G1 X0.115 Y-0.0822
N11235 X0.1165 Y-0.0801
N11240 X0.1178 Y-0.078
N11245 X0.1307 Y-0.0534
N11250 X0.1325 Y-0.0493
N11255 X0.1336 Y-0.0452
N11260 X0.1397 Y-0.0205
N11265 X0.1404 Y-0.0164
N11270 X0.1405 Y-0.0123
N11275 Y0.0123
N11280 X0.1404 Y0.0164
N11285 X0.1397 Y0.0205
N11290 X0.1336 Y0.0452
N11295 X0.1325 Y0.0493
N11300 X0.1307 Y0.0534
N11305 X0.1178 Y0.078
N11310 X0.1165 Y0.0801
N11315 X0.115 Y0.0822
N11320 X0.0968 Y0.1027
N11325 X0.0943 Y0.1054
N11330 X0.0872 Y0.1106
N11335 X0.0847 Y0.1121
N11340 X0.082 Y0.1133
N11345 X0.079 Y0.1139 Z-0.4198
N11350 X0.0761 Y0.1144 Z-0.4193
N11355 X0.0733 Y0.1149 Z-0.4184
N11360 X0.0731 Z-0.4183
N11365 X0.0699 Y0.1144 Z-0.4168
N11370 X0.067 Y0.1139 Z-0.4148
N11375 X0.0644 Y0.1134 Z-0.4124
N11380 X0.0623 Y0.1122 Z-0.4095
N11385 X0.0605 Y0.1113 Z-0.4062
N11390 X0.0592 Y0.1106 Z-0.4026
N11395 X0.0585 Y0.1102 Z-0.3989
N11400 X0.0582 Y0.11 Z-0.395
N11405 G0 Z0.2
N11410 G1 X0. Y0. F300.
N11415 G0 Z-0.295
N11420 G1 Z-0.32 F18.
N11425 Z-0.46 F3.
N11430 X0.0013 Y-0.0007 F18.
N11435 X0.0027 Y0.
N11440 X0.0028 Y0.0015
N11445 X0.0022 Y0.0028
N11450 X0.0009 Y0.0037
N11455 X-0.0005 Y0.004
N11460 X-0.002 Y0.0037
N11465 X-0.0033 Y0.0029
N11470 X-0.0041 Y0.0017
N11475 X-0.0046 Y0.0002
N11480 X-0.0045 Y-0.0013
N11485 X-0.0039 Y-0.0026
N11490 X-0.002 Y-0.0049
N11495 X0.0009 Y-0.006
N11500 X0.0038 Y-0.0057
N11505 X0.0064 Y-0.0041
N11510 X0.0082 Y-0.0017
N11515 X0.0089 Y0.0012
N11520 X0.0086 Y0.0042
N11525 X0.0074 Y0.0069
N11530 X0.0054 Y0.0091
N11535 X0.0028 Y0.0107
N11540 X-0.0001 Y0.0114
N11545 X-0.0031
N11550 X-0.0089 Y0.0097
N11555 X-0.0131 Y0.0054
N11560 X-0.0149 Y-0.0003
N11565 X-0.0144 Y-0.0063
N11570 X-0.0118 Y-0.0117
N11575 X-0.0075 Y-0.0159
N11580 G3 X0.0236 Y0.0062 I0.0106 J0.018
N11585 X-0.0228 Y0.0221 I-0.0275 J-0.0045
N11590 X-0.0135 Y-0.0374 I0.023 J-0.0269
N11595 X0.0477 Y-0.0082 I0.019 J0.0389
N11600 X-0.003 Y0.0576 I-0.0506 J0.0134
N11605 X-0.0664 Y-0.0072 I-0.0021 J-0.0612
N11610 X0.0149 Y-0.0756 I0.0711 J0.002
N11615 X0.0856 Y0.0187 I-0.0093 J0.0806
N11620 X-0.0183 Y0.0967 I-0.091 J-0.013
N11625 X-0.1083 Y-0.0171 I0.0122 J-0.1021
N11630 X0.0075 Y-0.121 I0.1138 J0.0104
N11635 X0.1331 Y-0.0048 I0.0002 J0.1258
N11640 X0.0873 Y0.1107 I-0.1327 J0.0142
N11645 G1 X0.0697 Y0.1227
N11650 X0.0656 Y0.1252
N11655 X0.0615 Y0.127
N11660 X0.0369 Y0.1363
N11665 X0.0328 Y0.1375
N11670 X0.0287 Y0.1381
N11675 X0.0041 Y0.1411
N11680 X0. Y0.1414
N11685 X-0.0041 Y0.1411
N11690 X-0.0287 Y0.1381
N11695 X-0.0328 Y0.1375
N11700 X-0.0369 Y0.1363
N11705 X-0.0615 Y0.127
N11710 X-0.0656 Y0.1252
N11715 G3 X-0.0969 Y0.1028 I0.1162 J-0.1955
N11720 G1 X-0.115 Y0.0822
N11725 X-0.1165 Y0.0801
N11730 X-0.1178 Y0.078
N11735 X-0.1307 Y0.0534
N11740 X-0.1325 Y0.0493
N11745 X-0.1336 Y0.0452
N11750 X-0.1397 Y0.0205
N11755 X-0.1404 Y0.0164
N11760 X-0.1405 Y0.0123
N11765 Y-0.0123
N11770 X-0.1404 Y-0.0164
N11775 X-0.1397 Y-0.0205
N11780 X-0.1336 Y-0.0452
N11785 X-0.1325 Y-0.0493
N11790 X-0.1307 Y-0.0534
N11795 X-0.1178 Y-0.078
N11800 X-0.1165 Y-0.0801
N11805 X-0.115 Y-0.0822
N11810 X-0.0968 Y-0.1027
N11815 G3 X-0.0656 Y-0.1252 I0.1232 J0.1382
N11820 G1 X-0.0615 Y-0.127
N11825 X-0.0369 Y-0.1363
N11830 X-0.0328 Y-0.1375
N11835 X-0.0287 Y-0.1381
N11840 X-0.0041 Y-0.1411
N11845 X0. Y-0.1414
N11850 X0.0041 Y-0.1411
N11855 X0.0287 Y-0.1381
N11860 X0.0328 Y-0.1375
N11865 X0.0369 Y-0.1363
N11870 X0.0615 Y-0.127
N11875 X0.0656 Y-0.1252
N11880 G3 X0.0969 Y-0.1028 I-0.1162 J0.1955
N11885 G1 X0.115 Y-0.0822
N11890 X0.1165 Y-0.0801
N11895 X0.1178 Y-0.078
N11900 X0.1307 Y-0.0534
N11905 X0.1325 Y-0.0493
N11910 X0.1336 Y-0.0452
N11915 X0.1397 Y-0.0205
N11920 X0.1404 Y-0.0164
N11925 X0.1405 Y-0.0123
N11930 Y0.0123
N11935 X0.1404 Y0.0164
N11940 X0.1397 Y0.0205
N11945 X0.1336 Y0.0452
N11950 X0.1325 Y0.0493
N11955 X0.1307 Y0.0534
N11960 X0.1178 Y0.078
N11965 X0.1165 Y0.0801
N11970 X0.115 Y0.0822
N11975 X0.0968 Y0.1027
N11980 X0.0943 Y0.1054
N11985 X0.0872 Y0.1106
N11990 X0.0847 Y0.1121
N11995 X0.082 Y0.1133
N12000 X0.079 Y0.1139 Z-0.4598
N12005 X0.0761 Y0.1144 Z-0.4593
N12010 X0.0733 Y0.1149 Z-0.4584
N12015 X0.0731 Z-0.4583
N12020 X0.0699 Y0.1144 Z-0.4568
N12025 X0.067 Y0.1139 Z-0.4548
N12030 X0.0644 Y0.1134 Z-0.4524
N12035 X0.0623 Y0.1122 Z-0.4495
N12040 X0.0605 Y0.1113 Z-0.4462
N12045 X0.0592 Y0.1106 Z-0.4426
N12050 X0.0585 Y0.1102 Z-0.4389
N12055 X0.0582 Y0.11 Z-0.435
N12060 G0 Z0.2
N12065 G1 X0. Y0. F300.
N12070 G0 Z-0.335
N12075 G1 Z-0.36 F18.
N12080 Z-0.5 F3.
N12085 X0.0013 Y-0.0007 F18.
N12090 X0.0027 Y0.
N12095 X0.0028 Y0.0015
N12100 X0.0022 Y0.0028
N12105 X0.0009 Y0.0037
N12110 X-0.0005 Y0.004
N12115 X-0.002 Y0.0037
N12120 X-0.0033 Y0.0029
N12125 X-0.0041 Y0.0017
N12130 X-0.0046 Y0.0002
N12135 X-0.0045 Y-0.0013
N12140 X-0.0039 Y-0.0026
N12145 X-0.002 Y-0.0049
N12150 X0.0009 Y-0.006
N12155 X0.0038 Y-0.0057
N12160 X0.0064 Y-0.0041
N12165 X0.0082 Y-0.0017
N12170 X0.0089 Y0.0012
N12175 X0.0086 Y0.0042
N12180 X0.0074 Y0.0069
N12185 X0.0054 Y0.0091
N12190 X0.0028 Y0.0107
N12195 X-0.0001 Y0.0114
N12200 X-0.0031
N12205 X-0.0089 Y0.0097
N12210 X-0.0131 Y0.0054
N12215 X-0.0149 Y-0.0003
N12220 X-0.0144 Y-0.0063
N12225 X-0.0118 Y-0.0117
N12230 X-0.0075 Y-0.0159
N12235 G3 X0.0236 Y0.0062 I0.0106 J0.018
N12240 X-0.0228 Y0.0221 I-0.0275 J-0.0045
N12245 X-0.0135 Y-0.0374 I0.023 J-0.0269
N12250 X0.0477 Y-0.0082 I0.019 J0.0389
N12255 X-0.003 Y0.0576 I-0.0506 J0.0134
N12260 X-0.0664 Y-0.0072 I-0.0021 J-0.0612
N12265 X0.0149 Y-0.0756 I0.0711 J0.002
N12270 X0.0856 Y0.0187 I-0.0093 J0.0806
N12275 X-0.0183 Y0.0967 I-0.091 J-0.013
N12280 X-0.1083 Y-0.0171 I0.0122 J-0.1021
N12285 X0.0075 Y-0.121 I0.1138 J0.0104
N12290 X0.1331 Y-0.0048 I0.0002 J0.1258
N12295 X0.0873 Y0.1107 I-0.1327 J0.0142
N12300 G1 X0.0697 Y0.1227
N12305 X0.0656 Y0.1252
N12310 X0.0615 Y0.127
N12315 X0.0369 Y0.1363
N12320 X0.0328 Y0.1375
N12325 X0.0287 Y0.1381
N12330 X0.0041 Y0.1411
N12335 X0. Y0.1414
N12340 X-0.0041 Y0.1411
N12345 X-0.0287 Y0.1381
N12350 X-0.0328 Y0.1375
N12355 X-0.0369 Y0.1363
N12360 X-0.0615 Y0.127
N12365 X-0.0656 Y0.1252
N12370 G3 X-0.0969 Y0.1028 I0.1162 J-0.1955
N12375 G1 X-0.115 Y0.0822
N12380 X-0.1165 Y0.0801
N12385 X-0.1178 Y0.078
N12390 X-0.1307 Y0.0534
N12395 X-0.1325 Y0.0493
N12400 X-0.1336 Y0.0452
N12405 X-0.1397 Y0.0205
N12410 X-0.1404 Y0.0164
N12415 X-0.1405 Y0.0123
N12420 Y-0.0123
N12425 X-0.1404 Y-0.0164
N12430 X-0.1397 Y-0.0205
N12435 X-0.1336 Y-0.0452
N12440 X-0.1325 Y-0.0493
N12445 X-0.1307 Y-0.0534
N12450 X-0.1178 Y-0.078
N12455 X-0.1165 Y-0.0801
N12460 X-0.115 Y-0.0822
N12465 X-0.0968 Y-0.1027
N12470 G3 X-0.0656 Y-0.1252 I0.1232 J0.1382
N12475 G1 X-0.0615 Y-0.127
N12480 X-0.0369 Y-0.1363
N12485 X-0.0328 Y-0.1375
N12490 X-0.0287 Y-0.1381
N12495 X-0.0041 Y-0.1411
N12500 X0. Y-0.1414
N12505 X0.0041 Y-0.1411
N12510 X0.0287 Y-0.1381
N12515 X0.0328 Y-0.1375
N12520 X0.0369 Y-0.1363
N12525 X0.0615 Y-0.127
N12530 X0.0656 Y-0.1252
N12535 G3 X0.0969 Y-0.1028 I-0.1162 J0.1955
N12540 G1 X0.115 Y-0.0822
N12545 X0.1165 Y-0.0801
N12550 X0.1178 Y-0.078
N12555 X0.1307 Y-0.0534
N12560 X0.1325 Y-0.0493
N12565 X0.1336 Y-0.0452
N12570 X0.1397 Y-0.0205
N12575 X0.1404 Y-0.0164
N12580 X0.1405 Y-0.0123
N12585 Y0.0123
N12590 X0.1404 Y0.0164
N12595 X0.1397 Y0.0205
N12600 X0.1336 Y0.0452
N12605 X0.1325 Y0.0493
N12610 X0.1307 Y0.0534
N12615 X0.1178 Y0.078
N12620 X0.1165 Y0.0801
N12625 X0.115 Y0.0822
N12630 X0.0968 Y0.1027
N12635 X0.0943 Y0.1054
N12640 X0.0872 Y0.1106
N12645 X0.0847 Y0.1121
N12650 X0.082 Y0.1133
N12655 X0.079 Y0.1139 Z-0.4998
N12660 X0.0761 Y0.1144 Z-0.4993
N12665 X0.0733 Y0.1149 Z-0.4984
N12670 X0.0731 Z-0.4983
N12675 X0.0699 Y0.1144 Z-0.4968
N12680 X0.067 Y0.1139 Z-0.4948
N12685 X0.0644 Y0.1134 Z-0.4924
N12690 X0.0623 Y0.1122 Z-0.4895
N12695 X0.0605 Y0.1113 Z-0.4862
N12700 X0.0592 Y0.1106 Z-0.4826
N12705 X0.0585 Y0.1102 Z-0.4789
N12710 X0.0582 Y0.11 Z-0.475
N12715 G0 Z0.2
N12720 G1 X0. Y0. F300.
N12725 G0 Z-0.375
N12730 G1 Z-0.4 F18.
N12735 Z-0.54 F3.
N12740 X0.0013 Y-0.0007 F18.
N12745 X0.0027 Y0.
N12750 X0.0028 Y0.0015
N12755 X0.0022 Y0.0028
N12760 X0.0009 Y0.0037
N12765 X-0.0005 Y0.004
N12770 X-0.002 Y0.0037
N12775 X-0.0033 Y0.0029
N12780 X-0.0041 Y0.0017
N12785 X-0.0046 Y0.0002
N12790 X-0.0045 Y-0.0013
N12795 X-0.0039 Y-0.0026
N12800 X-0.002 Y-0.0049
N12805 X0.0009 Y-0.006
N12810 X0.0038 Y-0.0057
N12815 X0.0064 Y-0.0041
N12820 X0.0082 Y-0.0017
N12825 X0.0089 Y0.0012
N12830 X0.0086 Y0.0042
N12835 X0.0074 Y0.0069
N12840 X0.0054 Y0.0091
N12845 X0.0028 Y0.0107
N12850 X-0.0001 Y0.0114
N12855 X-0.0031
N12860 X-0.0089 Y0.0097
N12865 X-0.0131 Y0.0054
N12870 X-0.0149 Y-0.0003
N12875 X-0.0144 Y-0.0063
N12880 X-0.0118 Y-0.0117
N12885 X-0.0075 Y-0.0159
N12890 G3 X0.0236 Y0.0062 I0.0106 J0.018
N12895 X-0.0228 Y0.0221 I-0.0275 J-0.0045
N12900 X-0.0135 Y-0.0374 I0.023 J-0.0269
N12905 X0.0477 Y-0.0082 I0.019 J0.0389
N12910 X-0.003 Y0.0576 I-0.0506 J0.0134
N12915 X-0.0664 Y-0.0072 I-0.0021 J-0.0612
N12920 X0.0149 Y-0.0756 I0.0711 J0.002
N12925 X0.0856 Y0.0187 I-0.0093 J0.0806
N12930 X-0.0183 Y0.0967 I-0.091 J-0.013
N12935 X-0.1083 Y-0.0171 I0.0122 J-0.1021
N12940 X0.0075 Y-0.121 I0.1138 J0.0104
N12945 X0.1331 Y-0.0048 I0.0002 J0.1258
N12950 X0.0873 Y0.1107 I-0.1327 J0.0142
N12955 G1 X0.0697 Y0.1227
N12960 X0.0656 Y0.1252
N12965 X0.0615 Y0.127
N12970 X0.0369 Y0.1363
N12975 X0.0328 Y0.1375
N12980 X0.0287 Y0.1381
N12985 X0.0041 Y0.1411
N12990 X0. Y0.1414
N12995 X-0.0041 Y0.1411
N13000 X-0.0287 Y0.1381
N13005 X-0.0328 Y0.1375
N13010 X-0.0369 Y0.1363
N13015 X-0.0615 Y0.127
N13020 X-0.0656 Y0.1252
N13025 G3 X-0.0969 Y0.1028 I0.1162 J-0.1955
N13030 G1 X-0.115 Y0.0822
N13035 X-0.1165 Y0.0801
N13040 X-0.1178 Y0.078
N13045 X-0.1307 Y0.0534
N13050 X-0.1325 Y0.0493
N13055 X-0.1336 Y0.0452
N13060 X-0.1397 Y0.0205
N13065 X-0.1404 Y0.0164
N13070 X-0.1405 Y0.0123
N13075 Y-0.0123
N13080 X-0.1404 Y-0.0164
N13085 X-0.1397 Y-0.0205
N13090 X-0.1336 Y-0.0452
N13095 X-0.1325 Y-0.0493
N13100 X-0.1307 Y-0.0534
N13105 X-0.1178 Y-0.078
N13110 X-0.1165 Y-0.0801
N13115 X-0.115 Y-0.0822
N13120 X-0.0968 Y-0.1027
N13125 G3 X-0.0656 Y-0.1252 I0.1232 J0.1382
N13130 G1 X-0.0615 Y-0.127
N13135 X-0.0369 Y-0.1363
N13140 X-0.0328 Y-0.1375
N13145 X-0.0287 Y-0.1381
N13150 X-0.0041 Y-0.1411
N13155 X0. Y-0.1414
N13160 X0.0041 Y-0.1411
N13165 X0.0287 Y-0.1381
N13170 X0.0328 Y-0.1375
N13175 X0.0369 Y-0.1363
N13180 X0.0615 Y-0.127
N13185 X0.0656 Y-0.1252
N13190 G3 X0.0969 Y-0.1028 I-0.1162 J0.1955
N13195 G1 X0.115 Y-0.0822
N13200 X0.1165 Y-0.0801
N13205 X0.1178 Y-0.078
N13210 X0.1307 Y-0.0534
N13215 X0.1325 Y-0.0493
N13220 X0.1336 Y-0.0452
N13225 X0.1397 Y-0.0205
N13230 X0.1404 Y-0.0164
N13235 X0.1405 Y-0.0123
N13240 Y0.0123
N13245 X0.1404 Y0.0164
N13250 X0.1397 Y0.0205
N13255 X0.1336 Y0.0452
N13260 X0.1325 Y0.0493
N13265 X0.1307 Y0.0534
N13270 X0.1178 Y0.078
N13275 X0.1165 Y0.0801
N13280 X0.115 Y0.0822
N13285 X0.0968 Y0.1027
N13290 X0.0943 Y0.1054
N13295 X0.0872 Y0.1106
N13300 X0.0847 Y0.1121
N13305 X0.082 Y0.1133
N13310 X0.079 Y0.1139 Z-0.5398
N13315 X0.0761 Y0.1144 Z-0.5393
N13320 X0.0733 Y0.1149 Z-0.5384
N13325 X0.0731 Z-0.5383
N13330 X0.0699 Y0.1144 Z-0.5368
N13335 X0.067 Y0.1139 Z-0.5348
N13340 X0.0644 Y0.1134 Z-0.5324
N13345 X0.0623 Y0.1122 Z-0.5295
N13350 X0.0605 Y0.1113 Z-0.5262
N13355 X0.0592 Y0.1106 Z-0.5226
N13360 X0.0585 Y0.1102 Z-0.5189
N13365 X0.0582 Y0.11 Z-0.515
N13370 G0 Z0.2
N13375 G1 X0. Y0. F300.
N13380 G0 Z-0.415
N13385 G1 Z-0.44 F18.
N13390 Z-0.58 F3.
N13395 X0.0013 Y-0.0007 F18.
N13400 X0.0027 Y0.
N13405 X0.0028 Y0.0015
N13410 X0.0022 Y0.0028
N13415 X0.0009 Y0.0037
N13420 X-0.0005 Y0.004
N13425 X-0.002 Y0.0037
N13430 X-0.0033 Y0.0029
N13435 X-0.0041 Y0.0017
N13440 X-0.0046 Y0.0002
N13445 X-0.0045 Y-0.0013
N13450 X-0.0039 Y-0.0026
N13455 X-0.002 Y-0.0049
N13460 X0.0009 Y-0.006
N13465 X0.0038 Y-0.0057
N13470 X0.0064 Y-0.0041
N13475 X0.0082 Y-0.0017
N13480 X0.0089 Y0.0012
N13485 X0.0086 Y0.0042
N13490 X0.0074 Y0.0069
N13495 X0.0054 Y0.0091
N13500 X0.0028 Y0.0107
N13505 X-0.0001 Y0.0114
N13510 X-0.0031
N13515 X-0.0089 Y0.0097
N13520 X-0.0131 Y0.0054
N13525 X-0.0149 Y-0.0003
N13530 X-0.0144 Y-0.0063
N13535 X-0.0118 Y-0.0117
N13540 X-0.0075 Y-0.0159
N13545 G3 X0.0236 Y0.0062 I0.0106 J0.018
N13550 X-0.0228 Y0.0221 I-0.0275 J-0.0045
N13555 X-0.0135 Y-0.0374 I0.023 J-0.0269
N13560 X0.0477 Y-0.0082 I0.019 J0.0389
N13565 X-0.003 Y0.0576 I-0.0506 J0.0134
N13570 X-0.0664 Y-0.0072 I-0.0021 J-0.0612
N13575 X0.0149 Y-0.0756 I0.0711 J0.002
N13580 X0.0856 Y0.0187 I-0.0093 J0.0806
N13585 X-0.0183 Y0.0967 I-0.091 J-0.013
N13590 X-0.1083 Y-0.0171 I0.0122 J-0.1021
N13595 X0.0075 Y-0.121 I0.1138 J0.0104
N13600 X0.1331 Y-0.0048 I0.0002 J0.1258
N13605 X0.0873 Y0.1107 I-0.1327 J0.0142
N13610 G1 X0.0697 Y0.1227
N13615 X0.0656 Y0.1252
N13620 X0.0615 Y0.127
N13625 X0.0369 Y0.1363
N13630 X0.0328 Y0.1375
N13635 X0.0287 Y0.1381
N13640 X0.0041 Y0.1411
N13645 X0. Y0.1414
N13650 X-0.0041 Y0.1411
N13655 X-0.0287 Y0.1381
N13660 X-0.0328 Y0.1375
N13665 X-0.0369 Y0.1363
N13670 X-0.0615 Y0.127
N13675 X-0.0656 Y0.1252
N13680 G3 X-0.0969 Y0.1028 I0.1162 J-0.1955
N13685 G1 X-0.115 Y0.0822
N13690 X-0.1165 Y0.0801
N13695 X-0.1178 Y0.078
N13700 X-0.1307 Y0.0534
N13705 X-0.1325 Y0.0493
N13710 X-0.1336 Y0.0452
N13715 X-0.1397 Y0.0205
N13720 X-0.1404 Y0.0164
N13725 X-0.1405 Y0.0123
N13730 Y-0.0123
N13735 X-0.1404 Y-0.0164
N13740 X-0.1397 Y-0.0205
N13745 X-0.1336 Y-0.0452
N13750 X-0.1325 Y-0.0493
N13755 X-0.1307 Y-0.0534
N13760 X-0.1178 Y-0.078
N13765 X-0.1165 Y-0.0801
N13770 X-0.115 Y-0.0822
N13775 X-0.0968 Y-0.1027
N13780 G3 X-0.0656 Y-0.1252 I0.1232 J0.1382
N13785 G1 X-0.0615 Y-0.127
N13790 X-0.0369 Y-0.1363
N13795 X-0.0328 Y-0.1375
N13800 X-0.0287 Y-0.1381
N13805 X-0.0041 Y-0.1411
N13810 X0. Y-0.1414
N13815 X0.0041 Y-0.1411
N13820 X0.0287 Y-0.1381
N13825 X0.0328 Y-0.1375
N13830 X0.0369 Y-0.1363
N13835 X0.0615 Y-0.127
N13840 X0.0656 Y-0.1252
N13845 G3 X0.0969 Y-0.1028 I-0.1162 J0.1955
N13850 G1 X0.115 Y-0.0822
N13855 X0.1165 Y-0.0801
N13860 X0.1178 Y-0.078
N13865 X0.1307 Y-0.0534
N13870 X0.1325 Y-0.0493
N13875 X0.1336 Y-0.0452
N13880 X0.1397 Y-0.0205
N13885 X0.1404 Y-0.0164
N13890 X0.1405 Y-0.0123
N13895 Y0.0123
N13900 X0.1404 Y0.0164
N13905 X0.1397 Y0.0205
N13910 X0.1336 Y0.0452
N13915 X0.1325 Y0.0493
N13920 X0.1307 Y0.0534
N13925 X0.1178 Y0.078
N13930 X0.1165 Y0.0801
N13935 X0.115 Y0.0822
N13940 X0.0968 Y0.1027
N13945 X0.0943 Y0.1054
N13950 X0.0872 Y0.1106
N13955 X0.0847 Y0.1121
N13960 X0.082 Y0.1133
N13965 X0.079 Y0.1139 Z-0.5798
N13970 X0.0761 Y0.1144 Z-0.5793
N13975 X0.0733 Y0.1149 Z-0.5784
N13980 X0.0731 Z-0.5783
N13985 X0.0699 Y0.1144 Z-0.5768
N13990 X0.067 Y0.1139 Z-0.5748
N13995 X0.0644 Y0.1134 Z-0.5724
N14000 X0.0623 Y0.1122 Z-0.5695
N14005 X0.0605 Y0.1113 Z-0.5662
N14010 X0.0592 Y0.1106 Z-0.5626
N14015 X0.0585 Y0.1102 Z-0.5589
N14020 X0.0582 Y0.11 Z-0.555
N14025 G0 Z0.2
N14030 G1 X0. Y0. F300.
N14035 G0 Z-0.455
N14040 G1 Z-0.48 F18.
N14045 Z-0.62 F3.
N14050 X0.0013 Y-0.0007 F18.
N14055 X0.0027 Y0.
N14060 X0.0028 Y0.0015
N14065 X0.0022 Y0.0028
N14070 X0.0009 Y0.0037
N14075 X-0.0005 Y0.004
N14080 X-0.002 Y0.0037
N14085 X-0.0033 Y0.0029
N14090 X-0.0041 Y0.0017
N14095 X-0.0046 Y0.0002
N14100 X-0.0045 Y-0.0013
N14105 X-0.0039 Y-0.0026
N14110 X-0.002 Y-0.0049
N14115 X0.0009 Y-0.006
N14120 X0.0038 Y-0.0057
N14125 X0.0064 Y-0.0041
N14130 X0.0082 Y-0.0017
N14135 X0.0089 Y0.0012
N14140 X0.0086 Y0.0042
N14145 X0.0074 Y0.0069
N14150 X0.0054 Y0.0091
N14155 X0.0028 Y0.0107
N14160 X-0.0001 Y0.0114
N14165 X-0.0031
N14170 X-0.0089 Y0.0097
N14175 X-0.0131 Y0.0054
N14180 X-0.0149 Y-0.0003
N14185 X-0.0144 Y-0.0063
N14190 X-0.0118 Y-0.0117
N14195 X-0.0075 Y-0.0159
N14200 G3 X0.0236 Y0.0062 I0.0106 J0.018
N14205 X-0.0228 Y0.0221 I-0.0275 J-0.0045
N14210 X-0.0135 Y-0.0374 I0.023 J-0.0269
N14215 X0.0477 Y-0.0082 I0.019 J0.0389
N14220 X-0.003 Y0.0576 I-0.0506 J0.0134
N14225 X-0.0664 Y-0.0072 I-0.0021 J-0.0612
N14230 X0.0149 Y-0.0756 I0.0711 J0.002
N14235 X0.0856 Y0.0187 I-0.0093 J0.0806
N14240 X-0.0183 Y0.0967 I-0.091 J-0.013
N14245 X-0.1083 Y-0.0171 I0.0122 J-0.1021
N14250 X0.0075 Y-0.121 I0.1138 J0.0104
N14255 X0.1331 Y-0.0048 I0.0002 J0.1258
N14260 X0.0873 Y0.1107 I-0.1327 J0.0142
N14265 G1 X0.0697 Y0.1227
N14270 X0.0656 Y0.1252
N14275 X0.0615 Y0.127
N14280 X0.0369 Y0.1363
N14285 X0.0328 Y0.1375
N14290 X0.0287 Y0.1381
N14295 X0.0041 Y0.1411
N14300 X0. Y0.1414
N14305 X-0.0041 Y0.1411
N14310 X-0.0287 Y0.1381
N14315 X-0.0328 Y0.1375
N14320 X-0.0369 Y0.1363
N14325 X-0.0615 Y0.127
N14330 X-0.0656 Y0.1252
N14335 G3 X-0.0969 Y0.1028 I0.1162 J-0.1955
N14340 G1 X-0.115 Y0.0822
N14345 X-0.1165 Y0.0801
N14350 X-0.1178 Y0.078
N14355 X-0.1307 Y0.0534
N14360 X-0.1325 Y0.0493
N14365 X-0.1336 Y0.0452
N14370 X-0.1397 Y0.0205
N14375 X-0.1404 Y0.0164
N14380 X-0.1405 Y0.0123
N14385 Y-0.0123
N14390 X-0.1404 Y-0.0164
N14395 X-0.1397 Y-0.0205
N14400 X-0.1336 Y-0.0452
N14405 X-0.1325 Y-0.0493
N14410 X-0.1307 Y-0.0534
N14415 X-0.1178 Y-0.078
N14420 X-0.1165 Y-0.0801
N14425 X-0.115 Y-0.0822
N14430 X-0.0968 Y-0.1027
N14435 G3 X-0.0656 Y-0.1252 I0.1232 J0.1382
N14440 G1 X-0.0615 Y-0.127
N14445 X-0.0369 Y-0.1363
N14450 X-0.0328 Y-0.1375
N14455 X-0.0287 Y-0.1381
N14460 X-0.0041 Y-0.1411
N14465 X0. Y-0.1414
N14470 X0.0041 Y-0.1411
N14475 X0.0287 Y-0.1381
N14480 X0.0328 Y-0.1375
N14485 X0.0369 Y-0.1363
N14490 X0.0615 Y-0.127
N14495 X0.0656 Y-0.1252
N14500 G3 X0.0969 Y-0.1028 I-0.1162 J0.1955
N14505 G1 X0.115 Y-0.0822
N14510 X0.1165 Y-0.0801
N14515 X0.1178 Y-0.078
N14520 X0.1307 Y-0.0534
N14525 X0.1325 Y-0.0493
N14530 X0.1336 Y-0.0452
N14535 X0.1397 Y-0.0205
N14540 X0.1404 Y-0.0164
N14545 X0.1405 Y-0.0123
N14550 Y0.0123
N14555 X0.1404 Y0.0164
N14560 X0.1397 Y0.0205
N14565 X0.1336 Y0.0452
N14570 X0.1325 Y0.0493
N14575 X0.1307 Y0.0534
N14580 X0.1178 Y0.078
N14585 X0.1165 Y0.0801
N14590 X0.115 Y0.0822
N14595 X0.0968 Y0.1027
N14600 X0.0943 Y0.1054
N14605 X0.0872 Y0.1106
N14610 X0.0847 Y0.1121
N14615 X0.082 Y0.1133
N14620 X0.079 Y0.1139 Z-0.6198
N14625 X0.0761 Y0.1144 Z-0.6193
N14630 X0.0733 Y0.1149 Z-0.6184
N14635 X0.0731 Z-0.6183
N14640 X0.0699 Y0.1144 Z-0.6168
N14645 X0.067 Y0.1139 Z-0.6148
N14650 X0.0644 Y0.1134 Z-0.6124
N14655 X0.0623 Y0.1122 Z-0.6095
N14660 X0.0605 Y0.1113 Z-0.6062
N14665 X0.0592 Y0.1106 Z-0.6026
N14670 X0.0585 Y0.1102 Z-0.5989
N14675 X0.0582 Y0.11 Z-0.595
N14680 G0 Z0.2
N14685 G1 X0. Y0. F300.
N14690 G0 Z-0.495
N14695 G1 Z-0.52 F18.
N14700 Z-0.64 F3.
N14705 X0.0013 Y-0.0007 F18.
N14710 X0.0027 Y0.
N14715 X0.0028 Y0.0015
N14720 X0.0022 Y0.0028
N14725 X0.0009 Y0.0037
N14730 X-0.0005 Y0.004
N14735 X-0.002 Y0.0037
N14740 X-0.0033 Y0.0029
N14745 X-0.0041 Y0.0017
N14750 X-0.0046 Y0.0002
N14755 X-0.0045 Y-0.0013
N14760 X-0.0039 Y-0.0026
N14765 X-0.002 Y-0.0049
N14770 X0.0009 Y-0.006
N14775 X0.0038 Y-0.0057
N14780 X0.0064 Y-0.0041
N14785 X0.0082 Y-0.0017
N14790 X0.0089 Y0.0012
N14795 X0.0086 Y0.0042
N14800 X0.0074 Y0.0069
N14805 X0.0054 Y0.0091
N14810 X0.0028 Y0.0107
N14815 X-0.0001 Y0.0114
N14820 X-0.0031
N14825 X-0.0089 Y0.0097
N14830 X-0.0131 Y0.0054
N14835 X-0.0149 Y-0.0003
N14840 X-0.0144 Y-0.0063
N14845 X-0.0118 Y-0.0117
N14850 X-0.0075 Y-0.0159
N14855 G3 X0.0236 Y0.0062 I0.0106 J0.018
N14860 X-0.0228 Y0.0221 I-0.0275 J-0.0045
N14865 X-0.0135 Y-0.0374 I0.023 J-0.0269
N14870 X0.0477 Y-0.0082 I0.019 J0.0389
N14875 X-0.003 Y0.0576 I-0.0506 J0.0134
N14880 X-0.0664 Y-0.0072 I-0.0021 J-0.0612
N14885 X0.0149 Y-0.0756 I0.0711 J0.002
N14890 X0.0856 Y0.0187 I-0.0093 J0.0806
N14895 X-0.0183 Y0.0967 I-0.091 J-0.013
N14900 X-0.1083 Y-0.0171 I0.0122 J-0.1021
N14905 X0.0075 Y-0.121 I0.1138 J0.0104
N14910 X0.1331 Y-0.0048 I0.0002 J0.1258
N14915 X0.0873 Y0.1107 I-0.1327 J0.0142
N14920 G1 X0.0697 Y0.1227
N14925 X0.0656 Y0.1252
N14930 X0.0615 Y0.127
N14935 X0.0369 Y0.1363
N14940 X0.0328 Y0.1375
N14945 X0.0287 Y0.1381
N14950 X0.0041 Y0.1411
N14955 X0. Y0.1414
N14960 X-0.0041 Y0.1411
N14965 X-0.0287 Y0.1381
N14970 X-0.0328 Y0.1375
N14975 X-0.0369 Y0.1363
N14980 X-0.0615 Y0.127
N14985 X-0.0656 Y0.1252
N14990 G3 X-0.0969 Y0.1028 I0.1162 J-0.1955
N14995 G1 X-0.115 Y0.0822
N15000 X-0.1165 Y0.0801
N15005 X-0.1178 Y0.078
N15010 X-0.1307 Y0.0534
N15015 X-0.1325 Y0.0493
N15020 X-0.1336 Y0.0452
N15025 X-0.1397 Y0.0205
N15030 X-0.1404 Y0.0164
N15035 X-0.1405 Y0.0123
N15040 Y-0.0123
N15045 X-0.1404 Y-0.0164
N15050 X-0.1397 Y-0.0205
N15055 X-0.1336 Y-0.0452
N15060 X-0.1325 Y-0.0493
N15065 X-0.1307 Y-0.0534
N15070 X-0.1178 Y-0.078
N15075 X-0.1165 Y-0.0801
N15080 X-0.115 Y-0.0822
N15085 X-0.0968 Y-0.1027
N15090 G3 X-0.0656 Y-0.1252 I0.1232 J0.1382
N15095 G1 X-0.0615 Y-0.127
N15100 X-0.0369 Y-0.1363
N15105 X-0.0328 Y-0.1375
N15110 X-0.0287 Y-0.1381
N15115 X-0.0041 Y-0.1411
N15120 X0. Y-0.1414
N15125 X0.0041 Y-0.1411
N15130 X0.0287 Y-0.1381
N15135 X0.0328 Y-0.1375
N15140 X0.0369 Y-0.1363
N15145 X0.0615 Y-0.127
N15150 X0.0656 Y-0.1252
N15155 G3 X0.0969 Y-0.1028 I-0.1162 J0.1955
N15160 G1 X0.115 Y-0.0822
N15165 X0.1165 Y-0.0801
N15170 X0.1178 Y-0.078
N15175 X0.1307 Y-0.0534
N15180 X0.1325 Y-0.0493
N15185 X0.1336 Y-0.0452
N15190 X0.1397 Y-0.0205
N15195 X0.1404 Y-0.0164
N15200 X0.1405 Y-0.0123
N15205 Y0.0123
N15210 X0.1404 Y0.0164
N15215 X0.1397 Y0.0205
N15220 X0.1336 Y0.0452
N15225 X0.1325 Y0.0493
N15230 X0.1307 Y0.0534
N15235 X0.1178 Y0.078
N15240 X0.1165 Y0.0801
N15245 X0.115 Y0.0822
N15250 X0.0968 Y0.1027
N15255 X0.0943 Y0.1054
N15260 X0.0872 Y0.1106
N15265 G3 X0.0731 Y0.1149 I-0.0141 J-0.0206
N15270 X0.0582 Y0.11 I0. J-0.025
N15275 G1 X0.0551 Y0.1077 Z-0.6397
N15280 X0.052 Y0.1054 Z-0.6388
N15285 X0.0491 Y0.1033 Z-0.6373
N15290 X0.0464 Y0.1013 Z-0.6352
N15295 X0.044 Y0.0995 Z-0.6327
N15300 X0.0419 Y0.098 Z-0.6297
N15305 X0.0403 Y0.0968 Z-0.6263
N15310 X0.0391 Y0.0959 Z-0.6227
N15315 X0.0384 Y0.0953 Z-0.6189
N15320 X0.0381 Y0.0952 Z-0.615
N15325 G0 Z0.6

N15330 M5
N15335 M9
N15340 G53 G0 Z0.
N15345 G53 G0 X0. Y0.
N15350 M30

%
