%
O01009
(Using high feed G1 F300. instead of G0.)
(T9 D=0.25 CR=0. - ZMIN=-0.36 - flat end mill)
N10 G90 G94 G17
N15 G20
N20 G53 G0 Z0.

(Face2)
N25 T9 M6
N30 S4000 M3
N35 G17 G90 G94
N40 G54
N45 M8
N50 G1 X0.6601 Y-1.6678 F300.
N55 G0 G43 Z0.6 H9
N60 G0 Z0.2
N65 G1 Z-0.005 F3.
N70 G18 G3 X0.6351 Z-0.03 I-0.025 K0. F24.
N75 G1 X-0.6351
N80 X-0.8355
N85 G17 G2 Y-1.5864 I0. J0.0407
N90 G1 X0.8355
N95 X0.9832
N100 G3 Y-1.5051 I0. J0.0407
N105 G1 X-0.9832
N110 X-1.102
N115 G2 Y-1.4237 I0. J0.0407
N120 G1 X1.102
N125 X1.2015
N130 G3 Y-1.3423 I0. J0.0407
N135 G1 X-1.2015
N140 X-1.2872
N145 G2 Y-1.261 I0. J0.0407
N150 G1 X1.2872
N155 X1.3616
N160 G3 Y-1.1796 I0. J0.0407
N165 G1 X-1.3616
N170 X-1.4266
N175 G2 Y-1.0983 I0. J0.0407
N180 G1 X1.4266
N185 X1.4837
N190 G3 Y-1.0169 I0. J0.0407
N195 G1 X-1.4837
N200 X-1.5338
N205 G2 Y-0.9355 I0. J0.0407
N210 G1 X1.5338
N215 X1.5775
N220 G3 Y-0.8542 I0. J0.0407
N225 G1 X-1.5775
N230 X-1.6155
N235 G2 Y-0.7728 I0. J0.0407
N240 G1 X1.6155
N245 X1.6483
N250 G3 Y-0.6914 I0. J0.0407
N255 G1 X-1.6483
N260 X-1.6762
N265 G2 Y-0.6101 I0. J0.0407
N270 G1 X1.6762
N275 X1.6994
N280 G3 Y-0.5287 I0. J0.0407
N285 G1 X-1.6994
N290 X-1.7179
N295 G2 Y-0.4473 I0. J0.0407
N300 G1 X1.7179
N305 X1.7323
N310 G3 Y-0.366 I0. J0.0407
N315 G1 X-1.7323
N320 X-1.7424
N325 G2 Y-0.2846 I0. J0.0407
N330 G1 X1.7424
N335 X1.7483
N340 G3 Y-0.2032 I0. J0.0407
N345 G1 X-1.7483
N350 X-1.7504
N355 G2 Y-0.1219 I0. J0.0407
N360 G1 X1.7504
N365 G3 Y-0.0405 I0. J0.0407
N370 G1 X-1.7504
N375 G2 Y0.0409 I0. J0.0407
N380 G1 X1.7504
N385 G3 Y0.1222 I0. J0.0407
N390 G1 X-1.7504
N395 G2 Y0.2036 I0. J0.0407
N400 G1 X-1.7483
N405 X1.7483
N410 G3 Y0.2849 I0. J0.0407
N415 G1 X1.7424
N420 X-1.7424
N425 G2 Y0.3663 I0. J0.0407
N430 G1 X-1.7323
N435 X1.7323
N440 G3 Y0.4477 I0. J0.0407
N445 G1 X1.7178
N450 X-1.7178
N455 G2 Y0.529 I0. J0.0407
N460 G1 X-1.6993
N465 X1.6993
N470 G3 Y0.6104 I0. J0.0407
N475 G1 X1.6761
N480 X-1.6761
N485 G2 Y0.6918 I0. J0.0407
N490 G1 X-1.6482
N495 X1.6482
N500 G3 Y0.7731 I0. J0.0407
N505 G1 X1.6154
N510 X-1.6154
N515 G2 Y0.8545 I0. J0.0407
N520 G1 X-1.5774
N525 X1.5774
N530 G3 Y0.9359 I0. J0.0407
N535 G1 X1.5336
N540 X-1.5336
N545 G2 Y1.0172 I0. J0.0407
N550 G1 X-1.4834
N555 X1.4834
N560 G3 Y1.0986 I0. J0.0407
N565 G1 X1.4263
N570 X-1.4263
N575 G2 Y1.18 I0. J0.0407
N580 G1 X-1.3613
N585 X1.3613
N590 G3 Y1.2613 I0. J0.0407
N595 G1 X1.2869
N600 X-1.2869
N605 G2 Y1.3427 I0. J0.0407
N610 G1 X-1.2011
N615 X1.2011
N620 G3 Y1.4241 I0. J0.0407
N625 G1 X1.1016
N630 X-1.1016
N635 G2 Y1.5054 I0. J0.0407
N640 G1 X-0.9827
N645 X0.9827
N650 G18 G2 X1.0077 Z-0.005 I0. K0.025
N655 G0 Z0.2
N660 G1 X0.6601 Y1.6678 F300.
N665 Z-0.035 F3.
N670 G3 X0.6351 Z-0.06 I-0.025 K0. F24.
N675 G1 X-0.6351
N680 X-0.8355
N685 G17 G3 Y1.5864 I0. J-0.0407
N690 G1 X0.8355
N695 X0.9832
N700 G2 Y1.5051 I0. J-0.0407
N705 G1 X-0.9832
N710 X-1.102
N715 G3 Y1.4237 I0. J-0.0407
N720 G1 X1.102
N725 X1.2015
N730 G2 Y1.3423 I0. J-0.0407
N735 G1 X-1.2015
N740 X-1.2872
N745 G3 Y1.261 I0. J-0.0407
N750 G1 X1.2872
N755 X1.3616
N760 G2 Y1.1796 I0. J-0.0407
N765 G1 X-1.3616
N770 X-1.4266
N775 G3 Y1.0983 I0. J-0.0407
N780 G1 X1.4266
N785 X1.4837
N790 G2 Y1.0169 I0. J-0.0407
N795 G1 X-1.4837
N800 X-1.5338
N805 G3 Y0.9355 I0. J-0.0407
N810 G1 X1.5338
N815 X1.5775
N820 G2 Y0.8542 I0. J-0.0407
N825 G1 X-1.5775
N830 X-1.6155
N835 G3 Y0.7728 I0. J-0.0407
N840 G1 X1.6155
N845 X1.6483
N850 G2 Y0.6914 I0. J-0.0407
N855 G1 X-1.6483
N860 X-1.6762
N865 G3 Y0.6101 I0. J-0.0407
N870 G1 X1.6762
N875 X1.6994
N880 G2 Y0.5287 I0. J-0.0407
N885 G1 X-1.6994
N890 X-1.7179
N895 G3 Y0.4473 I0. J-0.0407
N900 G1 X1.7179
N905 X1.7323
N910 G2 Y0.366 I0. J-0.0407
N915 G1 X-1.7323
N920 X-1.7424
N925 G3 Y0.2846 I0. J-0.0407
N930 G1 X1.7424
N935 X1.7483
N940 G2 Y0.2032 I0. J-0.0407
N945 G1 X-1.7483
N950 X-1.7504
N955 G3 Y0.1219 I0. J-0.0407
N960 G1 X1.7504
N965 G2 Y0.0405 I0. J-0.0407
N970 G1 X-1.7504
N975 G3 Y-0.0409 I0. J-0.0407
N980 G1 X1.7504
N985 G2 Y-0.1222 I0. J-0.0407
N990 G1 X-1.7504
N995 G3 Y-0.2036 I0. J-0.0407
N1000 G1 X-1.7483
N1005 X1.7483
N1010 G2 Y-0.2849 I0. J-0.0407
N1015 G1 X1.7424
N1020 X-1.7424
N1025 G3 Y-0.3663 I0. J-0.0407
N1030 G1 X-1.7323
N1035 X1.7323
N1040 G2 Y-0.4477 I0. J-0.0407
N1045 G1 X1.7178
N1050 X-1.7178
N1055 G3 Y-0.529 I0. J-0.0407
N1060 G1 X-1.6993
N1065 X1.6993
N1070 G2 Y-0.6104 I0. J-0.0407
N1075 G1 X1.6761
N1080 X-1.6761
N1085 G3 Y-0.6918 I0. J-0.0407
N1090 G1 X-1.6482
N1095 X1.6482
N1100 G2 Y-0.7731 I0. J-0.0407
N1105 G1 X1.6154
N1110 X-1.6154
N1115 G3 Y-0.8545 I0. J-0.0407
N1120 G1 X-1.5774
N1125 X1.5774
N1130 G2 Y-0.9359 I0. J-0.0407
N1135 G1 X1.5336
N1140 X-1.5336
N1145 G3 Y-1.0172 I0. J-0.0407
N1150 G1 X-1.4834
N1155 X1.4834
N1160 G2 Y-1.0986 I0. J-0.0407
N1165 G1 X1.4263
N1170 X-1.4263
N1175 G3 Y-1.18 I0. J-0.0407
N1180 G1 X-1.3613
N1185 X1.3613
N1190 G2 Y-1.2613 I0. J-0.0407
N1195 G1 X1.2869
N1200 X-1.2869
N1205 G3 Y-1.3427 I0. J-0.0407
N1210 G1 X-1.2011
N1215 X1.2011
N1220 G2 Y-1.4241 I0. J-0.0407
N1225 G1 X1.1016
N1230 X-1.1016
N1235 G3 Y-1.5054 I0. J-0.0407
N1240 G1 X-0.9827
N1245 X0.9827
N1250 G18 G2 X1.0077 Z-0.035 I0. K0.025
N1255 G0 Z0.6

(2D Adaptive3)
N1260 G17
N1265 G1 X-1.314 Y-1.2799 F300.
N1270 G0 Z0.6
N1275 Z-0.045
N1280 G1 Z-0.07 F24.
N1285 Y-1.2796 Z-0.0739
N1290 X-1.3141 Y-1.2787 Z-0.0777
N1295 X-1.3142 Y-1.2772 Z-0.0813
N1300 X-1.3144 Y-1.2751 Z-0.0847
N1305 X-1.3147 Y-1.2726 Z-0.0877
N1310 X-1.315 Y-1.2696 Z-0.0902
N1315 X-1.3153 Y-1.2663 Z-0.0923
N1320 X-1.3156 Y-1.2627 Z-0.0938
N1325 X-1.316 Y-1.2589 Z-0.0947
N1330 X-1.3164 Y-1.255 Z-0.095
N1335 G3 X-1.3442 Y-1.1203 I-0.6353 J-0.0612
N1340 G2 X-1.3645 Y-1.0602 I0.6947 J0.2686
N1345 G1 X-1.3661 Y-1.052
N1350 X-1.3673 Y-1.0438
N1355 X-1.3682 Y-1.0356
N1360 X-1.3715 Y-1.016
N1365 X-1.3768 Y-0.9933
N1370 X-1.3861 Y-0.9635
N1375 X-1.3992 Y-0.9298
N1380 X-1.4142 Y-0.8968
N1385 G2 X-1.5238 Y-0.6686 I4.5792 J2.3402
N1390 X-1.5864 Y-0.4989 I1.8758 J0.7882
N1395 X-1.4228 Y0.8606 I1.589 J0.4983
N1400 G1 X-1.4037 Y0.8913
N1405 X-1.3865 Y0.9175
N1410 X-1.3802 Y0.9294
N1415 X-1.3763 Y0.9424
N1420 X-1.375 Y0.9558
N1425 Y0.9616
N1430 X-1.3749 Y0.9698
N1435 G2 X-1.3646 Y1.0602 I0.901 J-0.0563
N1440 G1 X-1.3622 Y1.0684
N1445 X-1.3595 Y1.0767
N1450 X-1.3538 Y1.0931
N1455 G3 X-1.3524 Y1.1032 Z-0.0929 I-0.0236 J0.0083
N1460 G2 X-1.3507 Y1.1145 Z-0.0906 I0.0249 J0.0019
N1465 G1 X-1.3475 Y1.1224 Z-0.0888
N1470 X-1.3442 Y1.1307 Z-0.087
N1475 X-1.2758 Y1.3008
N1480 G2 X-1.255 Y1.3164 I0.0232 J-0.0093
N1485 G3 X-1.158 Y1.3333 I-0.0612 J0.6353
N1490 G1 X-1.1494 Y1.3356 Z-0.0888
N1495 G3 X-1.1203 Y1.3442 Z-0.095 I-0.1668 J0.6161
N1500 G2 X-1.0602 Y1.3645 I0.2686 J-0.6947
N1505 G1 X-1.052 Y1.3661
N1510 X-1.0438 Y1.3673
N1515 X-1.0356 Y1.3682
N1520 X-1.016 Y1.3715
N1525 X-0.9933 Y1.3768
N1530 X-0.9635 Y1.3861
N1535 X-0.9298 Y1.3992
N1540 X-0.8968 Y1.4142
N1545 G2 X-0.6686 Y1.5238 I2.3402 J-4.5792
N1550 X-0.4989 Y1.5864 I0.7882 J-1.8758
N1555 X0.8606 Y1.4228 I0.4983 J-1.589
N1560 G1 X0.8913 Y1.4037
N1565 X0.9175 Y1.3865
N1570 X0.9294 Y1.3802
N1575 X0.9424 Y1.3763
N1580 X0.9558 Y1.375
N1585 X0.9616
N1590 X0.9698 Y1.3749
N1595 G2 X1.0602 Y1.3646 I-0.0563 J-0.901
N1600 G1 X1.0684 Y1.3622
N1605 X1.0767 Y1.3595
N1610 X1.0931 Y1.3538
N1615 G3 X1.1032 Y1.3524 Z-0.0929 I0.0083 J0.0236
N1620 G2 X1.1145 Y1.3507 Z-0.0906 I0.0019 J-0.0249
N1625 G1 X1.1224 Y1.3475 Z-0.0888
N1630 X1.1307 Y1.3442 Z-0.087
N1635 X1.3008 Y1.2758
N1640 G2 X1.3164 Y1.255 I-0.0093 J-0.0232
N1645 G3 X1.3333 Y1.158 I0.6353 J0.0612
N1650 G1 X1.3356 Y1.1494 Z-0.0888
N1655 G3 X1.3442 Y1.1203 Z-0.095 I0.6161 J0.1668
N1660 G2 X1.3645 Y1.0602 I-0.6947 J-0.2686
N1665 G1 X1.3661 Y1.052
N1670 X1.3673 Y1.0438
N1675 X1.3682 Y1.0356
N1680 X1.3715 Y1.016
N1685 X1.3768 Y0.9933
N1690 X1.3861 Y0.9635
N1695 X1.3992 Y0.9298
N1700 X1.4142 Y0.8968
N1705 G2 X1.5238 Y0.6686 I-4.5791 J-2.3401
N1710 X1.5864 Y0.4989 I-1.8759 J-0.7882
N1715 X1.4228 Y-0.8606 I-1.589 J-0.4983
N1720 G1 X1.4037 Y-0.8914
N1725 X1.3865 Y-0.9175
N1730 X1.3802 Y-0.9294
N1735 X1.3763 Y-0.9424
N1740 X1.375 Y-0.9558
N1745 Y-0.9616
N1750 X1.3749 Y-0.9698
N1755 G2 X1.3646 Y-1.0602 I-0.9014 J0.0563
N1760 G1 X1.3622 Y-1.0684
N1765 X1.3595 Y-1.0767
N1770 X1.3538 Y-1.0931
N1775 G3 X1.3524 Y-1.1032 Z-0.0929 I0.0236 J-0.0083
N1780 G2 X1.3507 Y-1.1145 Z-0.0906 I-0.0249 J-0.0019
N1785 G1 X1.3475 Y-1.1224 Z-0.0888
N1790 X1.3442 Y-1.1307 Z-0.087
N1795 X1.2758 Y-1.3008
N1800 G2 X1.255 Y-1.3164 I-0.0232 J0.0093
N1805 G3 X1.158 Y-1.3333 I0.0612 J-0.6353
N1810 G1 X1.1494 Y-1.3356 Z-0.0888
N1815 G3 X1.1203 Y-1.3442 Z-0.095 I0.1668 J-0.6161
N1820 G2 X1.0602 Y-1.3645 I-0.2686 J0.6947
N1825 G1 X1.052 Y-1.3661
N1830 X1.0438 Y-1.3673
N1835 X1.0356 Y-1.3682
N1840 X1.016 Y-1.3715
N1845 X0.9933 Y-1.3768
N1850 X0.9635 Y-1.3861
N1855 X0.9298 Y-1.3992
N1860 X0.8968 Y-1.4142
N1865 G2 X0.6686 Y-1.5238 I-2.3401 J4.5791
N1870 X0.4989 Y-1.5864 I-0.7882 J1.8759
N1875 X-0.8606 Y-1.4228 I-0.4983 J1.589
N1880 G1 X-0.8914 Y-1.4037
N1885 X-0.9175 Y-1.3865
N1890 X-0.9294 Y-1.3802
N1895 X-0.9424 Y-1.3763
N1900 X-0.9558 Y-1.375
N1905 X-0.9616
N1910 X-0.9698 Y-1.3749
N1915 G2 X-1.0602 Y-1.3646 I0.0563 J0.9014
N1920 G1 X-1.0684 Y-1.3622
N1925 X-1.0767 Y-1.3595
N1930 X-1.0931 Y-1.3538
N1935 G3 X-1.1206 Y-1.3628 I-0.0074 J-0.0239
N1940 G1 X-1.123 Y-1.3659 Z-0.0947
N1945 X-1.1252 Y-1.369 Z-0.0938
N1950 X-1.1274 Y-1.3719 Z-0.0923
N1955 X-1.1294 Y-1.3746 Z-0.0902
N1960 X-1.1311 Y-1.377 Z-0.0877
N1965 X-1.1327 Y-1.3791 Z-0.0847
N1970 X-1.1339 Y-1.3807 Z-0.0813
N1975 X-1.1348 Y-1.3819 Z-0.0777
N1980 X-1.1353 Y-1.3827 Z-0.0739
N1985 X-1.1355 Y-1.3829 Z-0.07
N1990 G0 Z0.2
N1995 G1 X-1.3838 Y-1.0888 F300.
N2000 G0 Z-0.045
N2005 G1 Z-0.07 F24.
N2010 X-1.3837 Y-1.0886 Z-0.0739
N2015 X-1.3833 Y-1.0877 Z-0.0777
N2020 X-1.3827 Y-1.0863 Z-0.0813
N2025 X-1.3818 Y-1.0845 Z-0.0847
N2030 X-1.3808 Y-1.0822 Z-0.0877
N2035 X-1.3796 Y-1.0794 Z-0.0902
N2040 X-1.3782 Y-1.0764 Z-0.0923
N2045 X-1.3767 Y-1.0731 Z-0.0938
N2050 X-1.3751 Y-1.0696 Z-0.0947
N2055 X-1.3735 Y-1.066 Z-0.095
N2060 G3 X-1.3682 Y-1.0356 I-0.0568 J0.0256
N2065 G1 X-1.3729 Y-0.9945
N2070 X-1.3749 Y-0.9698
N2075 X-1.375 Y-0.9616
N2080 Y-0.8958
N2085 X-1.3763 Y-0.8697
N2090 X-1.3788 Y-0.8487
N2095 X-1.3841 Y-0.8211
N2100 X-1.3933 Y-0.7861
N2105 G3 X-1.4558 Y-0.6164 I-2.6997 J-0.8989
N2110 G2 X-1.5539 Y-0.2687 I1.759 J0.6836
N2115 X-1.3838 Y0.7555 I1.5593 J0.2673
N2120 G1 X-1.3789 Y0.7661
N2125 X-1.376 Y0.7775
N2130 X-1.375 Y0.7892
N2135 Y0.9558
N2140 G3 X-1.3926 Y0.9788 I-0.025 J-0.0009
N2145 G1 X-1.3964 Y0.98 Z-0.0947
N2150 X-1.4 Y0.9811 Z-0.0938
N2155 X-1.4035 Y0.9822 Z-0.0923
N2160 X-1.4067 Y0.9832 Z-0.0902
N2165 X-1.4095 Y0.984 Z-0.0877
N2170 X-1.4119 Y0.9848 Z-0.0847
N2175 X-1.4139 Y0.9854 Z-0.0813
N2180 X-1.4153 Y0.9858 Z-0.0777
N2185 X-1.4162 Y0.9861 Z-0.0739
N2190 X-1.4165 Y0.9862 Z-0.07
N2195 G0 Z0.2
N2200 G1 X-1.0888 Y1.3838 F300.
N2205 G0 Z-0.045
N2210 G1 Z-0.07 F24.
N2215 X-1.0886 Y1.3837 Z-0.0739
N2220 X-1.0877 Y1.3833 Z-0.0777
N2225 X-1.0863 Y1.3827 Z-0.0813
N2230 X-1.0845 Y1.3818 Z-0.0847
N2235 X-1.0822 Y1.3808 Z-0.0877
N2240 X-1.0794 Y1.3796 Z-0.0902
N2245 X-1.0764 Y1.3782 Z-0.0923
N2250 X-1.0731 Y1.3767 Z-0.0938
N2255 X-1.0696 Y1.3751 Z-0.0947
N2260 X-1.066 Y1.3735 Z-0.095
N2265 G3 X-1.0356 Y1.3682 I0.0256 J0.0568
N2270 G1 X-0.9945 Y1.3729
N2275 X-0.9698 Y1.3749
N2280 X-0.9616 Y1.375
N2285 X-0.8958
N2290 X-0.8697 Y1.3763
N2295 X-0.8487 Y1.3788
N2300 X-0.8211 Y1.3841
N2305 X-0.7861 Y1.3933
N2310 G3 X-0.6164 Y1.4558 I-0.8989 J2.6997
N2315 G2 X-0.2687 Y1.5539 I0.6836 J-1.759
N2320 X0.7555 Y1.3838 I0.2673 J-1.5593
N2325 G1 X0.7661 Y1.3789
N2330 X0.7775 Y1.376
N2335 X0.7892 Y1.375
N2340 X0.9558
N2345 G3 X0.9788 Y1.3926 I-0.0009 J0.025
N2350 G1 X0.98 Y1.3964 Z-0.0947
N2355 X0.9811 Y1.4 Z-0.0938
N2360 X0.9822 Y1.4035 Z-0.0923
N2365 X0.9832 Y1.4067 Z-0.0902
N2370 X0.984 Y1.4095 Z-0.0877
N2375 X0.9848 Y1.4119 Z-0.0847
N2380 X0.9854 Y1.4139 Z-0.0813
N2385 X0.9858 Y1.4153 Z-0.0777
N2390 X0.9861 Y1.4162 Z-0.0739
N2395 X0.9862 Y1.4165 Z-0.07
N2400 G0 Z0.2
N2405 G1 X1.3838 Y1.0888 F300.
N2410 G0 Z-0.045
N2415 G1 Z-0.07 F24.
N2420 X1.3837 Y1.0886 Z-0.0739
N2425 X1.3833 Y1.0877 Z-0.0777
N2430 X1.3827 Y1.0863 Z-0.0813
N2435 X1.3818 Y1.0845 Z-0.0847
N2440 X1.3808 Y1.0822 Z-0.0877
N2445 X1.3796 Y1.0794 Z-0.0902
N2450 X1.3782 Y1.0764 Z-0.0923
N2455 X1.3767 Y1.0731 Z-0.0938
N2460 X1.3751 Y1.0696 Z-0.0947
N2465 X1.3735 Y1.066 Z-0.095
N2470 G3 X1.3682 Y1.0356 I0.0568 J-0.0256
N2475 G1 X1.3729 Y0.9945
N2480 X1.3749 Y0.9698
N2485 X1.375 Y0.9616
N2490 Y0.8958
N2495 X1.3763 Y0.8697
N2500 X1.3788 Y0.8487
N2505 X1.3841 Y0.8211
N2510 X1.3933 Y0.7861
N2515 G3 X1.4558 Y0.6164 I2.6998 J0.8989
N2520 G2 X1.5539 Y0.2687 I-1.759 J-0.6836
N2525 X1.3838 Y-0.7555 I-1.5593 J-0.2673
N2530 G1 X1.3789 Y-0.7661
N2535 X1.376 Y-0.7775
N2540 X1.375 Y-0.7892
N2545 Y-0.9558
N2550 G3 X1.3926 Y-0.9788 I0.025 J0.0009
N2555 G1 X1.3964 Y-0.98 Z-0.0947
N2560 X1.4 Y-0.9811 Z-0.0938
N2565 X1.4035 Y-0.9822 Z-0.0923
N2570 X1.4067 Y-0.9832 Z-0.0902
N2575 X1.4095 Y-0.984 Z-0.0877
N2580 X1.4119 Y-0.9848 Z-0.0847
N2585 X1.4139 Y-0.9854 Z-0.0813
N2590 X1.4153 Y-0.9858 Z-0.0777
N2595 X1.4162 Y-0.9861 Z-0.0739
N2600 X1.4165 Y-0.9862 Z-0.07
N2605 G0 Z0.2
N2610 G1 X1.0888 Y-1.3838 F300.
N2615 G0 Z-0.045
N2620 G1 Z-0.07 F24.
N2625 X1.0886 Y-1.3837 Z-0.0739
N2630 X1.0877 Y-1.3833 Z-0.0777
N2635 X1.0863 Y-1.3827 Z-0.0813
N2640 X1.0845 Y-1.3818 Z-0.0847
N2645 X1.0822 Y-1.3808 Z-0.0877
N2650 X1.0794 Y-1.3796 Z-0.0902
N2655 X1.0764 Y-1.3782 Z-0.0923
N2660 X1.0731 Y-1.3767 Z-0.0938
N2665 X1.0696 Y-1.3751 Z-0.0947
N2670 X1.066 Y-1.3735 Z-0.095
N2675 G3 X1.0356 Y-1.3682 I-0.0256 J-0.0568
N2680 G1 X0.9945 Y-1.3729
N2685 X0.9698 Y-1.3749
N2690 X0.9616 Y-1.375
N2695 X0.8958
N2700 X0.8697 Y-1.3763
N2705 X0.8487 Y-1.3788
N2710 X0.8211 Y-1.3841
N2715 X0.7861 Y-1.3933
N2720 G3 X0.6164 Y-1.4558 I0.8989 J-2.6998
N2725 G2 X0.2687 Y-1.5539 I-0.6836 J1.759
N2730 X-0.7555 Y-1.3838 I-0.2673 J1.5593
N2735 G1 X-0.7661 Y-1.3789
N2740 X-0.7775 Y-1.376
N2745 X-0.7892 Y-1.375
N2750 X-0.9558
N2755 G3 X-0.9788 Y-1.3926 I0.0009 J-0.025
N2760 G1 X-0.98 Y-1.3964 Z-0.0947
N2765 X-0.9811 Y-1.4 Z-0.0938
N2770 X-0.9822 Y-1.4035 Z-0.0923
N2775 X-0.9832 Y-1.4067 Z-0.0902
N2780 X-0.984 Y-1.4095 Z-0.0877
N2785 X-0.9848 Y-1.4119 Z-0.0847
N2790 X-0.9854 Y-1.4139 Z-0.0813
N2795 X-0.9858 Y-1.4153 Z-0.0777
N2800 X-0.9861 Y-1.4162 Z-0.0739
N2805 X-0.9862 Y-1.4165 Z-0.07
N2810 G0 Z0.2
N2815 G1 X-1.3965 Y-0.947 F300.
N2820 G0 Z-0.045
N2825 G1 Z-0.07 F24.
N2830 X-1.3963 Y-0.9467 Z-0.0739
N2835 X-1.3959 Y-0.946 Z-0.0777
N2840 X-1.3951 Y-0.9447 Z-0.0813
N2845 X-1.394 Y-0.9429 Z-0.0847
N2850 X-1.3927 Y-0.9407 Z-0.0877
N2855 X-1.3912 Y-0.9381 Z-0.0902
N2860 X-1.3895 Y-0.9353 Z-0.0923
N2865 X-1.3877 Y-0.9322 Z-0.0938
N2870 X-1.3857 Y-0.9289 Z-0.0947
N2875 X-1.3837 Y-0.9255 Z-0.095
N2880 G3 X-1.375 Y-0.8958 I-0.0536 J0.0318
N2885 G1 Y-0.6986
N2890 X-1.3766 Y-0.6671
N2895 X-1.3806 Y-0.6339
N2900 X-1.3873 Y-0.5983
N2905 G3 X-1.433 Y-0.4233 I-4.6593 J-1.1235
N2910 G2 X-1.487 Y-0.1026 I1.7324 J0.4565
N2915 X-1.3769 Y0.5704 I1.5008 J0.0999
N2920 G1 X-1.3756 Y0.5793
N2925 X-1.375 Y0.5881
N2930 Y0.7892
N2935 G3 X-1.3926 Y0.8122 I-0.025 J-0.0009
N2940 G1 X-1.3964 Y0.8134 Z-0.0947
N2945 X-1.4 Y0.8145 Z-0.0938
N2950 X-1.4035 Y0.8156 Z-0.0923
N2955 X-1.4067 Y0.8165 Z-0.0902
N2960 X-1.4095 Y0.8174 Z-0.0877
N2965 X-1.4119 Y0.8182 Z-0.0847
N2970 X-1.4139 Y0.8188 Z-0.0813
N2975 X-1.4153 Y0.8192 Z-0.0777
N2980 X-1.4162 Y0.8195 Z-0.0739
N2985 X-1.4165 Y0.8196 Z-0.07
N2990 G0 Z0.2
N2995 G1 X-0.947 Y1.3965 F300.
N3000 G0 Z-0.045
N3005 G1 Z-0.07 F24.
N3010 X-0.9467 Y1.3963 Z-0.0739
N3015 X-0.946 Y1.3959 Z-0.0777
N3020 X-0.9447 Y1.3951 Z-0.0813
N3025 X-0.9429 Y1.394 Z-0.0847
N3030 X-0.9407 Y1.3927 Z-0.0877
N3035 X-0.9381 Y1.3912 Z-0.0902
N3040 X-0.9353 Y1.3895 Z-0.0923
N3045 X-0.9322 Y1.3877 Z-0.0938
N3050 X-0.9289 Y1.3857 Z-0.0947
N3055 X-0.9255 Y1.3837 Z-0.095
N3060 G3 X-0.8958 Y1.375 I0.0318 J0.0536
N3065 G1 X-0.6986
N3070 X-0.6671 Y1.3766
N3075 X-0.6339 Y1.3806
N3080 X-0.5983 Y1.3873
N3085 G3 X-0.4233 Y1.433 I-1.1235 J4.6593
N3090 G2 X-0.1026 Y1.487 I0.4565 J-1.7324
N3095 X0.5704 Y1.3769 I0.0999 J-1.5008
N3100 G1 X0.5793 Y1.3756
N3105 X0.5881 Y1.375
N3110 X0.7892
N3115 G3 X0.8122 Y1.3926 I-0.0009 J0.025
N3120 G1 X0.8134 Y1.3964 Z-0.0947
N3125 X0.8145 Y1.4 Z-0.0938
N3130 X0.8156 Y1.4035 Z-0.0923
N3135 X0.8165 Y1.4067 Z-0.0902
N3140 X0.8174 Y1.4095 Z-0.0877
N3145 X0.8182 Y1.4119 Z-0.0847
N3150 X0.8188 Y1.4139 Z-0.0813
N3155 X0.8192 Y1.4153 Z-0.0777
N3160 X0.8195 Y1.4162 Z-0.0739
N3165 X0.8196 Y1.4165 Z-0.07
N3170 G0 Z0.2
N3175 G1 X1.3965 Y0.947 F300.
N3180 G0 Z-0.045
N3185 G1 Z-0.07 F24.
N3190 X1.3963 Y0.9467 Z-0.0739
N3195 X1.3959 Y0.946 Z-0.0777
N3200 X1.3951 Y0.9447 Z-0.0813
N3205 X1.394 Y0.9429 Z-0.0847
N3210 X1.3927 Y0.9407 Z-0.0877
N3215 X1.3912 Y0.9381 Z-0.0902
N3220 X1.3895 Y0.9353 Z-0.0923
N3225 X1.3877 Y0.9322 Z-0.0938
N3230 X1.3857 Y0.9289 Z-0.0947
N3235 X1.3837 Y0.9255 Z-0.095
N3240 G3 X1.375 Y0.8958 I0.0536 J-0.0318
N3245 G1 Y0.6986
N3250 X1.3766 Y0.6671
N3255 X1.3806 Y0.6339
N3260 X1.3873 Y0.5983
N3265 G3 X1.433 Y0.4233 I4.6593 J1.1235
N3270 G2 X1.487 Y0.1026 I-1.7324 J-0.4565
N3275 X1.3769 Y-0.5704 I-1.5008 J-0.0999
N3280 G1 X1.3756 Y-0.5793
N3285 X1.375 Y-0.5881
N3290 Y-0.7892
N3295 G3 X1.3926 Y-0.8122 I0.025 J0.0009
N3300 G1 X1.3964 Y-0.8134 Z-0.0947
N3305 X1.4 Y-0.8145 Z-0.0938
N3310 X1.4035 Y-0.8156 Z-0.0923
N3315 X1.4067 Y-0.8165 Z-0.0902
N3320 X1.4095 Y-0.8174 Z-0.0877
N3325 X1.4119 Y-0.8182 Z-0.0847
N3330 X1.4139 Y-0.8188 Z-0.0813
N3335 X1.4153 Y-0.8192 Z-0.0777
N3340 X1.4162 Y-0.8195 Z-0.0739
N3345 X1.4165 Y-0.8196 Z-0.07
N3350 G0 Z0.2
N3355 G1 X0.947 Y-1.3965 F300.
N3360 G0 Z-0.045
N3365 G1 Z-0.07 F24.
N3370 X0.9467 Y-1.3963 Z-0.0739
N3375 X0.946 Y-1.3959 Z-0.0777
N3380 X0.9447 Y-1.3951 Z-0.0813
N3385 X0.9429 Y-1.394 Z-0.0847
N3390 X0.9407 Y-1.3927 Z-0.0877
N3395 X0.9381 Y-1.3912 Z-0.0902
N3400 X0.9353 Y-1.3895 Z-0.0923
N3405 X0.9322 Y-1.3877 Z-0.0938
N3410 X0.9289 Y-1.3857 Z-0.0947
N3415 X0.9255 Y-1.3837 Z-0.095
N3420 G3 X0.8958 Y-1.375 I-0.0318 J-0.0536
N3425 G1 X0.6986
N3430 X0.6671 Y-1.3766
N3435 X0.6339 Y-1.3806
N3440 X0.5983 Y-1.3873
N3445 G3 X0.4233 Y-1.433 I1.1235 J-4.6593
N3450 G2 X0.1026 Y-1.487 I-0.4565 J1.7324
N3455 X-0.5704 Y-1.3769 I-0.0999 J1.5008
N3460 G1 X-0.5793 Y-1.3756
N3465 X-0.5881 Y-1.375
N3470 X-0.7892
N3475 G3 X-0.8122 Y-1.3926 I0.0009 J-0.025
N3480 G1 X-0.8134 Y-1.3964 Z-0.0947
N3485 X-0.8145 Y-1.4 Z-0.0938
N3490 X-0.8156 Y-1.4035 Z-0.0923
N3495 X-0.8165 Y-1.4067 Z-0.0902
N3500 X-0.8174 Y-1.4095 Z-0.0877
N3505 X-0.8182 Y-1.4119 Z-0.0847
N3510 X-0.8188 Y-1.4139 Z-0.0813
N3515 X-0.8192 Y-1.4153 Z-0.0777
N3520 X-0.8195 Y-1.4162 Z-0.0739
N3525 X-0.8196 Y-1.4165 Z-0.07
N3530 G0 Z0.2
N3535 G1 X-1.3965 Y-0.7498 F300.
N3540 G0 Z-0.045
N3545 G1 Z-0.07 F24.
N3550 X-1.3963 Y-0.7495 Z-0.0739
N3555 X-1.3959 Y-0.7487 Z-0.0777
N3560 X-1.3951 Y-0.7474 Z-0.0813
N3565 X-1.394 Y-0.7457 Z-0.0847
N3570 X-1.3927 Y-0.7435 Z-0.0877
N3575 X-1.3912 Y-0.7409 Z-0.0902
N3580 X-1.3895 Y-0.738 Z-0.0923
N3585 X-1.3877 Y-0.7349 Z-0.0938
N3590 X-1.3857 Y-0.7316 Z-0.0947
N3595 X-1.3837 Y-0.7283 Z-0.095
N3600 G3 X-1.375 Y-0.6986 I-0.0536 J0.0318
N3605 G1 Y-0.4849
N3610 G3 X-1.3932 Y-0.3617 I-0.464 J-0.0054
N3615 G1 X-1.4102 Y-0.2877
N3620 X-1.412 Y-0.2794
N3625 X-1.417 Y-0.2548
N3630 X-1.4319 Y-0.1479
N3635 X-1.4343 Y-0.1233
N3640 X-1.4348 Y-0.1151
N3645 X-1.4394 Y-0.0164
N3650 X-1.4395 Y-0.0082
N3655 Y0.0082
N3660 X-1.4394 Y0.0164
N3665 X-1.4348 Y0.1151
N3670 X-1.4343 Y0.1233
N3675 X-1.4319 Y0.1479
N3680 X-1.417 Y0.2548
N3685 X-1.412 Y0.2794
N3690 G3 X-1.3801 Y0.4191 I-4.9406 J1.2026
N3695 X-1.375 Y0.4931 I-0.4797 J0.0706
N3700 G1 Y0.5881
N3705 G3 X-1.3926 Y0.6111 I-0.025 J-0.0009
N3710 G1 X-1.3964 Y0.6122 Z-0.0947
N3715 X-1.4 Y0.6134 Z-0.0938
N3720 X-1.4035 Y0.6144 Z-0.0923
N3725 X-1.4067 Y0.6154 Z-0.0902
N3730 X-1.4095 Y0.6163 Z-0.0877
N3735 X-1.4119 Y0.617 Z-0.0847
N3740 X-1.4139 Y0.6176 Z-0.0813
N3745 X-1.4153 Y0.6181 Z-0.0777
N3750 X-1.4162 Y0.6184 Z-0.0739
N3755 X-1.4165 Z-0.07
N3760 G0 Z0.2
N3765 G1 X-0.7498 Y1.3965 F300.
N3770 G0 Z-0.045
N3775 G1 Z-0.07 F24.
N3780 X-0.7495 Y1.3963 Z-0.0739
N3785 X-0.7487 Y1.3959 Z-0.0777
N3790 X-0.7474 Y1.3951 Z-0.0813
N3795 X-0.7457 Y1.394 Z-0.0847
N3800 X-0.7435 Y1.3927 Z-0.0877
N3805 X-0.7409 Y1.3912 Z-0.0902
N3810 X-0.738 Y1.3895 Z-0.0923
N3815 X-0.7349 Y1.3877 Z-0.0938
N3820 X-0.7316 Y1.3857 Z-0.0947
N3825 X-0.7283 Y1.3837 Z-0.095
N3830 G3 X-0.6986 Y1.375 I0.0318 J0.0536
N3835 G1 X-0.4849
N3840 G3 X-0.3617 Y1.3932 I-0.0054 J0.464
N3845 G1 X-0.2877 Y1.4102
N3850 X-0.2794 Y1.412
N3855 X-0.2548 Y1.417
N3860 X-0.1479 Y1.4319
N3865 X-0.1233 Y1.4343
N3870 X-0.1151 Y1.4348
N3875 X-0.0164 Y1.4394
N3880 X-0.0082 Y1.4395
N3885 X0.0082
N3890 X0.0164 Y1.4394
N3895 X0.1151 Y1.4348
N3900 X0.1233 Y1.4343
N3905 X0.1479 Y1.4319
N3910 X0.2548 Y1.417
N3915 X0.2794 Y1.412
N3920 G3 X0.4191 Y1.3801 I1.2026 J4.9405
N3925 X0.4931 Y1.375 I0.0706 J0.4797
N3930 G1 X0.5881
N3935 G3 X0.6111 Y1.3926 I-0.0009 J0.025
N3940 G1 X0.6122 Y1.3964 Z-0.0947
N3945 X0.6134 Y1.4 Z-0.0938
N3950 X0.6144 Y1.4035 Z-0.0923
N3955 X0.6154 Y1.4067 Z-0.0902
N3960 X0.6163 Y1.4095 Z-0.0877
N3965 X0.617 Y1.4119 Z-0.0847
N3970 X0.6176 Y1.4139 Z-0.0813
N3975 X0.6181 Y1.4153 Z-0.0777
N3980 X0.6184 Y1.4162 Z-0.0739
N3985 Y1.4165 Z-0.07
N3990 G0 Z0.2
N3995 G1 X1.3965 Y0.7498 F300.
N4000 G0 Z-0.045
N4005 G1 Z-0.07 F24.
N4010 X1.3963 Y0.7495 Z-0.0739
N4015 X1.3959 Y0.7487 Z-0.0777
N4020 X1.3951 Y0.7474 Z-0.0813
N4025 X1.394 Y0.7457 Z-0.0847
N4030 X1.3927 Y0.7435 Z-0.0877
N4035 X1.3912 Y0.7409 Z-0.0902
N4040 X1.3895 Y0.738 Z-0.0923
N4045 X1.3877 Y0.7349 Z-0.0938
N4050 X1.3857 Y0.7316 Z-0.0947
N4055 X1.3837 Y0.7283 Z-0.095
N4060 G3 X1.375 Y0.6986 I0.0536 J-0.0318
N4065 G1 Y0.4849
N4070 G3 X1.3932 Y0.3617 I0.464 J0.0054
N4075 G1 X1.4102 Y0.2877
N4080 X1.412 Y0.2794
N4085 X1.417 Y0.2548
N4090 X1.4319 Y0.1479
N4095 X1.4343 Y0.1233
N4100 X1.4348 Y0.1151
N4105 X1.4394 Y0.0164
N4110 X1.4395 Y0.0082
N4115 Y-0.0082
N4120 X1.4394 Y-0.0164
N4125 X1.4348 Y-0.1151
N4130 X1.4343 Y-0.1233
N4135 X1.4319 Y-0.1479
N4140 X1.417 Y-0.2548
N4145 X1.412 Y-0.2794
N4150 G3 X1.3801 Y-0.4191 I4.9406 J-1.2026
N4155 X1.375 Y-0.4931 I0.4797 J-0.0706
N4160 G1 Y-0.5881
N4165 G3 X1.3926 Y-0.6111 I0.025 J0.0009
N4170 G1 X1.3964 Y-0.6122 Z-0.0947
N4175 X1.4 Y-0.6134 Z-0.0938
N4180 X1.4035 Y-0.6144 Z-0.0923
N4185 X1.4067 Y-0.6154 Z-0.0902
N4190 X1.4095 Y-0.6163 Z-0.0877
N4195 X1.4119 Y-0.617 Z-0.0847
N4200 X1.4139 Y-0.6176 Z-0.0813
N4205 X1.4153 Y-0.6181 Z-0.0777
N4210 X1.4162 Y-0.6184 Z-0.0739
N4215 X1.4165 Z-0.07
N4220 G0 Z0.2
N4225 G1 X0.7498 Y-1.3965 F300.
N4230 G0 Z-0.045
N4235 G1 Z-0.07 F24.
N4240 X0.7495 Y-1.3963 Z-0.0739
N4245 X0.7487 Y-1.3959 Z-0.0777
N4250 X0.7474 Y-1.3951 Z-0.0813
N4255 X0.7457 Y-1.394 Z-0.0847
N4260 X0.7435 Y-1.3927 Z-0.0877
N4265 X0.7409 Y-1.3912 Z-0.0902
N4270 X0.738 Y-1.3895 Z-0.0923
N4275 X0.7349 Y-1.3877 Z-0.0938
N4280 X0.7316 Y-1.3857 Z-0.0947
N4285 X0.7283 Y-1.3837 Z-0.095
N4290 G3 X0.6986 Y-1.375 I-0.0318 J-0.0536
N4295 G1 X0.4849
N4300 G3 X0.3617 Y-1.3932 I0.0054 J-0.464
N4305 G1 X0.2877 Y-1.4102
N4310 X0.2794 Y-1.412
N4315 X0.2548 Y-1.417
N4320 X0.1479 Y-1.4319
N4325 X0.1233 Y-1.4343
N4330 X0.1151 Y-1.4348
N4335 X0.0164 Y-1.4394
N4340 X0.0082 Y-1.4395
N4345 X-0.0082
N4350 X-0.0164 Y-1.4394
N4355 X-0.1151 Y-1.4348
N4360 X-0.1233 Y-1.4343
N4365 X-0.1479 Y-1.4319
N4370 X-0.2548 Y-1.417
N4375 X-0.2794 Y-1.412
N4380 G3 X-0.4191 Y-1.3801 I-1.2026 J-4.9405
N4385 X-0.4931 Y-1.375 I-0.0706 J-0.4797
N4390 G1 X-0.5881
N4395 X-0.591 Y-1.3753
N4400 X-0.5939 Y-1.3759
N4405 X-0.5966 Y-1.3772 Z-0.0948
N4410 X-0.5993 Y-1.3785 Z-0.0943
N4415 X-0.6018 Y-1.3797 Z-0.0934
N4420 X-0.604 Y-1.382 Z-0.0919
N4425 X-0.6061 Y-1.3841 Z-0.09
N4430 X-0.6079 Y-1.386 Z-0.0877
N4435 X-0.609 Y-1.3883 Z-0.0847
N4440 X-0.6099 Y-1.3902 Z-0.0814
N4445 X-0.6106 Y-1.3915 Z-0.0777
N4450 X-0.611 Y-1.3923 Z-0.0739
N4455 X-0.6111 Y-1.3926 Z-0.07
N4460 G0 Z0.2
N4465 G1 X-1.314 Y-1.2799 F300.
N4470 G0 Z-0.08
N4475 G1 Z-0.105 F24.
N4480 Y-1.2796 Z-0.1089
N4485 X-1.3141 Y-1.2787 Z-0.1127
N4490 X-1.3142 Y-1.2772 Z-0.1163
N4495 X-1.3144 Y-1.2751 Z-0.1197
N4500 X-1.3147 Y-1.2726 Z-0.1227
N4505 X-1.315 Y-1.2696 Z-0.1252
N4510 X-1.3153 Y-1.2663 Z-0.1273
N4515 X-1.3156 Y-1.2627 Z-0.1288
N4520 X-1.316 Y-1.2589 Z-0.1297
N4525 X-1.3164 Y-1.255 Z-0.13
N4530 G3 X-1.3442 Y-1.1203 I-0.6353 J-0.0612
N4535 G2 X-1.3645 Y-1.0602 I0.6947 J0.2686
N4540 G1 X-1.3661 Y-1.052
N4545 X-1.3673 Y-1.0438
N4550 X-1.3682 Y-1.0356
N4555 X-1.3715 Y-1.016
N4560 X-1.3768 Y-0.9933
N4565 X-1.3861 Y-0.9635
N4570 X-1.3992 Y-0.9298
N4575 X-1.4142 Y-0.8968
N4580 G2 X-1.5238 Y-0.6686 I4.5792 J2.3402
N4585 X-1.5864 Y-0.4989 I1.8758 J0.7882
N4590 X-1.4228 Y0.8606 I1.589 J0.4983
N4595 G1 X-1.4037 Y0.8913
N4600 X-1.3865 Y0.9175
N4605 X-1.3802 Y0.9294
N4610 X-1.3763 Y0.9424
N4615 X-1.375 Y0.9558
N4620 Y0.9616
N4625 X-1.3749 Y0.9698
N4630 G2 X-1.3646 Y1.0602 I0.901 J-0.0563
N4635 G1 X-1.3622 Y1.0684
N4640 X-1.3595 Y1.0767
N4645 X-1.3538 Y1.0931
N4650 G3 X-1.3524 Y1.1032 Z-0.1279 I-0.0236 J0.0083
N4655 G2 X-1.3507 Y1.1145 Z-0.1256 I0.0249 J0.0019
N4660 G1 X-1.3475 Y1.1224 Z-0.1238
N4665 X-1.3442 Y1.1307 Z-0.122
N4670 X-1.2758 Y1.3008
N4675 G2 X-1.255 Y1.3164 I0.0232 J-0.0093
N4680 G3 X-1.158 Y1.3333 I-0.0612 J0.6353
N4685 G1 X-1.1494 Y1.3356 Z-0.1238
N4690 G3 X-1.1203 Y1.3442 Z-0.13 I-0.1668 J0.6161
N4695 G2 X-1.0602 Y1.3645 I0.2686 J-0.6947
N4700 G1 X-1.052 Y1.3661
N4705 X-1.0438 Y1.3673
N4710 X-1.0356 Y1.3682
N4715 X-1.016 Y1.3715
N4720 X-0.9933 Y1.3768
N4725 X-0.9635 Y1.3861
N4730 X-0.9298 Y1.3992
N4735 X-0.8968 Y1.4142
N4740 G2 X-0.6686 Y1.5238 I2.3402 J-4.5792
N4745 X-0.4989 Y1.5864 I0.7882 J-1.8758
N4750 X0.8606 Y1.4228 I0.4983 J-1.589
N4755 G1 X0.8913 Y1.4037
N4760 X0.9175 Y1.3865
N4765 X0.9294 Y1.3802
N4770 X0.9424 Y1.3763
N4775 X0.9558 Y1.375
N4780 X0.9616
N4785 X0.9698 Y1.3749
N4790 G2 X1.0602 Y1.3646 I-0.0563 J-0.901
N4795 G1 X1.0684 Y1.3622
N4800 X1.0767 Y1.3595
N4805 X1.0931 Y1.3538
N4810 G3 X1.1032 Y1.3524 Z-0.1279 I0.0083 J0.0236
N4815 G2 X1.1145 Y1.3507 Z-0.1256 I0.0019 J-0.0249
N4820 G1 X1.1224 Y1.3475 Z-0.1238
N4825 X1.1307 Y1.3442 Z-0.122
N4830 X1.3008 Y1.2758
N4835 G2 X1.3164 Y1.255 I-0.0093 J-0.0232
N4840 G3 X1.3333 Y1.158 I0.6353 J0.0612
N4845 G1 X1.3356 Y1.1494 Z-0.1238
N4850 G3 X1.3442 Y1.1203 Z-0.13 I0.6161 J0.1668
N4855 G2 X1.3645 Y1.0602 I-0.6947 J-0.2686
N4860 G1 X1.3661 Y1.052
N4865 X1.3673 Y1.0438
N4870 X1.3682 Y1.0356
N4875 X1.3715 Y1.016
N4880 X1.3768 Y0.9933
N4885 X1.3861 Y0.9635
N4890 X1.3992 Y0.9298
N4895 X1.4142 Y0.8968
N4900 G2 X1.5238 Y0.6686 I-4.5791 J-2.3401
N4905 X1.5864 Y0.4989 I-1.8759 J-0.7882
N4910 X1.4228 Y-0.8606 I-1.589 J-0.4983
N4915 G1 X1.4037 Y-0.8914
N4920 X1.3865 Y-0.9175
N4925 X1.3802 Y-0.9294
N4930 X1.3763 Y-0.9424
N4935 X1.375 Y-0.9558
N4940 Y-0.9616
N4945 X1.3749 Y-0.9698
N4950 G2 X1.3646 Y-1.0602 I-0.9014 J0.0563
N4955 G1 X1.3622 Y-1.0684
N4960 X1.3595 Y-1.0767
N4965 X1.3538 Y-1.0931
N4970 G3 X1.3524 Y-1.1032 Z-0.1279 I0.0236 J-0.0083
N4975 G2 X1.3507 Y-1.1145 Z-0.1256 I-0.0249 J-0.0019
N4980 G1 X1.3475 Y-1.1224 Z-0.1238
N4985 X1.3442 Y-1.1307 Z-0.122
N4990 X1.2758 Y-1.3008
N4995 G2 X1.255 Y-1.3164 I-0.0232 J0.0093
N5000 G3 X1.158 Y-1.3333 I0.0612 J-0.6353
N5005 G1 X1.1494 Y-1.3356 Z-0.1238
N5010 G3 X1.1203 Y-1.3442 Z-0.13 I0.1668 J-0.6161
N5015 G2 X1.0602 Y-1.3645 I-0.2686 J0.6947
N5020 G1 X1.052 Y-1.3661
N5025 X1.0438 Y-1.3673
N5030 X1.0356 Y-1.3682
N5035 X1.016 Y-1.3715
N5040 X0.9933 Y-1.3768
N5045 X0.9635 Y-1.3861
N5050 X0.9298 Y-1.3992
N5055 X0.8968 Y-1.4142
N5060 G2 X0.6686 Y-1.5238 I-2.3401 J4.5791
N5065 X0.4989 Y-1.5864 I-0.7882 J1.8759
N5070 X-0.8606 Y-1.4228 I-0.4983 J1.589
N5075 G1 X-0.8914 Y-1.4037
N5080 X-0.9175 Y-1.3865
N5085 X-0.9294 Y-1.3802
N5090 X-0.9424 Y-1.3763
N5095 X-0.9558 Y-1.375
N5100 X-0.9616
N5105 X-0.9698 Y-1.3749
N5110 G2 X-1.0602 Y-1.3646 I0.0563 J0.9014
N5115 G1 X-1.0684 Y-1.3622
N5120 X-1.0767 Y-1.3595
N5125 X-1.0931 Y-1.3538
N5130 G3 X-1.1206 Y-1.3628 I-0.0074 J-0.0239
N5135 G1 X-1.123 Y-1.3659 Z-0.1297
N5140 X-1.1252 Y-1.369 Z-0.1288
N5145 X-1.1274 Y-1.3719 Z-0.1273
N5150 X-1.1294 Y-1.3746 Z-0.1252
N5155 X-1.1311 Y-1.377 Z-0.1227
N5160 X-1.1327 Y-1.3791 Z-0.1197
N5165 X-1.1339 Y-1.3807 Z-0.1163
N5170 X-1.1348 Y-1.3819 Z-0.1127
N5175 X-1.1353 Y-1.3827 Z-0.1089
N5180 X-1.1355 Y-1.3829 Z-0.105
N5185 G0 Z0.2
N5190 G1 X-1.3838 Y-1.0888 F300.
N5195 G0 Z-0.08
N5200 G1 Z-0.105 F24.
N5205 X-1.3837 Y-1.0886 Z-0.1089
N5210 X-1.3833 Y-1.0877 Z-0.1127
N5215 X-1.3827 Y-1.0863 Z-0.1163
N5220 X-1.3818 Y-1.0845 Z-0.1197
N5225 X-1.3808 Y-1.0822 Z-0.1227
N5230 X-1.3796 Y-1.0794 Z-0.1252
N5235 X-1.3782 Y-1.0764 Z-0.1273
N5240 X-1.3767 Y-1.0731 Z-0.1288
N5245 X-1.3751 Y-1.0696 Z-0.1297
N5250 X-1.3735 Y-1.066 Z-0.13
N5255 G3 X-1.3682 Y-1.0356 I-0.0568 J0.0256
N5260 G1 X-1.3729 Y-0.9945
N5265 X-1.3749 Y-0.9698
N5270 X-1.375 Y-0.9616
N5275 Y-0.8958
N5280 X-1.3763 Y-0.8697
N5285 X-1.3788 Y-0.8487
N5290 X-1.3841 Y-0.8211
N5295 X-1.3933 Y-0.7861
N5300 G3 X-1.4558 Y-0.6164 I-2.6997 J-0.8989
N5305 G2 X-1.5539 Y-0.2687 I1.759 J0.6836
N5310 X-1.3838 Y0.7555 I1.5593 J0.2673
N5315 G1 X-1.3789 Y0.7661
N5320 X-1.376 Y0.7775
N5325 X-1.375 Y0.7892
N5330 Y0.9558
N5335 G3 X-1.3926 Y0.9788 I-0.025 J-0.0009
N5340 G1 X-1.3964 Y0.98 Z-0.1297
N5345 X-1.4 Y0.9811 Z-0.1288
N5350 X-1.4035 Y0.9822 Z-0.1273
N5355 X-1.4067 Y0.9832 Z-0.1252
N5360 X-1.4095 Y0.984 Z-0.1227
N5365 X-1.4119 Y0.9848 Z-0.1197
N5370 X-1.4139 Y0.9854 Z-0.1163
N5375 X-1.4153 Y0.9858 Z-0.1127
N5380 X-1.4162 Y0.9861 Z-0.1089
N5385 X-1.4165 Y0.9862 Z-0.105
N5390 G0 Z0.2
N5395 G1 X-1.0888 Y1.3838 F300.
N5400 G0 Z-0.08
N5405 G1 Z-0.105 F24.
N5410 X-1.0886 Y1.3837 Z-0.1089
N5415 X-1.0877 Y1.3833 Z-0.1127
N5420 X-1.0863 Y1.3827 Z-0.1163
N5425 X-1.0845 Y1.3818 Z-0.1197
N5430 X-1.0822 Y1.3808 Z-0.1227
N5435 X-1.0794 Y1.3796 Z-0.1252
N5440 X-1.0764 Y1.3782 Z-0.1273
N5445 X-1.0731 Y1.3767 Z-0.1288
N5450 X-1.0696 Y1.3751 Z-0.1297
N5455 X-1.066 Y1.3735 Z-0.13
N5460 G3 X-1.0356 Y1.3682 I0.0256 J0.0568
N5465 G1 X-0.9945 Y1.3729
N5470 X-0.9698 Y1.3749
N5475 X-0.9616 Y1.375
N5480 X-0.8958
N5485 X-0.8697 Y1.3763
N5490 X-0.8487 Y1.3788
N5495 X-0.8211 Y1.3841
N5500 X-0.7861 Y1.3933
N5505 G3 X-0.6164 Y1.4558 I-0.8989 J2.6997
N5510 G2 X-0.2687 Y1.5539 I0.6836 J-1.759
N5515 X0.7555 Y1.3838 I0.2673 J-1.5593
N5520 G1 X0.7661 Y1.3789
N5525 X0.7775 Y1.376
N5530 X0.7892 Y1.375
N5535 X0.9558
N5540 G3 X0.9788 Y1.3926 I-0.0009 J0.025
N5545 G1 X0.98 Y1.3964 Z-0.1297
N5550 X0.9811 Y1.4 Z-0.1288
N5555 X0.9822 Y1.4035 Z-0.1273
N5560 X0.9832 Y1.4067 Z-0.1252
N5565 X0.984 Y1.4095 Z-0.1227
N5570 X0.9848 Y1.4119 Z-0.1197
N5575 X0.9854 Y1.4139 Z-0.1163
N5580 X0.9858 Y1.4153 Z-0.1127
N5585 X0.9861 Y1.4162 Z-0.1089
N5590 X0.9862 Y1.4165 Z-0.105
N5595 G0 Z0.2
N5600 G1 X1.3838 Y1.0888 F300.
N5605 G0 Z-0.08
N5610 G1 Z-0.105 F24.
N5615 X1.3837 Y1.0886 Z-0.1089
N5620 X1.3833 Y1.0877 Z-0.1127
N5625 X1.3827 Y1.0863 Z-0.1163
N5630 X1.3818 Y1.0845 Z-0.1197
N5635 X1.3808 Y1.0822 Z-0.1227
N5640 X1.3796 Y1.0794 Z-0.1252
N5645 X1.3782 Y1.0764 Z-0.1273
N5650 X1.3767 Y1.0731 Z-0.1288
N5655 X1.3751 Y1.0696 Z-0.1297
N5660 X1.3735 Y1.066 Z-0.13
N5665 G3 X1.3682 Y1.0356 I0.0568 J-0.0256
N5670 G1 X1.3729 Y0.9945
N5675 X1.3749 Y0.9698
N5680 X1.375 Y0.9616
N5685 Y0.8958
N5690 X1.3763 Y0.8697
N5695 X1.3788 Y0.8487
N5700 X1.3841 Y0.8211
N5705 X1.3933 Y0.7861
N5710 G3 X1.4558 Y0.6164 I2.6998 J0.8989
N5715 G2 X1.5539 Y0.2687 I-1.759 J-0.6836
N5720 X1.3838 Y-0.7555 I-1.5593 J-0.2673
N5725 G1 X1.3789 Y-0.7661
N5730 X1.376 Y-0.7775
N5735 X1.375 Y-0.7892
N5740 Y-0.9558
N5745 G3 X1.3926 Y-0.9788 I0.025 J0.0009
N5750 G1 X1.3964 Y-0.98 Z-0.1297
N5755 X1.4 Y-0.9811 Z-0.1288
N5760 X1.4035 Y-0.9822 Z-0.1273
N5765 X1.4067 Y-0.9832 Z-0.1252
N5770 X1.4095 Y-0.984 Z-0.1227
N5775 X1.4119 Y-0.9848 Z-0.1197
N5780 X1.4139 Y-0.9854 Z-0.1163
N5785 X1.4153 Y-0.9858 Z-0.1127
N5790 X1.4162 Y-0.9861 Z-0.1089
N5795 X1.4165 Y-0.9862 Z-0.105
N5800 G0 Z0.2
N5805 G1 X1.0888 Y-1.3838 F300.
N5810 G0 Z-0.08
N5815 G1 Z-0.105 F24.
N5820 X1.0886 Y-1.3837 Z-0.1089
N5825 X1.0877 Y-1.3833 Z-0.1127
N5830 X1.0863 Y-1.3827 Z-0.1163
N5835 X1.0845 Y-1.3818 Z-0.1197
N5840 X1.0822 Y-1.3808 Z-0.1227
N5845 X1.0794 Y-1.3796 Z-0.1252
N5850 X1.0764 Y-1.3782 Z-0.1273
N5855 X1.0731 Y-1.3767 Z-0.1288
N5860 X1.0696 Y-1.3751 Z-0.1297
N5865 X1.066 Y-1.3735 Z-0.13
N5870 G3 X1.0356 Y-1.3682 I-0.0256 J-0.0568
N5875 G1 X0.9945 Y-1.3729
N5880 X0.9698 Y-1.3749
N5885 X0.9616 Y-1.375
N5890 X0.8958
N5895 X0.8697 Y-1.3763
N5900 X0.8487 Y-1.3788
N5905 X0.8211 Y-1.3841
N5910 X0.7861 Y-1.3933
N5915 G3 X0.6164 Y-1.4558 I0.8989 J-2.6998
N5920 G2 X0.2687 Y-1.5539 I-0.6836 J1.759
N5925 X-0.7555 Y-1.3838 I-0.2673 J1.5593
N5930 G1 X-0.7661 Y-1.3789
N5935 X-0.7775 Y-1.376
N5940 X-0.7892 Y-1.375
N5945 X-0.9558
N5950 G3 X-0.9788 Y-1.3926 I0.0009 J-0.025
N5955 G1 X-0.98 Y-1.3964 Z-0.1297
N5960 X-0.9811 Y-1.4 Z-0.1288
N5965 X-0.9822 Y-1.4035 Z-0.1273
N5970 X-0.9832 Y-1.4067 Z-0.1252
N5975 X-0.984 Y-1.4095 Z-0.1227
N5980 X-0.9848 Y-1.4119 Z-0.1197
N5985 X-0.9854 Y-1.4139 Z-0.1163
N5990 X-0.9858 Y-1.4153 Z-0.1127
N5995 X-0.9861 Y-1.4162 Z-0.1089
N6000 X-0.9862 Y-1.4165 Z-0.105
N6005 G0 Z0.2
N6010 G1 X-1.3965 Y-0.947 F300.
N6015 G0 Z-0.08
N6020 G1 Z-0.105 F24.
N6025 X-1.3963 Y-0.9467 Z-0.1089
N6030 X-1.3959 Y-0.946 Z-0.1127
N6035 X-1.3951 Y-0.9447 Z-0.1163
N6040 X-1.394 Y-0.9429 Z-0.1197
N6045 X-1.3927 Y-0.9407 Z-0.1227
N6050 X-1.3912 Y-0.9381 Z-0.1252
N6055 X-1.3895 Y-0.9353 Z-0.1273
N6060 X-1.3877 Y-0.9322 Z-0.1288
N6065 X-1.3857 Y-0.9289 Z-0.1297
N6070 X-1.3837 Y-0.9255 Z-0.13
N6075 G3 X-1.375 Y-0.8958 I-0.0536 J0.0318
N6080 G1 Y-0.6986
N6085 X-1.3766 Y-0.6671
N6090 X-1.3806 Y-0.6339
N6095 X-1.3873 Y-0.5983
N6100 G3 X-1.433 Y-0.4233 I-4.6593 J-1.1235
N6105 G2 X-1.487 Y-0.1026 I1.7324 J0.4565
N6110 X-1.3769 Y0.5704 I1.5008 J0.0999
N6115 G1 X-1.3756 Y0.5793
N6120 X-1.375 Y0.5881
N6125 Y0.7892
N6130 G3 X-1.3926 Y0.8122 I-0.025 J-0.0009
N6135 G1 X-1.3964 Y0.8134 Z-0.1297
N6140 X-1.4 Y0.8145 Z-0.1288
N6145 X-1.4035 Y0.8156 Z-0.1273
N6150 X-1.4067 Y0.8165 Z-0.1252
N6155 X-1.4095 Y0.8174 Z-0.1227
N6160 X-1.4119 Y0.8182 Z-0.1197
N6165 X-1.4139 Y0.8188 Z-0.1163
N6170 X-1.4153 Y0.8192 Z-0.1127
N6175 X-1.4162 Y0.8195 Z-0.1089
N6180 X-1.4165 Y0.8196 Z-0.105
N6185 G0 Z0.2
N6190 G1 X-0.947 Y1.3965 F300.
N6195 G0 Z-0.08
N6200 G1 Z-0.105 F24.
N6205 X-0.9467 Y1.3963 Z-0.1089
N6210 X-0.946 Y1.3959 Z-0.1127
N6215 X-0.9447 Y1.3951 Z-0.1163
N6220 X-0.9429 Y1.394 Z-0.1197
N6225 X-0.9407 Y1.3927 Z-0.1227
N6230 X-0.9381 Y1.3912 Z-0.1252
N6235 X-0.9353 Y1.3895 Z-0.1273
N6240 X-0.9322 Y1.3877 Z-0.1288
N6245 X-0.9289 Y1.3857 Z-0.1297
N6250 X-0.9255 Y1.3837 Z-0.13
N6255 G3 X-0.8958 Y1.375 I0.0318 J0.0536
N6260 G1 X-0.6986
N6265 X-0.6671 Y1.3766
N6270 X-0.6339 Y1.3806
N6275 X-0.5983 Y1.3873
N6280 G3 X-0.4233 Y1.433 I-1.1235 J4.6593
N6285 G2 X-0.1026 Y1.487 I0.4565 J-1.7324
N6290 X0.5704 Y1.3769 I0.0999 J-1.5008
N6295 G1 X0.5793 Y1.3756
N6300 X0.5881 Y1.375
N6305 X0.7892
N6310 G3 X0.8122 Y1.3926 I-0.0009 J0.025
N6315 G1 X0.8134 Y1.3964 Z-0.1297
N6320 X0.8145 Y1.4 Z-0.1288
N6325 X0.8156 Y1.4035 Z-0.1273
N6330 X0.8165 Y1.4067 Z-0.1252
N6335 X0.8174 Y1.4095 Z-0.1227
N6340 X0.8182 Y1.4119 Z-0.1197
N6345 X0.8188 Y1.4139 Z-0.1163
N6350 X0.8192 Y1.4153 Z-0.1127
N6355 X0.8195 Y1.4162 Z-0.1089
N6360 X0.8196 Y1.4165 Z-0.105
N6365 G0 Z0.2
N6370 G1 X1.3965 Y0.947 F300.
N6375 G0 Z-0.08
N6380 G1 Z-0.105 F24.
N6385 X1.3963 Y0.9467 Z-0.1089
N6390 X1.3959 Y0.946 Z-0.1127
N6395 X1.3951 Y0.9447 Z-0.1163
N6400 X1.394 Y0.9429 Z-0.1197
N6405 X1.3927 Y0.9407 Z-0.1227
N6410 X1.3912 Y0.9381 Z-0.1252
N6415 X1.3895 Y0.9353 Z-0.1273
N6420 X1.3877 Y0.9322 Z-0.1288
N6425 X1.3857 Y0.9289 Z-0.1297
N6430 X1.3837 Y0.9255 Z-0.13
N6435 G3 X1.375 Y0.8958 I0.0536 J-0.0318
N6440 G1 Y0.6986
N6445 X1.3766 Y0.6671
N6450 X1.3806 Y0.6339
N6455 X1.3873 Y0.5983
N6460 G3 X1.433 Y0.4233 I4.6593 J1.1235
N6465 G2 X1.487 Y0.1026 I-1.7324 J-0.4565
N6470 X1.3769 Y-0.5704 I-1.5008 J-0.0999
N6475 G1 X1.3756 Y-0.5793
N6480 X1.375 Y-0.5881
N6485 Y-0.7892
N6490 G3 X1.3926 Y-0.8122 I0.025 J0.0009
N6495 G1 X1.3964 Y-0.8134 Z-0.1297
N6500 X1.4 Y-0.8145 Z-0.1288
N6505 X1.4035 Y-0.8156 Z-0.1273
N6510 X1.4067 Y-0.8165 Z-0.1252
N6515 X1.4095 Y-0.8174 Z-0.1227
N6520 X1.4119 Y-0.8182 Z-0.1197
N6525 X1.4139 Y-0.8188 Z-0.1163
N6530 X1.4153 Y-0.8192 Z-0.1127
N6535 X1.4162 Y-0.8195 Z-0.1089
N6540 X1.4165 Y-0.8196 Z-0.105
N6545 G0 Z0.2
N6550 G1 X0.947 Y-1.3965 F300.
N6555 G0 Z-0.08
N6560 G1 Z-0.105 F24.
N6565 X0.9467 Y-1.3963 Z-0.1089
N6570 X0.946 Y-1.3959 Z-0.1127
N6575 X0.9447 Y-1.3951 Z-0.1163
N6580 X0.9429 Y-1.394 Z-0.1197
N6585 X0.9407 Y-1.3927 Z-0.1227
N6590 X0.9381 Y-1.3912 Z-0.1252
N6595 X0.9353 Y-1.3895 Z-0.1273
N6600 X0.9322 Y-1.3877 Z-0.1288
N6605 X0.9289 Y-1.3857 Z-0.1297
N6610 X0.9255 Y-1.3837 Z-0.13
N6615 G3 X0.8958 Y-1.375 I-0.0318 J-0.0536
N6620 G1 X0.6986
N6625 X0.6671 Y-1.3766
N6630 X0.6339 Y-1.3806
N6635 X0.5983 Y-1.3873
N6640 G3 X0.4233 Y-1.433 I1.1235 J-4.6593
N6645 G2 X0.1026 Y-1.487 I-0.4565 J1.7324
N6650 X-0.5704 Y-1.3769 I-0.0999 J1.5008
N6655 G1 X-0.5793 Y-1.3756
N6660 X-0.5881 Y-1.375
N6665 X-0.7892
N6670 G3 X-0.8122 Y-1.3926 I0.0009 J-0.025
N6675 G1 X-0.8134 Y-1.3964 Z-0.1297
N6680 X-0.8145 Y-1.4 Z-0.1288
N6685 X-0.8156 Y-1.4035 Z-0.1273
N6690 X-0.8165 Y-1.4067 Z-0.1252
N6695 X-0.8174 Y-1.4095 Z-0.1227
N6700 X-0.8182 Y-1.4119 Z-0.1197
N6705 X-0.8188 Y-1.4139 Z-0.1163
N6710 X-0.8192 Y-1.4153 Z-0.1127
N6715 X-0.8195 Y-1.4162 Z-0.1089
N6720 X-0.8196 Y-1.4165 Z-0.105
N6725 G0 Z0.2
N6730 G1 X-1.3965 Y-0.7498 F300.
N6735 G0 Z-0.08
N6740 G1 Z-0.105 F24.
N6745 X-1.3963 Y-0.7495 Z-0.1089
N6750 X-1.3959 Y-0.7487 Z-0.1127
N6755 X-1.3951 Y-0.7474 Z-0.1163
N6760 X-1.394 Y-0.7457 Z-0.1197
N6765 X-1.3927 Y-0.7435 Z-0.1227
N6770 X-1.3912 Y-0.7409 Z-0.1252
N6775 X-1.3895 Y-0.738 Z-0.1273
N6780 X-1.3877 Y-0.7349 Z-0.1288
N6785 X-1.3857 Y-0.7316 Z-0.1297
N6790 X-1.3837 Y-0.7283 Z-0.13
N6795 G3 X-1.375 Y-0.6986 I-0.0536 J0.0318
N6800 G1 Y-0.4849
N6805 G3 X-1.3932 Y-0.3617 I-0.464 J-0.0054
N6810 G1 X-1.4102 Y-0.2877
N6815 X-1.412 Y-0.2794
N6820 X-1.417 Y-0.2548
N6825 X-1.4319 Y-0.1479
N6830 X-1.4343 Y-0.1233
N6835 X-1.4348 Y-0.1151
N6840 X-1.4394 Y-0.0164
N6845 X-1.4395 Y-0.0082
N6850 Y0.0082
N6855 X-1.4394 Y0.0164
N6860 X-1.4348 Y0.1151
N6865 X-1.4343 Y0.1233
N6870 X-1.4319 Y0.1479
N6875 X-1.417 Y0.2548
N6880 X-1.412 Y0.2794
N6885 G3 X-1.3801 Y0.4191 I-4.9406 J1.2026
N6890 X-1.375 Y0.4931 I-0.4797 J0.0706
N6895 G1 Y0.5881
N6900 G3 X-1.3926 Y0.6111 I-0.025 J-0.0009
N6905 G1 X-1.3964 Y0.6122 Z-0.1297
N6910 X-1.4 Y0.6134 Z-0.1288
N6915 X-1.4035 Y0.6144 Z-0.1273
N6920 X-1.4067 Y0.6154 Z-0.1252
N6925 X-1.4095 Y0.6163 Z-0.1227
N6930 X-1.4119 Y0.617 Z-0.1197
N6935 X-1.4139 Y0.6176 Z-0.1163
N6940 X-1.4153 Y0.6181 Z-0.1127
N6945 X-1.4162 Y0.6184 Z-0.1089
N6950 X-1.4165 Z-0.105
N6955 G0 Z0.2
N6960 G1 X-0.7498 Y1.3965 F300.
N6965 G0 Z-0.08
N6970 G1 Z-0.105 F24.
N6975 X-0.7495 Y1.3963 Z-0.1089
N6980 X-0.7487 Y1.3959 Z-0.1127
N6985 X-0.7474 Y1.3951 Z-0.1163
N6990 X-0.7457 Y1.394 Z-0.1197
N6995 X-0.7435 Y1.3927 Z-0.1227
N7000 X-0.7409 Y1.3912 Z-0.1252
N7005 X-0.738 Y1.3895 Z-0.1273
N7010 X-0.7349 Y1.3877 Z-0.1288
N7015 X-0.7316 Y1.3857 Z-0.1297
N7020 X-0.7283 Y1.3837 Z-0.13
N7025 G3 X-0.6986 Y1.375 I0.0318 J0.0536
N7030 G1 X-0.4849
N7035 G3 X-0.3617 Y1.3932 I-0.0054 J0.464
N7040 G1 X-0.2877 Y1.4102
N7045 X-0.2794 Y1.412
N7050 X-0.2548 Y1.417
N7055 X-0.1479 Y1.4319
N7060 X-0.1233 Y1.4343
N7065 X-0.1151 Y1.4348
N7070 X-0.0164 Y1.4394
N7075 X-0.0082 Y1.4395
N7080 X0.0082
N7085 X0.0164 Y1.4394
N7090 X0.1151 Y1.4348
N7095 X0.1233 Y1.4343
N7100 X0.1479 Y1.4319
N7105 X0.2548 Y1.417
N7110 X0.2794 Y1.412
N7115 G3 X0.4191 Y1.3801 I1.2026 J4.9405
N7120 X0.4931 Y1.375 I0.0706 J0.4797
N7125 G1 X0.5881
N7130 G3 X0.6111 Y1.3926 I-0.0009 J0.025
N7135 G1 X0.6122 Y1.3964 Z-0.1297
N7140 X0.6134 Y1.4 Z-0.1288
N7145 X0.6144 Y1.4035 Z-0.1273
N7150 X0.6154 Y1.4067 Z-0.1252
N7155 X0.6163 Y1.4095 Z-0.1227
N7160 X0.617 Y1.4119 Z-0.1197
N7165 X0.6176 Y1.4139 Z-0.1163
N7170 X0.6181 Y1.4153 Z-0.1127
N7175 X0.6184 Y1.4162 Z-0.1089
N7180 Y1.4165 Z-0.105
N7185 G0 Z0.2
N7190 G1 X1.3965 Y0.7498 F300.
N7195 G0 Z-0.08
N7200 G1 Z-0.105 F24.
N7205 X1.3963 Y0.7495 Z-0.1089
N7210 X1.3959 Y0.7487 Z-0.1127
N7215 X1.3951 Y0.7474 Z-0.1163
N7220 X1.394 Y0.7457 Z-0.1197
N7225 X1.3927 Y0.7435 Z-0.1227
N7230 X1.3912 Y0.7409 Z-0.1252
N7235 X1.3895 Y0.738 Z-0.1273
N7240 X1.3877 Y0.7349 Z-0.1288
N7245 X1.3857 Y0.7316 Z-0.1297
N7250 X1.3837 Y0.7283 Z-0.13
N7255 G3 X1.375 Y0.6986 I0.0536 J-0.0318
N7260 G1 Y0.4849
N7265 G3 X1.3932 Y0.3617 I0.464 J0.0054
N7270 G1 X1.4102 Y0.2877
N7275 X1.412 Y0.2794
N7280 X1.417 Y0.2548
N7285 X1.4319 Y0.1479
N7290 X1.4343 Y0.1233
N7295 X1.4348 Y0.1151
N7300 X1.4394 Y0.0164
N7305 X1.4395 Y0.0082
N7310 Y-0.0082
N7315 X1.4394 Y-0.0164
N7320 X1.4348 Y-0.1151
N7325 X1.4343 Y-0.1233
N7330 X1.4319 Y-0.1479
N7335 X1.417 Y-0.2548
N7340 X1.412 Y-0.2794
N7345 G3 X1.3801 Y-0.4191 I4.9406 J-1.2026
N7350 X1.375 Y-0.4931 I0.4797 J-0.0706
N7355 G1 Y-0.5881
N7360 G3 X1.3926 Y-0.6111 I0.025 J0.0009
N7365 G1 X1.3964 Y-0.6122 Z-0.1297
N7370 X1.4 Y-0.6134 Z-0.1288
N7375 X1.4035 Y-0.6144 Z-0.1273
N7380 X1.4067 Y-0.6154 Z-0.1252
N7385 X1.4095 Y-0.6163 Z-0.1227
N7390 X1.4119 Y-0.617 Z-0.1197
N7395 X1.4139 Y-0.6176 Z-0.1163
N7400 X1.4153 Y-0.6181 Z-0.1127
N7405 X1.4162 Y-0.6184 Z-0.1089
N7410 X1.4165 Z-0.105
N7415 G0 Z0.2
N7420 G1 X0.7498 Y-1.3965 F300.
N7425 G0 Z-0.08
N7430 G1 Z-0.105 F24.
N7435 X0.7495 Y-1.3963 Z-0.1089
N7440 X0.7487 Y-1.3959 Z-0.1127
N7445 X0.7474 Y-1.3951 Z-0.1163
N7450 X0.7457 Y-1.394 Z-0.1197
N7455 X0.7435 Y-1.3927 Z-0.1227
N7460 X0.7409 Y-1.3912 Z-0.1252
N7465 X0.738 Y-1.3895 Z-0.1273
N7470 X0.7349 Y-1.3877 Z-0.1288
N7475 X0.7316 Y-1.3857 Z-0.1297
N7480 X0.7283 Y-1.3837 Z-0.13
N7485 G3 X0.6986 Y-1.375 I-0.0318 J-0.0536
N7490 G1 X0.4849
N7495 G3 X0.3617 Y-1.3932 I0.0054 J-0.464
N7500 G1 X0.2877 Y-1.4102
N7505 X0.2794 Y-1.412
N7510 X0.2548 Y-1.417
N7515 X0.1479 Y-1.4319
N7520 X0.1233 Y-1.4343
N7525 X0.1151 Y-1.4348
N7530 X0.0164 Y-1.4394
N7535 X0.0082 Y-1.4395
N7540 X-0.0082
N7545 X-0.0164 Y-1.4394
N7550 X-0.1151 Y-1.4348
N7555 X-0.1233 Y-1.4343
N7560 X-0.1479 Y-1.4319
N7565 X-0.2548 Y-1.417
N7570 X-0.2794 Y-1.412
N7575 G3 X-0.4191 Y-1.3801 I-1.2026 J-4.9405
N7580 X-0.4931 Y-1.375 I-0.0706 J-0.4797
N7585 G1 X-0.5881
N7590 X-0.591 Y-1.3753
N7595 X-0.5939 Y-1.3759
N7600 X-0.5966 Y-1.3772 Z-0.1298
N7605 X-0.5993 Y-1.3785 Z-0.1293
N7610 X-0.6018 Y-1.3797 Z-0.1284
N7615 X-0.604 Y-1.382 Z-0.1269
N7620 X-0.6061 Y-1.3841 Z-0.125
N7625 X-0.6079 Y-1.386 Z-0.1227
N7630 X-0.609 Y-1.3883 Z-0.1197
N7635 X-0.6099 Y-1.3902 Z-0.1164
N7640 X-0.6106 Y-1.3915 Z-0.1127
N7645 X-0.611 Y-1.3923 Z-0.1089
N7650 X-0.6111 Y-1.3926 Z-0.105
N7655 G0 Z0.2
N7660 G1 X-1.314 Y-1.2799 F300.
N7665 G0 Z-0.115
N7670 G1 Z-0.14 F24.
N7675 Y-1.2796 Z-0.1439
N7680 X-1.3141 Y-1.2787 Z-0.1477
N7685 X-1.3142 Y-1.2772 Z-0.1513
N7690 X-1.3144 Y-1.2751 Z-0.1547
N7695 X-1.3147 Y-1.2726 Z-0.1577
N7700 X-1.315 Y-1.2696 Z-0.1602
N7705 X-1.3153 Y-1.2663 Z-0.1623
N7710 X-1.3156 Y-1.2627 Z-0.1638
N7715 X-1.316 Y-1.2589 Z-0.1647
N7720 X-1.3164 Y-1.255 Z-0.165
N7725 G3 X-1.3442 Y-1.1203 I-0.6353 J-0.0612
N7730 G2 X-1.3645 Y-1.0602 I0.6947 J0.2686
N7735 G1 X-1.3661 Y-1.052
N7740 X-1.3673 Y-1.0438
N7745 X-1.3682 Y-1.0356
N7750 X-1.3715 Y-1.016
N7755 X-1.3768 Y-0.9933
N7760 X-1.3861 Y-0.9635
N7765 X-1.3992 Y-0.9298
N7770 X-1.4142 Y-0.8968
N7775 G2 X-1.5238 Y-0.6686 I4.5792 J2.3402
N7780 X-1.5864 Y-0.4989 I1.8758 J0.7882
N7785 X-1.4228 Y0.8606 I1.589 J0.4983
N7790 G1 X-1.4037 Y0.8913
N7795 X-1.3865 Y0.9175
N7800 X-1.3802 Y0.9294
N7805 X-1.3763 Y0.9424
N7810 X-1.375 Y0.9558
N7815 Y0.9616
N7820 X-1.3749 Y0.9698
N7825 G2 X-1.3646 Y1.0602 I0.901 J-0.0563
N7830 G1 X-1.3622 Y1.0684
N7835 X-1.3595 Y1.0767
N7840 X-1.3538 Y1.0931
N7845 G3 X-1.3524 Y1.1032 Z-0.1629 I-0.0236 J0.0083
N7850 G2 X-1.3507 Y1.1145 Z-0.1606 I0.0249 J0.0019
N7855 G1 X-1.3475 Y1.1224 Z-0.1588
N7860 X-1.3442 Y1.1307 Z-0.157
N7865 X-1.2758 Y1.3008
N7870 G2 X-1.255 Y1.3164 I0.0232 J-0.0093
N7875 G3 X-1.158 Y1.3333 I-0.0612 J0.6353
N7880 G1 X-1.1494 Y1.3356 Z-0.1588
N7885 G3 X-1.1203 Y1.3442 Z-0.165 I-0.1668 J0.6161
N7890 G2 X-1.0602 Y1.3645 I0.2686 J-0.6947
N7895 G1 X-1.052 Y1.3661
N7900 X-1.0438 Y1.3673
N7905 X-1.0356 Y1.3682
N7910 X-1.016 Y1.3715
N7915 X-0.9933 Y1.3768
N7920 X-0.9635 Y1.3861
N7925 X-0.9298 Y1.3992
N7930 X-0.8968 Y1.4142
N7935 G2 X-0.6686 Y1.5238 I2.3402 J-4.5792
N7940 X-0.4989 Y1.5864 I0.7882 J-1.8758
N7945 X0.8606 Y1.4228 I0.4983 J-1.589
N7950 G1 X0.8913 Y1.4037
N7955 X0.9175 Y1.3865
N7960 X0.9294 Y1.3802
N7965 X0.9424 Y1.3763
N7970 X0.9558 Y1.375
N7975 X0.9616
N7980 X0.9698 Y1.3749
N7985 G2 X1.0602 Y1.3646 I-0.0563 J-0.901
N7990 G1 X1.0684 Y1.3622
N7995 X1.0767 Y1.3595
N8000 X1.0931 Y1.3538
N8005 G3 X1.1032 Y1.3524 Z-0.1629 I0.0083 J0.0236
N8010 G2 X1.1145 Y1.3507 Z-0.1606 I0.0019 J-0.0249
N8015 G1 X1.1224 Y1.3475 Z-0.1588
N8020 X1.1307 Y1.3442 Z-0.157
N8025 X1.3008 Y1.2758
N8030 G2 X1.3164 Y1.255 I-0.0093 J-0.0232
N8035 G3 X1.3333 Y1.158 I0.6353 J0.0612
N8040 G1 X1.3356 Y1.1494 Z-0.1588
N8045 G3 X1.3442 Y1.1203 Z-0.165 I0.6161 J0.1668
N8050 G2 X1.3645 Y1.0602 I-0.6947 J-0.2686
N8055 G1 X1.3661 Y1.052
N8060 X1.3673 Y1.0438
N8065 X1.3682 Y1.0356
N8070 X1.3715 Y1.016
N8075 X1.3768 Y0.9933
N8080 X1.3861 Y0.9635
N8085 X1.3992 Y0.9298
N8090 X1.4142 Y0.8968
N8095 G2 X1.5238 Y0.6686 I-4.5791 J-2.3401
N8100 X1.5864 Y0.4989 I-1.8759 J-0.7882
N8105 X1.4228 Y-0.8606 I-1.589 J-0.4983
N8110 G1 X1.4037 Y-0.8914
N8115 X1.3865 Y-0.9175
N8120 X1.3802 Y-0.9294
N8125 X1.3763 Y-0.9424
N8130 X1.375 Y-0.9558
N8135 Y-0.9616
N8140 X1.3749 Y-0.9698
N8145 G2 X1.3646 Y-1.0602 I-0.9014 J0.0563
N8150 G1 X1.3622 Y-1.0684
N8155 X1.3595 Y-1.0767
N8160 X1.3538 Y-1.0931
N8165 G3 X1.3524 Y-1.1032 Z-0.1629 I0.0236 J-0.0083
N8170 G2 X1.3507 Y-1.1145 Z-0.1606 I-0.0249 J-0.0019
N8175 G1 X1.3475 Y-1.1224 Z-0.1588
N8180 X1.3442 Y-1.1307 Z-0.157
N8185 X1.2758 Y-1.3008
N8190 G2 X1.255 Y-1.3164 I-0.0232 J0.0093
N8195 G3 X1.158 Y-1.3333 I0.0612 J-0.6353
N8200 G1 X1.1494 Y-1.3356 Z-0.1588
N8205 G3 X1.1203 Y-1.3442 Z-0.165 I0.1668 J-0.6161
N8210 G2 X1.0602 Y-1.3645 I-0.2686 J0.6947
N8215 G1 X1.052 Y-1.3661
N8220 X1.0438 Y-1.3673
N8225 X1.0356 Y-1.3682
N8230 X1.016 Y-1.3715
N8235 X0.9933 Y-1.3768
N8240 X0.9635 Y-1.3861
N8245 X0.9298 Y-1.3992
N8250 X0.8968 Y-1.4142
N8255 G2 X0.6686 Y-1.5238 I-2.3401 J4.5791
N8260 X0.4989 Y-1.5864 I-0.7882 J1.8759
N8265 X-0.8606 Y-1.4228 I-0.4983 J1.589
N8270 G1 X-0.8914 Y-1.4037
N8275 X-0.9175 Y-1.3865
N8280 X-0.9294 Y-1.3802
N8285 X-0.9424 Y-1.3763
N8290 X-0.9558 Y-1.375
N8295 X-0.9616
N8300 X-0.9698 Y-1.3749
N8305 G2 X-1.0602 Y-1.3646 I0.0563 J0.9014
N8310 G1 X-1.0684 Y-1.3622
N8315 X-1.0767 Y-1.3595
N8320 X-1.0931 Y-1.3538
N8325 G3 X-1.1206 Y-1.3628 I-0.0074 J-0.0239
N8330 G1 X-1.123 Y-1.3659 Z-0.1647
N8335 X-1.1252 Y-1.369 Z-0.1638
N8340 X-1.1274 Y-1.3719 Z-0.1623
N8345 X-1.1294 Y-1.3746 Z-0.1602
N8350 X-1.1311 Y-1.377 Z-0.1577
N8355 X-1.1327 Y-1.3791 Z-0.1547
N8360 X-1.1339 Y-1.3807 Z-0.1513
N8365 X-1.1348 Y-1.3819 Z-0.1477
N8370 X-1.1353 Y-1.3827 Z-0.1439
N8375 X-1.1355 Y-1.3829 Z-0.14
N8380 G0 Z0.2
N8385 G1 X-1.3838 Y-1.0888 F300.
N8390 G0 Z-0.115
N8395 G1 Z-0.14 F24.
N8400 X-1.3837 Y-1.0886 Z-0.1439
N8405 X-1.3833 Y-1.0877 Z-0.1477
N8410 X-1.3827 Y-1.0863 Z-0.1513
N8415 X-1.3818 Y-1.0845 Z-0.1547
N8420 X-1.3808 Y-1.0822 Z-0.1577
N8425 X-1.3796 Y-1.0794 Z-0.1602
N8430 X-1.3782 Y-1.0764 Z-0.1623
N8435 X-1.3767 Y-1.0731 Z-0.1638
N8440 X-1.3751 Y-1.0696 Z-0.1647
N8445 X-1.3735 Y-1.066 Z-0.165
N8450 G3 X-1.3682 Y-1.0356 I-0.0568 J0.0256
N8455 G1 X-1.3729 Y-0.9945
N8460 X-1.3749 Y-0.9698
N8465 X-1.375 Y-0.9616
N8470 Y-0.8958
N8475 X-1.3763 Y-0.8697
N8480 X-1.3788 Y-0.8487
N8485 X-1.3841 Y-0.8211
N8490 X-1.3933 Y-0.7861
N8495 G3 X-1.4558 Y-0.6164 I-2.6997 J-0.8989
N8500 G2 X-1.5539 Y-0.2687 I1.759 J0.6836
N8505 X-1.3838 Y0.7555 I1.5593 J0.2673
N8510 G1 X-1.3789 Y0.7661
N8515 X-1.376 Y0.7775
N8520 X-1.375 Y0.7892
N8525 Y0.9558
N8530 G3 X-1.3926 Y0.9788 I-0.025 J-0.0009
N8535 G1 X-1.3964 Y0.98 Z-0.1647
N8540 X-1.4 Y0.9811 Z-0.1638
N8545 X-1.4035 Y0.9822 Z-0.1623
N8550 X-1.4067 Y0.9832 Z-0.1602
N8555 X-1.4095 Y0.984 Z-0.1577
N8560 X-1.4119 Y0.9848 Z-0.1547
N8565 X-1.4139 Y0.9854 Z-0.1513
N8570 X-1.4153 Y0.9858 Z-0.1477
N8575 X-1.4162 Y0.9861 Z-0.1439
N8580 X-1.4165 Y0.9862 Z-0.14
N8585 G0 Z0.2
N8590 G1 X-1.0888 Y1.3838 F300.
N8595 G0 Z-0.115
N8600 G1 Z-0.14 F24.
N8605 X-1.0886 Y1.3837 Z-0.1439
N8610 X-1.0877 Y1.3833 Z-0.1477
N8615 X-1.0863 Y1.3827 Z-0.1513
N8620 X-1.0845 Y1.3818 Z-0.1547
N8625 X-1.0822 Y1.3808 Z-0.1577
N8630 X-1.0794 Y1.3796 Z-0.1602
N8635 X-1.0764 Y1.3782 Z-0.1623
N8640 X-1.0731 Y1.3767 Z-0.1638
N8645 X-1.0696 Y1.3751 Z-0.1647
N8650 X-1.066 Y1.3735 Z-0.165
N8655 G3 X-1.0356 Y1.3682 I0.0256 J0.0568
N8660 G1 X-0.9945 Y1.3729
N8665 X-0.9698 Y1.3749
N8670 X-0.9616 Y1.375
N8675 X-0.8958
N8680 X-0.8697 Y1.3763
N8685 X-0.8487 Y1.3788
N8690 X-0.8211 Y1.3841
N8695 X-0.7861 Y1.3933
N8700 G3 X-0.6164 Y1.4558 I-0.8989 J2.6997
N8705 G2 X-0.2687 Y1.5539 I0.6836 J-1.759
N8710 X0.7555 Y1.3838 I0.2673 J-1.5593
N8715 G1 X0.7661 Y1.3789
N8720 X0.7775 Y1.376
N8725 X0.7892 Y1.375
N8730 X0.9558
N8735 G3 X0.9788 Y1.3926 I-0.0009 J0.025
N8740 G1 X0.98 Y1.3964 Z-0.1647
N8745 X0.9811 Y1.4 Z-0.1638
N8750 X0.9822 Y1.4035 Z-0.1623
N8755 X0.9832 Y1.4067 Z-0.1602
N8760 X0.984 Y1.4095 Z-0.1577
N8765 X0.9848 Y1.4119 Z-0.1547
N8770 X0.9854 Y1.4139 Z-0.1513
N8775 X0.9858 Y1.4153 Z-0.1477
N8780 X0.9861 Y1.4162 Z-0.1439
N8785 X0.9862 Y1.4165 Z-0.14
N8790 G0 Z0.2
N8795 G1 X1.3838 Y1.0888 F300.
N8800 G0 Z-0.115
N8805 G1 Z-0.14 F24.
N8810 X1.3837 Y1.0886 Z-0.1439
N8815 X1.3833 Y1.0877 Z-0.1477
N8820 X1.3827 Y1.0863 Z-0.1513
N8825 X1.3818 Y1.0845 Z-0.1547
N8830 X1.3808 Y1.0822 Z-0.1577
N8835 X1.3796 Y1.0794 Z-0.1602
N8840 X1.3782 Y1.0764 Z-0.1623
N8845 X1.3767 Y1.0731 Z-0.1638
N8850 X1.3751 Y1.0696 Z-0.1647
N8855 X1.3735 Y1.066 Z-0.165
N8860 G3 X1.3682 Y1.0356 I0.0568 J-0.0256
N8865 G1 X1.3729 Y0.9945
N8870 X1.3749 Y0.9698
N8875 X1.375 Y0.9616
N8880 Y0.8958
N8885 X1.3763 Y0.8697
N8890 X1.3788 Y0.8487
N8895 X1.3841 Y0.8211
N8900 X1.3933 Y0.7861
N8905 G3 X1.4558 Y0.6164 I2.6998 J0.8989
N8910 G2 X1.5539 Y0.2687 I-1.759 J-0.6836
N8915 X1.3838 Y-0.7555 I-1.5593 J-0.2673
N8920 G1 X1.3789 Y-0.7661
N8925 X1.376 Y-0.7775
N8930 X1.375 Y-0.7892
N8935 Y-0.9558
N8940 G3 X1.3926 Y-0.9788 I0.025 J0.0009
N8945 G1 X1.3964 Y-0.98 Z-0.1647
N8950 X1.4 Y-0.9811 Z-0.1638
N8955 X1.4035 Y-0.9822 Z-0.1623
N8960 X1.4067 Y-0.9832 Z-0.1602
N8965 X1.4095 Y-0.984 Z-0.1577
N8970 X1.4119 Y-0.9848 Z-0.1547
N8975 X1.4139 Y-0.9854 Z-0.1513
N8980 X1.4153 Y-0.9858 Z-0.1477
N8985 X1.4162 Y-0.9861 Z-0.1439
N8990 X1.4165 Y-0.9862 Z-0.14
N8995 G0 Z0.2
N9000 G1 X1.0888 Y-1.3838 F300.
N9005 G0 Z-0.115
N9010 G1 Z-0.14 F24.
N9015 X1.0886 Y-1.3837 Z-0.1439
N9020 X1.0877 Y-1.3833 Z-0.1477
N9025 X1.0863 Y-1.3827 Z-0.1513
N9030 X1.0845 Y-1.3818 Z-0.1547
N9035 X1.0822 Y-1.3808 Z-0.1577
N9040 X1.0794 Y-1.3796 Z-0.1602
N9045 X1.0764 Y-1.3782 Z-0.1623
N9050 X1.0731 Y-1.3767 Z-0.1638
N9055 X1.0696 Y-1.3751 Z-0.1647
N9060 X1.066 Y-1.3735 Z-0.165
N9065 G3 X1.0356 Y-1.3682 I-0.0256 J-0.0568
N9070 G1 X0.9945 Y-1.3729
N9075 X0.9698 Y-1.3749
N9080 X0.9616 Y-1.375
N9085 X0.8958
N9090 X0.8697 Y-1.3763
N9095 X0.8487 Y-1.3788
N9100 X0.8211 Y-1.3841
N9105 X0.7861 Y-1.3933
N9110 G3 X0.6164 Y-1.4558 I0.8989 J-2.6998
N9115 G2 X0.2687 Y-1.5539 I-0.6836 J1.759
N9120 X-0.7555 Y-1.3838 I-0.2673 J1.5593
N9125 G1 X-0.7661 Y-1.3789
N9130 X-0.7775 Y-1.376
N9135 X-0.7892 Y-1.375
N9140 X-0.9558
N9145 G3 X-0.9788 Y-1.3926 I0.0009 J-0.025
N9150 G1 X-0.98 Y-1.3964 Z-0.1647
N9155 X-0.9811 Y-1.4 Z-0.1638
N9160 X-0.9822 Y-1.4035 Z-0.1623
N9165 X-0.9832 Y-1.4067 Z-0.1602
N9170 X-0.984 Y-1.4095 Z-0.1577
N9175 X-0.9848 Y-1.4119 Z-0.1547
N9180 X-0.9854 Y-1.4139 Z-0.1513
N9185 X-0.9858 Y-1.4153 Z-0.1477
N9190 X-0.9861 Y-1.4162 Z-0.1439
N9195 X-0.9862 Y-1.4165 Z-0.14
N9200 G0 Z0.2
N9205 G1 X-1.3965 Y-0.947 F300.
N9210 G0 Z-0.115
N9215 G1 Z-0.14 F24.
N9220 X-1.3963 Y-0.9467 Z-0.1439
N9225 X-1.3959 Y-0.946 Z-0.1477
N9230 X-1.3951 Y-0.9447 Z-0.1513
N9235 X-1.394 Y-0.9429 Z-0.1547
N9240 X-1.3927 Y-0.9407 Z-0.1577
N9245 X-1.3912 Y-0.9381 Z-0.1602
N9250 X-1.3895 Y-0.9353 Z-0.1623
N9255 X-1.3877 Y-0.9322 Z-0.1638
N9260 X-1.3857 Y-0.9289 Z-0.1647
N9265 X-1.3837 Y-0.9255 Z-0.165
N9270 G3 X-1.375 Y-0.8958 I-0.0536 J0.0318
N9275 G1 Y-0.6986
N9280 X-1.3766 Y-0.6671
N9285 X-1.3806 Y-0.6339
N9290 X-1.3873 Y-0.5983
N9295 G3 X-1.433 Y-0.4233 I-4.6593 J-1.1235
N9300 G2 X-1.487 Y-0.1026 I1.7324 J0.4565
N9305 X-1.3769 Y0.5704 I1.5008 J0.0999
N9310 G1 X-1.3756 Y0.5793
N9315 X-1.375 Y0.5881
N9320 Y0.7892
N9325 G3 X-1.3926 Y0.8122 I-0.025 J-0.0009
N9330 G1 X-1.3964 Y0.8134 Z-0.1647
N9335 X-1.4 Y0.8145 Z-0.1638
N9340 X-1.4035 Y0.8156 Z-0.1623
N9345 X-1.4067 Y0.8165 Z-0.1602
N9350 X-1.4095 Y0.8174 Z-0.1577
N9355 X-1.4119 Y0.8182 Z-0.1547
N9360 X-1.4139 Y0.8188 Z-0.1513
N9365 X-1.4153 Y0.8192 Z-0.1477
N9370 X-1.4162 Y0.8195 Z-0.1439
N9375 X-1.4165 Y0.8196 Z-0.14
N9380 G0 Z0.2
N9385 G1 X-0.947 Y1.3965 F300.
N9390 G0 Z-0.115
N9395 G1 Z-0.14 F24.
N9400 X-0.9467 Y1.3963 Z-0.1439
N9405 X-0.946 Y1.3959 Z-0.1477
N9410 X-0.9447 Y1.3951 Z-0.1513
N9415 X-0.9429 Y1.394 Z-0.1547
N9420 X-0.9407 Y1.3927 Z-0.1577
N9425 X-0.9381 Y1.3912 Z-0.1602
N9430 X-0.9353 Y1.3895 Z-0.1623
N9435 X-0.9322 Y1.3877 Z-0.1638
N9440 X-0.9289 Y1.3857 Z-0.1647
N9445 X-0.9255 Y1.3837 Z-0.165
N9450 G3 X-0.8958 Y1.375 I0.0318 J0.0536
N9455 G1 X-0.6986
N9460 X-0.6671 Y1.3766
N9465 X-0.6339 Y1.3806
N9470 X-0.5983 Y1.3873
N9475 G3 X-0.4233 Y1.433 I-1.1235 J4.6593
N9480 G2 X-0.1026 Y1.487 I0.4565 J-1.7324
N9485 X0.5704 Y1.3769 I0.0999 J-1.5008
N9490 G1 X0.5793 Y1.3756
N9495 X0.5881 Y1.375
N9500 X0.7892
N9505 G3 X0.8122 Y1.3926 I-0.0009 J0.025
N9510 G1 X0.8134 Y1.3964 Z-0.1647
N9515 X0.8145 Y1.4 Z-0.1638
N9520 X0.8156 Y1.4035 Z-0.1623
N9525 X0.8165 Y1.4067 Z-0.1602
N9530 X0.8174 Y1.4095 Z-0.1577
N9535 X0.8182 Y1.4119 Z-0.1547
N9540 X0.8188 Y1.4139 Z-0.1513
N9545 X0.8192 Y1.4153 Z-0.1477
N9550 X0.8195 Y1.4162 Z-0.1439
N9555 X0.8196 Y1.4165 Z-0.14
N9560 G0 Z0.2
N9565 G1 X1.3965 Y0.947 F300.
N9570 G0 Z-0.115
N9575 G1 Z-0.14 F24.
N9580 X1.3963 Y0.9467 Z-0.1439
N9585 X1.3959 Y0.946 Z-0.1477
N9590 X1.3951 Y0.9447 Z-0.1513
N9595 X1.394 Y0.9429 Z-0.1547
N9600 X1.3927 Y0.9407 Z-0.1577
N9605 X1.3912 Y0.9381 Z-0.1602
N9610 X1.3895 Y0.9353 Z-0.1623
N9615 X1.3877 Y0.9322 Z-0.1638
N9620 X1.3857 Y0.9289 Z-0.1647
N9625 X1.3837 Y0.9255 Z-0.165
N9630 G3 X1.375 Y0.8958 I0.0536 J-0.0318
N9635 G1 Y0.6986
N9640 X1.3766 Y0.6671
N9645 X1.3806 Y0.6339
N9650 X1.3873 Y0.5983
N9655 G3 X1.433 Y0.4233 I4.6593 J1.1235
N9660 G2 X1.487 Y0.1026 I-1.7324 J-0.4565
N9665 X1.3769 Y-0.5704 I-1.5008 J-0.0999
N9670 G1 X1.3756 Y-0.5793
N9675 X1.375 Y-0.5881
N9680 Y-0.7892
N9685 G3 X1.3926 Y-0.8122 I0.025 J0.0009
N9690 G1 X1.3964 Y-0.8134 Z-0.1647
N9695 X1.4 Y-0.8145 Z-0.1638
N9700 X1.4035 Y-0.8156 Z-0.1623
N9705 X1.4067 Y-0.8165 Z-0.1602
N9710 X1.4095 Y-0.8174 Z-0.1577
N9715 X1.4119 Y-0.8182 Z-0.1547
N9720 X1.4139 Y-0.8188 Z-0.1513
N9725 X1.4153 Y-0.8192 Z-0.1477
N9730 X1.4162 Y-0.8195 Z-0.1439
N9735 X1.4165 Y-0.8196 Z-0.14
N9740 G0 Z0.2
N9745 G1 X0.947 Y-1.3965 F300.
N9750 G0 Z-0.115
N9755 G1 Z-0.14 F24.
N9760 X0.9467 Y-1.3963 Z-0.1439
N9765 X0.946 Y-1.3959 Z-0.1477
N9770 X0.9447 Y-1.3951 Z-0.1513
N9775 X0.9429 Y-1.394 Z-0.1547
N9780 X0.9407 Y-1.3927 Z-0.1577
N9785 X0.9381 Y-1.3912 Z-0.1602
N9790 X0.9353 Y-1.3895 Z-0.1623
N9795 X0.9322 Y-1.3877 Z-0.1638
N9800 X0.9289 Y-1.3857 Z-0.1647
N9805 X0.9255 Y-1.3837 Z-0.165
N9810 G3 X0.8958 Y-1.375 I-0.0318 J-0.0536
N9815 G1 X0.6986
N9820 X0.6671 Y-1.3766
N9825 X0.6339 Y-1.3806
N9830 X0.5983 Y-1.3873
N9835 G3 X0.4233 Y-1.433 I1.1235 J-4.6593
N9840 G2 X0.1026 Y-1.487 I-0.4565 J1.7324
N9845 X-0.5704 Y-1.3769 I-0.0999 J1.5008
N9850 G1 X-0.5793 Y-1.3756
N9855 X-0.5881 Y-1.375
N9860 X-0.7892
N9865 G3 X-0.8122 Y-1.3926 I0.0009 J-0.025
N9870 G1 X-0.8134 Y-1.3964 Z-0.1647
N9875 X-0.8145 Y-1.4 Z-0.1638
N9880 X-0.8156 Y-1.4035 Z-0.1623
N9885 X-0.8165 Y-1.4067 Z-0.1602
N9890 X-0.8174 Y-1.4095 Z-0.1577
N9895 X-0.8182 Y-1.4119 Z-0.1547
N9900 X-0.8188 Y-1.4139 Z-0.1513
N9905 X-0.8192 Y-1.4153 Z-0.1477
N9910 X-0.8195 Y-1.4162 Z-0.1439
N9915 X-0.8196 Y-1.4165 Z-0.14
N9920 G0 Z0.2
N9925 G1 X-1.3965 Y-0.7498 F300.
N9930 G0 Z-0.115
N9935 G1 Z-0.14 F24.
N9940 X-1.3963 Y-0.7495 Z-0.1439
N9945 X-1.3959 Y-0.7487 Z-0.1477
N9950 X-1.3951 Y-0.7474 Z-0.1513
N9955 X-1.394 Y-0.7457 Z-0.1547
N9960 X-1.3927 Y-0.7435 Z-0.1577
N9965 X-1.3912 Y-0.7409 Z-0.1602
N9970 X-1.3895 Y-0.738 Z-0.1623
N9975 X-1.3877 Y-0.7349 Z-0.1638
N9980 X-1.3857 Y-0.7316 Z-0.1647
N9985 X-1.3837 Y-0.7283 Z-0.165
N9990 G3 X-1.375 Y-0.6986 I-0.0536 J0.0318
N9995 G1 Y-0.4849
N10000 G3 X-1.3932 Y-0.3617 I-0.464 J-0.0054
N10005 G1 X-1.4102 Y-0.2877
N10010 X-1.412 Y-0.2794
N10015 X-1.417 Y-0.2548
N10020 X-1.4319 Y-0.1479
N10025 X-1.4343 Y-0.1233
N10030 X-1.4348 Y-0.1151
N10035 X-1.4394 Y-0.0164
N10040 X-1.4395 Y-0.0082
N10045 Y0.0082
N10050 X-1.4394 Y0.0164
N10055 X-1.4348 Y0.1151
N10060 X-1.4343 Y0.1233
N10065 X-1.4319 Y0.1479
N10070 X-1.417 Y0.2548
N10075 X-1.412 Y0.2794
N10080 G3 X-1.3801 Y0.4191 I-4.9406 J1.2026
N10085 X-1.375 Y0.4931 I-0.4797 J0.0706
N10090 G1 Y0.5881
N10095 G3 X-1.3926 Y0.6111 I-0.025 J-0.0009
N10100 G1 X-1.3964 Y0.6122 Z-0.1647
N10105 X-1.4 Y0.6134 Z-0.1638
N10110 X-1.4035 Y0.6144 Z-0.1623
N10115 X-1.4067 Y0.6154 Z-0.1602
N10120 X-1.4095 Y0.6163 Z-0.1577
N10125 X-1.4119 Y0.617 Z-0.1547
N10130 X-1.4139 Y0.6176 Z-0.1513
N10135 X-1.4153 Y0.6181 Z-0.1477
N10140 X-1.4162 Y0.6184 Z-0.1439
N10145 X-1.4165 Z-0.14
N10150 G0 Z0.2
N10155 G1 X-0.7498 Y1.3965 F300.
N10160 G0 Z-0.115
N10165 G1 Z-0.14 F24.
N10170 X-0.7495 Y1.3963 Z-0.1439
N10175 X-0.7487 Y1.3959 Z-0.1477
N10180 X-0.7474 Y1.3951 Z-0.1513
N10185 X-0.7457 Y1.394 Z-0.1547
N10190 X-0.7435 Y1.3927 Z-0.1577
N10195 X-0.7409 Y1.3912 Z-0.1602
N10200 X-0.738 Y1.3895 Z-0.1623
N10205 X-0.7349 Y1.3877 Z-0.1638
N10210 X-0.7316 Y1.3857 Z-0.1647
N10215 X-0.7283 Y1.3837 Z-0.165
N10220 G3 X-0.6986 Y1.375 I0.0318 J0.0536
N10225 G1 X-0.4849
N10230 G3 X-0.3617 Y1.3932 I-0.0054 J0.464
N10235 G1 X-0.2877 Y1.4102
N10240 X-0.2794 Y1.412
N10245 X-0.2548 Y1.417
N10250 X-0.1479 Y1.4319
N10255 X-0.1233 Y1.4343
N10260 X-0.1151 Y1.4348
N10265 X-0.0164 Y1.4394
N10270 X-0.0082 Y1.4395
N10275 X0.0082
N10280 X0.0164 Y1.4394
N10285 X0.1151 Y1.4348
N10290 X0.1233 Y1.4343
N10295 X0.1479 Y1.4319
N10300 X0.2548 Y1.417
N10305 X0.2794 Y1.412
N10310 G3 X0.4191 Y1.3801 I1.2026 J4.9405
N10315 X0.4931 Y1.375 I0.0706 J0.4797
N10320 G1 X0.5881
N10325 G3 X0.6111 Y1.3926 I-0.0009 J0.025
N10330 G1 X0.6122 Y1.3964 Z-0.1647
N10335 X0.6134 Y1.4 Z-0.1638
N10340 X0.6144 Y1.4035 Z-0.1623
N10345 X0.6154 Y1.4067 Z-0.1602
N10350 X0.6163 Y1.4095 Z-0.1577
N10355 X0.617 Y1.4119 Z-0.1547
N10360 X0.6176 Y1.4139 Z-0.1513
N10365 X0.6181 Y1.4153 Z-0.1477
N10370 X0.6184 Y1.4162 Z-0.1439
N10375 Y1.4165 Z-0.14
N10380 G0 Z0.2
N10385 G1 X1.3965 Y0.7498 F300.
N10390 G0 Z-0.115
N10395 G1 Z-0.14 F24.
N10400 X1.3963 Y0.7495 Z-0.1439
N10405 X1.3959 Y0.7487 Z-0.1477
N10410 X1.3951 Y0.7474 Z-0.1513
N10415 X1.394 Y0.7457 Z-0.1547
N10420 X1.3927 Y0.7435 Z-0.1577
N10425 X1.3912 Y0.7409 Z-0.1602
N10430 X1.3895 Y0.738 Z-0.1623
N10435 X1.3877 Y0.7349 Z-0.1638
N10440 X1.3857 Y0.7316 Z-0.1647
N10445 X1.3837 Y0.7283 Z-0.165
N10450 G3 X1.375 Y0.6986 I0.0536 J-0.0318
N10455 G1 Y0.4849
N10460 G3 X1.3932 Y0.3617 I0.464 J0.0054
N10465 G1 X1.4102 Y0.2877
N10470 X1.412 Y0.2794
N10475 X1.417 Y0.2548
N10480 X1.4319 Y0.1479
N10485 X1.4343 Y0.1233
N10490 X1.4348 Y0.1151
N10495 X1.4394 Y0.0164
N10500 X1.4395 Y0.0082
N10505 Y-0.0082
N10510 X1.4394 Y-0.0164
N10515 X1.4348 Y-0.1151
N10520 X1.4343 Y-0.1233
N10525 X1.4319 Y-0.1479
N10530 X1.417 Y-0.2548
N10535 X1.412 Y-0.2794
N10540 G3 X1.3801 Y-0.4191 I4.9406 J-1.2026
N10545 X1.375 Y-0.4931 I0.4797 J-0.0706
N10550 G1 Y-0.5881
N10555 G3 X1.3926 Y-0.6111 I0.025 J0.0009
N10560 G1 X1.3964 Y-0.6122 Z-0.1647
N10565 X1.4 Y-0.6134 Z-0.1638
N10570 X1.4035 Y-0.6144 Z-0.1623
N10575 X1.4067 Y-0.6154 Z-0.1602
N10580 X1.4095 Y-0.6163 Z-0.1577
N10585 X1.4119 Y-0.617 Z-0.1547
N10590 X1.4139 Y-0.6176 Z-0.1513
N10595 X1.4153 Y-0.6181 Z-0.1477
N10600 X1.4162 Y-0.6184 Z-0.1439
N10605 X1.4165 Z-0.14
N10610 G0 Z0.2
N10615 G1 X0.7498 Y-1.3965 F300.
N10620 G0 Z-0.115
N10625 G1 Z-0.14 F24.
N10630 X0.7495 Y-1.3963 Z-0.1439
N10635 X0.7487 Y-1.3959 Z-0.1477
N10640 X0.7474 Y-1.3951 Z-0.1513
N10645 X0.7457 Y-1.394 Z-0.1547
N10650 X0.7435 Y-1.3927 Z-0.1577
N10655 X0.7409 Y-1.3912 Z-0.1602
N10660 X0.738 Y-1.3895 Z-0.1623
N10665 X0.7349 Y-1.3877 Z-0.1638
N10670 X0.7316 Y-1.3857 Z-0.1647
N10675 X0.7283 Y-1.3837 Z-0.165
N10680 G3 X0.6986 Y-1.375 I-0.0318 J-0.0536
N10685 G1 X0.4849
N10690 G3 X0.3617 Y-1.3932 I0.0054 J-0.464
N10695 G1 X0.2877 Y-1.4102
N10700 X0.2794 Y-1.412
N10705 X0.2548 Y-1.417
N10710 X0.1479 Y-1.4319
N10715 X0.1233 Y-1.4343
N10720 X0.1151 Y-1.4348
N10725 X0.0164 Y-1.4394
N10730 X0.0082 Y-1.4395
N10735 X-0.0082
N10740 X-0.0164 Y-1.4394
N10745 X-0.1151 Y-1.4348
N10750 X-0.1233 Y-1.4343
N10755 X-0.1479 Y-1.4319
N10760 X-0.2548 Y-1.417
N10765 X-0.2794 Y-1.412
N10770 G3 X-0.4191 Y-1.3801 I-1.2026 J-4.9405
N10775 X-0.4931 Y-1.375 I-0.0706 J-0.4797
N10780 G1 X-0.5881
N10785 X-0.591 Y-1.3753
N10790 X-0.5939 Y-1.3759
N10795 X-0.5966 Y-1.3772 Z-0.1648
N10800 X-0.5993 Y-1.3785 Z-0.1643
N10805 X-0.6018 Y-1.3797 Z-0.1634
N10810 X-0.604 Y-1.382 Z-0.1619
N10815 X-0.6061 Y-1.3841 Z-0.16
N10820 X-0.6079 Y-1.386 Z-0.1577
N10825 X-0.609 Y-1.3883 Z-0.1547
N10830 X-0.6099 Y-1.3902 Z-0.1514
N10835 X-0.6106 Y-1.3915 Z-0.1477
N10840 X-0.611 Y-1.3923 Z-0.1439
N10845 X-0.6111 Y-1.3926 Z-0.14
N10850 G0 Z0.2
N10855 G1 X-1.314 Y-1.2799 F300.
N10860 G0 Z-0.15
N10865 G1 Z-0.175 F24.
N10870 Y-1.2796 Z-0.1789
N10875 X-1.3141 Y-1.2787 Z-0.1827
N10880 X-1.3142 Y-1.2772 Z-0.1863
N10885 X-1.3144 Y-1.2751 Z-0.1897
N10890 X-1.3147 Y-1.2726 Z-0.1927
N10895 X-1.315 Y-1.2696 Z-0.1952
N10900 X-1.3153 Y-1.2663 Z-0.1973
N10905 X-1.3156 Y-1.2627 Z-0.1988
N10910 X-1.316 Y-1.2589 Z-0.1997
N10915 X-1.3164 Y-1.255 Z-0.2
N10920 G3 X-1.3442 Y-1.1203 I-0.6353 J-0.0612
N10925 G2 X-1.3645 Y-1.0602 I0.6947 J0.2686
N10930 G1 X-1.3661 Y-1.052
N10935 X-1.3673 Y-1.0438
N10940 X-1.3682 Y-1.0356
N10945 X-1.3715 Y-1.016
N10950 X-1.3768 Y-0.9933
N10955 X-1.3861 Y-0.9635
N10960 X-1.3992 Y-0.9298
N10965 X-1.4142 Y-0.8968
N10970 G2 X-1.5238 Y-0.6686 I4.5792 J2.3402
N10975 X-1.5864 Y-0.4989 I1.8758 J0.7882
N10980 X-1.4228 Y0.8606 I1.589 J0.4983
N10985 G1 X-1.4037 Y0.8913
N10990 X-1.3865 Y0.9175
N10995 X-1.3802 Y0.9294
N11000 X-1.3763 Y0.9424
N11005 X-1.375 Y0.9558
N11010 Y0.9616
N11015 X-1.3749 Y0.9698
N11020 G2 X-1.3646 Y1.0602 I0.901 J-0.0563
N11025 G1 X-1.3622 Y1.0684
N11030 X-1.3595 Y1.0767
N11035 X-1.3538 Y1.0931
N11040 G3 X-1.3524 Y1.1032 Z-0.1979 I-0.0236 J0.0083
N11045 G2 X-1.3507 Y1.1145 Z-0.1956 I0.0249 J0.0019
N11050 G1 X-1.3475 Y1.1224 Z-0.1938
N11055 X-1.3442 Y1.1307 Z-0.192
N11060 X-1.2758 Y1.3008
N11065 G2 X-1.255 Y1.3164 I0.0232 J-0.0093
N11070 G3 X-1.158 Y1.3333 I-0.0612 J0.6353
N11075 G1 X-1.1494 Y1.3356 Z-0.1938
N11080 G3 X-1.1203 Y1.3442 Z-0.2 I-0.1668 J0.6161
N11085 G2 X-1.0602 Y1.3645 I0.2686 J-0.6947
N11090 G1 X-1.052 Y1.3661
N11095 X-1.0438 Y1.3673
N11100 X-1.0356 Y1.3682
N11105 X-1.016 Y1.3715
N11110 X-0.9933 Y1.3768
N11115 X-0.9635 Y1.3861
N11120 X-0.9298 Y1.3992
N11125 X-0.8968 Y1.4142
N11130 G2 X-0.6686 Y1.5238 I2.3402 J-4.5792
N11135 X-0.4989 Y1.5864 I0.7882 J-1.8758
N11140 X0.8606 Y1.4228 I0.4983 J-1.589
N11145 G1 X0.8913 Y1.4037
N11150 X0.9175 Y1.3865
N11155 X0.9294 Y1.3802
N11160 X0.9424 Y1.3763
N11165 X0.9558 Y1.375
N11170 X0.9616
N11175 X0.9698 Y1.3749
N11180 G2 X1.0602 Y1.3646 I-0.0563 J-0.901
N11185 G1 X1.0684 Y1.3622
N11190 X1.0767 Y1.3595
N11195 X1.0931 Y1.3538
N11200 G3 X1.1032 Y1.3524 Z-0.1979 I0.0083 J0.0236
N11205 G2 X1.1145 Y1.3507 Z-0.1956 I0.0019 J-0.0249
N11210 G1 X1.1224 Y1.3475 Z-0.1938
N11215 X1.1307 Y1.3442 Z-0.192
N11220 X1.3008 Y1.2758
N11225 G2 X1.3164 Y1.255 I-0.0093 J-0.0232
N11230 G3 X1.3333 Y1.158 I0.6353 J0.0612
N11235 G1 X1.3356 Y1.1494 Z-0.1938
N11240 G3 X1.3442 Y1.1203 Z-0.2 I0.6161 J0.1668
N11245 G2 X1.3645 Y1.0602 I-0.6947 J-0.2686
N11250 G1 X1.3661 Y1.052
N11255 X1.3673 Y1.0438
N11260 X1.3682 Y1.0356
N11265 X1.3715 Y1.016
N11270 X1.3768 Y0.9933
N11275 X1.3861 Y0.9635
N11280 X1.3992 Y0.9298
N11285 X1.4142 Y0.8968
N11290 G2 X1.5238 Y0.6686 I-4.5791 J-2.3401
N11295 X1.5864 Y0.4989 I-1.8759 J-0.7882
N11300 X1.4228 Y-0.8606 I-1.589 J-0.4983
N11305 G1 X1.4037 Y-0.8914
N11310 X1.3865 Y-0.9175
N11315 X1.3802 Y-0.9294
N11320 X1.3763 Y-0.9424
N11325 X1.375 Y-0.9558
N11330 Y-0.9616
N11335 X1.3749 Y-0.9698
N11340 G2 X1.3646 Y-1.0602 I-0.9014 J0.0563
N11345 G1 X1.3622 Y-1.0684
N11350 X1.3595 Y-1.0767
N11355 X1.3538 Y-1.0931
N11360 G3 X1.3524 Y-1.1032 Z-0.1979 I0.0236 J-0.0083
N11365 G2 X1.3507 Y-1.1145 Z-0.1956 I-0.0249 J-0.0019
N11370 G1 X1.3475 Y-1.1224 Z-0.1938
N11375 X1.3442 Y-1.1307 Z-0.192
N11380 X1.2758 Y-1.3008
N11385 G2 X1.255 Y-1.3164 I-0.0232 J0.0093
N11390 G3 X1.158 Y-1.3333 I0.0612 J-0.6353
N11395 G1 X1.1494 Y-1.3356 Z-0.1938
N11400 G3 X1.1203 Y-1.3442 Z-0.2 I0.1668 J-0.6161
N11405 G2 X1.0602 Y-1.3645 I-0.2686 J0.6947
N11410 G1 X1.052 Y-1.3661
N11415 X1.0438 Y-1.3673
N11420 X1.0356 Y-1.3682
N11425 X1.016 Y-1.3715
N11430 X0.9933 Y-1.3768
N11435 X0.9635 Y-1.3861
N11440 X0.9298 Y-1.3992
N11445 X0.8968 Y-1.4142
N11450 G2 X0.6686 Y-1.5238 I-2.3401 J4.5791
N11455 X0.4989 Y-1.5864 I-0.7882 J1.8759
N11460 X-0.8606 Y-1.4228 I-0.4983 J1.589
N11465 G1 X-0.8914 Y-1.4037
N11470 X-0.9175 Y-1.3865
N11475 X-0.9294 Y-1.3802
N11480 X-0.9424 Y-1.3763
N11485 X-0.9558 Y-1.375
N11490 X-0.9616
N11495 X-0.9698 Y-1.3749
N11500 G2 X-1.0602 Y-1.3646 I0.0563 J0.9014
N11505 G1 X-1.0684 Y-1.3622
N11510 X-1.0767 Y-1.3595
N11515 X-1.0931 Y-1.3538
N11520 G3 X-1.1206 Y-1.3628 I-0.0074 J-0.0239
N11525 G1 X-1.123 Y-1.3659 Z-0.1997
N11530 X-1.1252 Y-1.369 Z-0.1988
N11535 X-1.1274 Y-1.3719 Z-0.1973
N11540 X-1.1294 Y-1.3746 Z-0.1952
N11545 X-1.1311 Y-1.377 Z-0.1927
N11550 X-1.1327 Y-1.3791 Z-0.1897
N11555 X-1.1339 Y-1.3807 Z-0.1863
N11560 X-1.1348 Y-1.3819 Z-0.1827
N11565 X-1.1353 Y-1.3827 Z-0.1789
N11570 X-1.1355 Y-1.3829 Z-0.175
N11575 G0 Z0.2
N11580 G1 X-1.3838 Y-1.0888 F300.
N11585 G0 Z-0.15
N11590 G1 Z-0.175 F24.
N11595 X-1.3837 Y-1.0886 Z-0.1789
N11600 X-1.3833 Y-1.0877 Z-0.1827
N11605 X-1.3827 Y-1.0863 Z-0.1863
N11610 X-1.3818 Y-1.0845 Z-0.1897
N11615 X-1.3808 Y-1.0822 Z-0.1927
N11620 X-1.3796 Y-1.0794 Z-0.1952
N11625 X-1.3782 Y-1.0764 Z-0.1973
N11630 X-1.3767 Y-1.0731 Z-0.1988
N11635 X-1.3751 Y-1.0696 Z-0.1997
N11640 X-1.3735 Y-1.066 Z-0.2
N11645 G3 X-1.3682 Y-1.0356 I-0.0568 J0.0256
N11650 G1 X-1.3729 Y-0.9945
N11655 X-1.3749 Y-0.9698
N11660 X-1.375 Y-0.9616
N11665 Y-0.8958
N11670 X-1.3763 Y-0.8697
N11675 X-1.3788 Y-0.8487
N11680 X-1.3841 Y-0.8211
N11685 X-1.3933 Y-0.7861
N11690 G3 X-1.4558 Y-0.6164 I-2.6997 J-0.8989
N11695 G2 X-1.5539 Y-0.2687 I1.759 J0.6836
N11700 X-1.3838 Y0.7555 I1.5593 J0.2673
N11705 G1 X-1.3789 Y0.7661
N11710 X-1.376 Y0.7775
N11715 X-1.375 Y0.7892
N11720 Y0.9558
N11725 G3 X-1.3926 Y0.9788 I-0.025 J-0.0009
N11730 G1 X-1.3964 Y0.98 Z-0.1997
N11735 X-1.4 Y0.9811 Z-0.1988
N11740 X-1.4035 Y0.9822 Z-0.1973
N11745 X-1.4067 Y0.9832 Z-0.1952
N11750 X-1.4095 Y0.984 Z-0.1927
N11755 X-1.4119 Y0.9848 Z-0.1897
N11760 X-1.4139 Y0.9854 Z-0.1863
N11765 X-1.4153 Y0.9858 Z-0.1827
N11770 X-1.4162 Y0.9861 Z-0.1789
N11775 X-1.4165 Y0.9862 Z-0.175
N11780 G0 Z0.2
N11785 G1 X-1.0888 Y1.3838 F300.
N11790 G0 Z-0.15
N11795 G1 Z-0.175 F24.
N11800 X-1.0886 Y1.3837 Z-0.1789
N11805 X-1.0877 Y1.3833 Z-0.1827
N11810 X-1.0863 Y1.3827 Z-0.1863
N11815 X-1.0845 Y1.3818 Z-0.1897
N11820 X-1.0822 Y1.3808 Z-0.1927
N11825 X-1.0794 Y1.3796 Z-0.1952
N11830 X-1.0764 Y1.3782 Z-0.1973
N11835 X-1.0731 Y1.3767 Z-0.1988
N11840 X-1.0696 Y1.3751 Z-0.1997
N11845 X-1.066 Y1.3735 Z-0.2
N11850 G3 X-1.0356 Y1.3682 I0.0256 J0.0568
N11855 G1 X-0.9945 Y1.3729
N11860 X-0.9698 Y1.3749
N11865 X-0.9616 Y1.375
N11870 X-0.8958
N11875 X-0.8697 Y1.3763
N11880 X-0.8487 Y1.3788
N11885 X-0.8211 Y1.3841
N11890 X-0.7861 Y1.3933
N11895 G3 X-0.6164 Y1.4558 I-0.8989 J2.6997
N11900 G2 X-0.2687 Y1.5539 I0.6836 J-1.759
N11905 X0.7555 Y1.3838 I0.2673 J-1.5593
N11910 G1 X0.7661 Y1.3789
N11915 X0.7775 Y1.376
N11920 X0.7892 Y1.375
N11925 X0.9558
N11930 G3 X0.9788 Y1.3926 I-0.0009 J0.025
N11935 G1 X0.98 Y1.3964 Z-0.1997
N11940 X0.9811 Y1.4 Z-0.1988
N11945 X0.9822 Y1.4035 Z-0.1973
N11950 X0.9832 Y1.4067 Z-0.1952
N11955 X0.984 Y1.4095 Z-0.1927
N11960 X0.9848 Y1.4119 Z-0.1897
N11965 X0.9854 Y1.4139 Z-0.1863
N11970 X0.9858 Y1.4153 Z-0.1827
N11975 X0.9861 Y1.4162 Z-0.1789
N11980 X0.9862 Y1.4165 Z-0.175
N11985 G0 Z0.2
N11990 G1 X1.3838 Y1.0888 F300.
N11995 G0 Z-0.15
N12000 G1 Z-0.175 F24.
N12005 X1.3837 Y1.0886 Z-0.1789
N12010 X1.3833 Y1.0877 Z-0.1827
N12015 X1.3827 Y1.0863 Z-0.1863
N12020 X1.3818 Y1.0845 Z-0.1897
N12025 X1.3808 Y1.0822 Z-0.1927
N12030 X1.3796 Y1.0794 Z-0.1952
N12035 X1.3782 Y1.0764 Z-0.1973
N12040 X1.3767 Y1.0731 Z-0.1988
N12045 X1.3751 Y1.0696 Z-0.1997
N12050 X1.3735 Y1.066 Z-0.2
N12055 G3 X1.3682 Y1.0356 I0.0568 J-0.0256
N12060 G1 X1.3729 Y0.9945
N12065 X1.3749 Y0.9698
N12070 X1.375 Y0.9616
N12075 Y0.8958
N12080 X1.3763 Y0.8697
N12085 X1.3788 Y0.8487
N12090 X1.3841 Y0.8211
N12095 X1.3933 Y0.7861
N12100 G3 X1.4558 Y0.6164 I2.6998 J0.8989
N12105 G2 X1.5539 Y0.2687 I-1.759 J-0.6836
N12110 X1.3838 Y-0.7555 I-1.5593 J-0.2673
N12115 G1 X1.3789 Y-0.7661
N12120 X1.376 Y-0.7775
N12125 X1.375 Y-0.7892
N12130 Y-0.9558
N12135 G3 X1.3926 Y-0.9788 I0.025 J0.0009
N12140 G1 X1.3964 Y-0.98 Z-0.1997
N12145 X1.4 Y-0.9811 Z-0.1988
N12150 X1.4035 Y-0.9822 Z-0.1973
N12155 X1.4067 Y-0.9832 Z-0.1952
N12160 X1.4095 Y-0.984 Z-0.1927
N12165 X1.4119 Y-0.9848 Z-0.1897
N12170 X1.4139 Y-0.9854 Z-0.1863
N12175 X1.4153 Y-0.9858 Z-0.1827
N12180 X1.4162 Y-0.9861 Z-0.1789
N12185 X1.4165 Y-0.9862 Z-0.175
N12190 G0 Z0.2
N12195 G1 X1.0888 Y-1.3838 F300.
N12200 G0 Z-0.15
N12205 G1 Z-0.175 F24.
N12210 X1.0886 Y-1.3837 Z-0.1789
N12215 X1.0877 Y-1.3833 Z-0.1827
N12220 X1.0863 Y-1.3827 Z-0.1863
N12225 X1.0845 Y-1.3818 Z-0.1897
N12230 X1.0822 Y-1.3808 Z-0.1927
N12235 X1.0794 Y-1.3796 Z-0.1952
N12240 X1.0764 Y-1.3782 Z-0.1973
N12245 X1.0731 Y-1.3767 Z-0.1988
N12250 X1.0696 Y-1.3751 Z-0.1997
N12255 X1.066 Y-1.3735 Z-0.2
N12260 G3 X1.0356 Y-1.3682 I-0.0256 J-0.0568
N12265 G1 X0.9945 Y-1.3729
N12270 X0.9698 Y-1.3749
N12275 X0.9616 Y-1.375
N12280 X0.8958
N12285 X0.8697 Y-1.3763
N12290 X0.8487 Y-1.3788
N12295 X0.8211 Y-1.3841
N12300 X0.7861 Y-1.3933
N12305 G3 X0.6164 Y-1.4558 I0.8989 J-2.6998
N12310 G2 X0.2687 Y-1.5539 I-0.6836 J1.759
N12315 X-0.7555 Y-1.3838 I-0.2673 J1.5593
N12320 G1 X-0.7661 Y-1.3789
N12325 X-0.7775 Y-1.376
N12330 X-0.7892 Y-1.375
N12335 X-0.9558
N12340 G3 X-0.9788 Y-1.3926 I0.0009 J-0.025
N12345 G1 X-0.98 Y-1.3964 Z-0.1997
N12350 X-0.9811 Y-1.4 Z-0.1988
N12355 X-0.9822 Y-1.4035 Z-0.1973
N12360 X-0.9832 Y-1.4067 Z-0.1952
N12365 X-0.984 Y-1.4095 Z-0.1927
N12370 X-0.9848 Y-1.4119 Z-0.1897
N12375 X-0.9854 Y-1.4139 Z-0.1863
N12380 X-0.9858 Y-1.4153 Z-0.1827
N12385 X-0.9861 Y-1.4162 Z-0.1789
N12390 X-0.9862 Y-1.4165 Z-0.175
N12395 G0 Z0.2
N12400 G1 X-1.3965 Y-0.947 F300.
N12405 G0 Z-0.15
N12410 G1 Z-0.175 F24.
N12415 X-1.3963 Y-0.9467 Z-0.1789
N12420 X-1.3959 Y-0.946 Z-0.1827
N12425 X-1.3951 Y-0.9447 Z-0.1863
N12430 X-1.394 Y-0.9429 Z-0.1897
N12435 X-1.3927 Y-0.9407 Z-0.1927
N12440 X-1.3912 Y-0.9381 Z-0.1952
N12445 X-1.3895 Y-0.9353 Z-0.1973
N12450 X-1.3877 Y-0.9322 Z-0.1988
N12455 X-1.3857 Y-0.9289 Z-0.1997
N12460 X-1.3837 Y-0.9255 Z-0.2
N12465 G3 X-1.375 Y-0.8958 I-0.0536 J0.0318
N12470 G1 Y-0.6986
N12475 X-1.3766 Y-0.6671
N12480 X-1.3806 Y-0.6339
N12485 X-1.3873 Y-0.5983
N12490 G3 X-1.433 Y-0.4233 I-4.6593 J-1.1235
N12495 G2 X-1.487 Y-0.1026 I1.7324 J0.4565
N12500 X-1.3769 Y0.5704 I1.5008 J0.0999
N12505 G1 X-1.3756 Y0.5793
N12510 X-1.375 Y0.5881
N12515 Y0.7892
N12520 G3 X-1.3926 Y0.8122 I-0.025 J-0.0009
N12525 G1 X-1.3964 Y0.8134 Z-0.1997
N12530 X-1.4 Y0.8145 Z-0.1988
N12535 X-1.4035 Y0.8156 Z-0.1973
N12540 X-1.4067 Y0.8165 Z-0.1952
N12545 X-1.4095 Y0.8174 Z-0.1927
N12550 X-1.4119 Y0.8182 Z-0.1897
N12555 X-1.4139 Y0.8188 Z-0.1863
N12560 X-1.4153 Y0.8192 Z-0.1827
N12565 X-1.4162 Y0.8195 Z-0.1789
N12570 X-1.4165 Y0.8196 Z-0.175
N12575 G0 Z0.2
N12580 G1 X-0.947 Y1.3965 F300.
N12585 G0 Z-0.15
N12590 G1 Z-0.175 F24.
N12595 X-0.9467 Y1.3963 Z-0.1789
N12600 X-0.946 Y1.3959 Z-0.1827
N12605 X-0.9447 Y1.3951 Z-0.1863
N12610 X-0.9429 Y1.394 Z-0.1897
N12615 X-0.9407 Y1.3927 Z-0.1927
N12620 X-0.9381 Y1.3912 Z-0.1952
N12625 X-0.9353 Y1.3895 Z-0.1973
N12630 X-0.9322 Y1.3877 Z-0.1988
N12635 X-0.9289 Y1.3857 Z-0.1997
N12640 X-0.9255 Y1.3837 Z-0.2
N12645 G3 X-0.8958 Y1.375 I0.0318 J0.0536
N12650 G1 X-0.6986
N12655 X-0.6671 Y1.3766
N12660 X-0.6339 Y1.3806
N12665 X-0.5983 Y1.3873
N12670 G3 X-0.4233 Y1.433 I-1.1235 J4.6593
N12675 G2 X-0.1026 Y1.487 I0.4565 J-1.7324
N12680 X0.5704 Y1.3769 I0.0999 J-1.5008
N12685 G1 X0.5793 Y1.3756
N12690 X0.5881 Y1.375
N12695 X0.7892
N12700 G3 X0.8122 Y1.3926 I-0.0009 J0.025
N12705 G1 X0.8134 Y1.3964 Z-0.1997
N12710 X0.8145 Y1.4 Z-0.1988
N12715 X0.8156 Y1.4035 Z-0.1973
N12720 X0.8165 Y1.4067 Z-0.1952
N12725 X0.8174 Y1.4095 Z-0.1927
N12730 X0.8182 Y1.4119 Z-0.1897
N12735 X0.8188 Y1.4139 Z-0.1863
N12740 X0.8192 Y1.4153 Z-0.1827
N12745 X0.8195 Y1.4162 Z-0.1789
N12750 X0.8196 Y1.4165 Z-0.175
N12755 G0 Z0.2
N12760 G1 X1.3965 Y0.947 F300.
N12765 G0 Z-0.15
N12770 G1 Z-0.175 F24.
N12775 X1.3963 Y0.9467 Z-0.1789
N12780 X1.3959 Y0.946 Z-0.1827
N12785 X1.3951 Y0.9447 Z-0.1863
N12790 X1.394 Y0.9429 Z-0.1897
N12795 X1.3927 Y0.9407 Z-0.1927
N12800 X1.3912 Y0.9381 Z-0.1952
N12805 X1.3895 Y0.9353 Z-0.1973
N12810 X1.3877 Y0.9322 Z-0.1988
N12815 X1.3857 Y0.9289 Z-0.1997
N12820 X1.3837 Y0.9255 Z-0.2
N12825 G3 X1.375 Y0.8958 I0.0536 J-0.0318
N12830 G1 Y0.6986
N12835 X1.3766 Y0.6671
N12840 X1.3806 Y0.6339
N12845 X1.3873 Y0.5983
N12850 G3 X1.433 Y0.4233 I4.6593 J1.1235
N12855 G2 X1.487 Y0.1026 I-1.7324 J-0.4565
N12860 X1.3769 Y-0.5704 I-1.5008 J-0.0999
N12865 G1 X1.3756 Y-0.5793
N12870 X1.375 Y-0.5881
N12875 Y-0.7892
N12880 G3 X1.3926 Y-0.8122 I0.025 J0.0009
N12885 G1 X1.3964 Y-0.8134 Z-0.1997
N12890 X1.4 Y-0.8145 Z-0.1988
N12895 X1.4035 Y-0.8156 Z-0.1973
N12900 X1.4067 Y-0.8165 Z-0.1952
N12905 X1.4095 Y-0.8174 Z-0.1927
N12910 X1.4119 Y-0.8182 Z-0.1897
N12915 X1.4139 Y-0.8188 Z-0.1863
N12920 X1.4153 Y-0.8192 Z-0.1827
N12925 X1.4162 Y-0.8195 Z-0.1789
N12930 X1.4165 Y-0.8196 Z-0.175
N12935 G0 Z0.2
N12940 G1 X0.947 Y-1.3965 F300.
N12945 G0 Z-0.15
N12950 G1 Z-0.175 F24.
N12955 X0.9467 Y-1.3963 Z-0.1789
N12960 X0.946 Y-1.3959 Z-0.1827
N12965 X0.9447 Y-1.3951 Z-0.1863
N12970 X0.9429 Y-1.394 Z-0.1897
N12975 X0.9407 Y-1.3927 Z-0.1927
N12980 X0.9381 Y-1.3912 Z-0.1952
N12985 X0.9353 Y-1.3895 Z-0.1973
N12990 X0.9322 Y-1.3877 Z-0.1988
N12995 X0.9289 Y-1.3857 Z-0.1997
N13000 X0.9255 Y-1.3837 Z-0.2
N13005 G3 X0.8958 Y-1.375 I-0.0318 J-0.0536
N13010 G1 X0.6986
N13015 X0.6671 Y-1.3766
N13020 X0.6339 Y-1.3806
N13025 X0.5983 Y-1.3873
N13030 G3 X0.4233 Y-1.433 I1.1235 J-4.6593
N13035 G2 X0.1026 Y-1.487 I-0.4565 J1.7324
N13040 X-0.5704 Y-1.3769 I-0.0999 J1.5008
N13045 G1 X-0.5793 Y-1.3756
N13050 X-0.5881 Y-1.375
N13055 X-0.7892
N13060 G3 X-0.8122 Y-1.3926 I0.0009 J-0.025
N13065 G1 X-0.8134 Y-1.3964 Z-0.1997
N13070 X-0.8145 Y-1.4 Z-0.1988
N13075 X-0.8156 Y-1.4035 Z-0.1973
N13080 X-0.8165 Y-1.4067 Z-0.1952
N13085 X-0.8174 Y-1.4095 Z-0.1927
N13090 X-0.8182 Y-1.4119 Z-0.1897
N13095 X-0.8188 Y-1.4139 Z-0.1863
N13100 X-0.8192 Y-1.4153 Z-0.1827
N13105 X-0.8195 Y-1.4162 Z-0.1789
N13110 X-0.8196 Y-1.4165 Z-0.175
N13115 G0 Z0.2
N13120 G1 X-1.3965 Y-0.7498 F300.
N13125 G0 Z-0.15
N13130 G1 Z-0.175 F24.
N13135 X-1.3963 Y-0.7495 Z-0.1789
N13140 X-1.3959 Y-0.7487 Z-0.1827
N13145 X-1.3951 Y-0.7474 Z-0.1863
N13150 X-1.394 Y-0.7457 Z-0.1897
N13155 X-1.3927 Y-0.7435 Z-0.1927
N13160 X-1.3912 Y-0.7409 Z-0.1952
N13165 X-1.3895 Y-0.738 Z-0.1973
N13170 X-1.3877 Y-0.7349 Z-0.1988
N13175 X-1.3857 Y-0.7316 Z-0.1997
N13180 X-1.3837 Y-0.7283 Z-0.2
N13185 G3 X-1.375 Y-0.6986 I-0.0536 J0.0318
N13190 G1 Y-0.4849
N13195 G3 X-1.3932 Y-0.3617 I-0.464 J-0.0054
N13200 G1 X-1.4102 Y-0.2877
N13205 X-1.412 Y-0.2794
N13210 X-1.417 Y-0.2548
N13215 X-1.4319 Y-0.1479
N13220 X-1.4343 Y-0.1233
N13225 X-1.4348 Y-0.1151
N13230 X-1.4394 Y-0.0164
N13235 X-1.4395 Y-0.0082
N13240 Y0.0082
N13245 X-1.4394 Y0.0164
N13250 X-1.4348 Y0.1151
N13255 X-1.4343 Y0.1233
N13260 X-1.4319 Y0.1479
N13265 X-1.417 Y0.2548
N13270 X-1.412 Y0.2794
N13275 G3 X-1.3801 Y0.4191 I-4.9406 J1.2026
N13280 X-1.375 Y0.4931 I-0.4797 J0.0706
N13285 G1 Y0.5881
N13290 G3 X-1.3926 Y0.6111 I-0.025 J-0.0009
N13295 G1 X-1.3964 Y0.6122 Z-0.1997
N13300 X-1.4 Y0.6134 Z-0.1988
N13305 X-1.4035 Y0.6144 Z-0.1973
N13310 X-1.4067 Y0.6154 Z-0.1952
N13315 X-1.4095 Y0.6163 Z-0.1927
N13320 X-1.4119 Y0.617 Z-0.1897
N13325 X-1.4139 Y0.6176 Z-0.1863
N13330 X-1.4153 Y0.6181 Z-0.1827
N13335 X-1.4162 Y0.6184 Z-0.1789
N13340 X-1.4165 Z-0.175
N13345 G0 Z0.2
N13350 G1 X-0.7498 Y1.3965 F300.
N13355 G0 Z-0.15
N13360 G1 Z-0.175 F24.
N13365 X-0.7495 Y1.3963 Z-0.1789
N13370 X-0.7487 Y1.3959 Z-0.1827
N13375 X-0.7474 Y1.3951 Z-0.1863
N13380 X-0.7457 Y1.394 Z-0.1897
N13385 X-0.7435 Y1.3927 Z-0.1927
N13390 X-0.7409 Y1.3912 Z-0.1952
N13395 X-0.738 Y1.3895 Z-0.1973
N13400 X-0.7349 Y1.3877 Z-0.1988
N13405 X-0.7316 Y1.3857 Z-0.1997
N13410 X-0.7283 Y1.3837 Z-0.2
N13415 G3 X-0.6986 Y1.375 I0.0318 J0.0536
N13420 G1 X-0.4849
N13425 G3 X-0.3617 Y1.3932 I-0.0054 J0.464
N13430 G1 X-0.2877 Y1.4102
N13435 X-0.2794 Y1.412
N13440 X-0.2548 Y1.417
N13445 X-0.1479 Y1.4319
N13450 X-0.1233 Y1.4343
N13455 X-0.1151 Y1.4348
N13460 X-0.0164 Y1.4394
N13465 X-0.0082 Y1.4395
N13470 X0.0082
N13475 X0.0164 Y1.4394
N13480 X0.1151 Y1.4348
N13485 X0.1233 Y1.4343
N13490 X0.1479 Y1.4319
N13495 X0.2548 Y1.417
N13500 X0.2794 Y1.412
N13505 G3 X0.4191 Y1.3801 I1.2026 J4.9405
N13510 X0.4931 Y1.375 I0.0706 J0.4797
N13515 G1 X0.5881
N13520 G3 X0.6111 Y1.3926 I-0.0009 J0.025
N13525 G1 X0.6122 Y1.3964 Z-0.1997
N13530 X0.6134 Y1.4 Z-0.1988
N13535 X0.6144 Y1.4035 Z-0.1973
N13540 X0.6154 Y1.4067 Z-0.1952
N13545 X0.6163 Y1.4095 Z-0.1927
N13550 X0.617 Y1.4119 Z-0.1897
N13555 X0.6176 Y1.4139 Z-0.1863
N13560 X0.6181 Y1.4153 Z-0.1827
N13565 X0.6184 Y1.4162 Z-0.1789
N13570 Y1.4165 Z-0.175
N13575 G0 Z0.2
N13580 G1 X1.3965 Y0.7498 F300.
N13585 G0 Z-0.15
N13590 G1 Z-0.175 F24.
N13595 X1.3963 Y0.7495 Z-0.1789
N13600 X1.3959 Y0.7487 Z-0.1827
N13605 X1.3951 Y0.7474 Z-0.1863
N13610 X1.394 Y0.7457 Z-0.1897
N13615 X1.3927 Y0.7435 Z-0.1927
N13620 X1.3912 Y0.7409 Z-0.1952
N13625 X1.3895 Y0.738 Z-0.1973
N13630 X1.3877 Y0.7349 Z-0.1988
N13635 X1.3857 Y0.7316 Z-0.1997
N13640 X1.3837 Y0.7283 Z-0.2
N13645 G3 X1.375 Y0.6986 I0.0536 J-0.0318
N13650 G1 Y0.4849
N13655 G3 X1.3932 Y0.3617 I0.464 J0.0054
N13660 G1 X1.4102 Y0.2877
N13665 X1.412 Y0.2794
N13670 X1.417 Y0.2548
N13675 X1.4319 Y0.1479
N13680 X1.4343 Y0.1233
N13685 X1.4348 Y0.1151
N13690 X1.4394 Y0.0164
N13695 X1.4395 Y0.0082
N13700 Y-0.0082
N13705 X1.4394 Y-0.0164
N13710 X1.4348 Y-0.1151
N13715 X1.4343 Y-0.1233
N13720 X1.4319 Y-0.1479
N13725 X1.417 Y-0.2548
N13730 X1.412 Y-0.2794
N13735 G3 X1.3801 Y-0.4191 I4.9406 J-1.2026
N13740 X1.375 Y-0.4931 I0.4797 J-0.0706
N13745 G1 Y-0.5881
N13750 G3 X1.3926 Y-0.6111 I0.025 J0.0009
N13755 G1 X1.3964 Y-0.6122 Z-0.1997
N13760 X1.4 Y-0.6134 Z-0.1988
N13765 X1.4035 Y-0.6144 Z-0.1973
N13770 X1.4067 Y-0.6154 Z-0.1952
N13775 X1.4095 Y-0.6163 Z-0.1927
N13780 X1.4119 Y-0.617 Z-0.1897
N13785 X1.4139 Y-0.6176 Z-0.1863
N13790 X1.4153 Y-0.6181 Z-0.1827
N13795 X1.4162 Y-0.6184 Z-0.1789
N13800 X1.4165 Z-0.175
N13805 G0 Z0.2
N13810 G1 X0.7498 Y-1.3965 F300.
N13815 G0 Z-0.15
N13820 G1 Z-0.175 F24.
N13825 X0.7495 Y-1.3963 Z-0.1789
N13830 X0.7487 Y-1.3959 Z-0.1827
N13835 X0.7474 Y-1.3951 Z-0.1863
N13840 X0.7457 Y-1.394 Z-0.1897
N13845 X0.7435 Y-1.3927 Z-0.1927
N13850 X0.7409 Y-1.3912 Z-0.1952
N13855 X0.738 Y-1.3895 Z-0.1973
N13860 X0.7349 Y-1.3877 Z-0.1988
N13865 X0.7316 Y-1.3857 Z-0.1997
N13870 X0.7283 Y-1.3837 Z-0.2
N13875 G3 X0.6986 Y-1.375 I-0.0318 J-0.0536
N13880 G1 X0.4849
N13885 G3 X0.3617 Y-1.3932 I0.0054 J-0.464
N13890 G1 X0.2877 Y-1.4102
N13895 X0.2794 Y-1.412
N13900 X0.2548 Y-1.417
N13905 X0.1479 Y-1.4319
N13910 X0.1233 Y-1.4343
N13915 X0.1151 Y-1.4348
N13920 X0.0164 Y-1.4394
N13925 X0.0082 Y-1.4395
N13930 X-0.0082
N13935 X-0.0164 Y-1.4394
N13940 X-0.1151 Y-1.4348
N13945 X-0.1233 Y-1.4343
N13950 X-0.1479 Y-1.4319
N13955 X-0.2548 Y-1.417
N13960 X-0.2794 Y-1.412
N13965 G3 X-0.4191 Y-1.3801 I-1.2026 J-4.9405
N13970 X-0.4931 Y-1.375 I-0.0706 J-0.4797
N13975 G1 X-0.5881
N13980 X-0.591 Y-1.3753
N13985 X-0.5939 Y-1.3759
N13990 X-0.5966 Y-1.3772 Z-0.1998
N13995 X-0.5993 Y-1.3785 Z-0.1993
N14000 X-0.6018 Y-1.3797 Z-0.1984
N14005 X-0.604 Y-1.382 Z-0.1969
N14010 X-0.6061 Y-1.3841 Z-0.195
N14015 X-0.6079 Y-1.386 Z-0.1927
N14020 X-0.609 Y-1.3883 Z-0.1897
N14025 X-0.6099 Y-1.3902 Z-0.1864
N14030 X-0.6106 Y-1.3915 Z-0.1827
N14035 X-0.611 Y-1.3923 Z-0.1789
N14040 X-0.6111 Y-1.3926 Z-0.175
N14045 G0 Z0.2
N14050 G1 X-1.314 Y-1.2799 F300.
N14055 G0 Z-0.185
N14060 G1 Z-0.21 F24.
N14065 Y-1.2796 Z-0.2139
N14070 X-1.3141 Y-1.2787 Z-0.2177
N14075 X-1.3142 Y-1.2772 Z-0.2213
N14080 X-1.3144 Y-1.2751 Z-0.2247
N14085 X-1.3147 Y-1.2726 Z-0.2277
N14090 X-1.315 Y-1.2696 Z-0.2302
N14095 X-1.3153 Y-1.2663 Z-0.2323
N14100 X-1.3156 Y-1.2627 Z-0.2338
N14105 X-1.316 Y-1.2589 Z-0.2347
N14110 X-1.3164 Y-1.255 Z-0.235
N14115 G3 X-1.3442 Y-1.1203 I-0.6353 J-0.0612
N14120 G2 X-1.3645 Y-1.0602 I0.6947 J0.2686
N14125 G1 X-1.3661 Y-1.052
N14130 X-1.3673 Y-1.0438
N14135 X-1.3682 Y-1.0356
N14140 X-1.3715 Y-1.016
N14145 X-1.3768 Y-0.9933
N14150 X-1.3861 Y-0.9635
N14155 X-1.3992 Y-0.9298
N14160 X-1.4142 Y-0.8968
N14165 G2 X-1.5238 Y-0.6686 I4.5792 J2.3402
N14170 X-1.5864 Y-0.4989 I1.8758 J0.7882
N14175 X-1.4228 Y0.8606 I1.589 J0.4983
N14180 G1 X-1.4037 Y0.8913
N14185 X-1.3865 Y0.9175
N14190 X-1.3802 Y0.9294
N14195 X-1.3763 Y0.9424
N14200 X-1.375 Y0.9558
N14205 Y0.9616
N14210 X-1.3749 Y0.9698
N14215 G2 X-1.3646 Y1.0602 I0.901 J-0.0563
N14220 G1 X-1.3622 Y1.0684
N14225 X-1.3595 Y1.0767
N14230 X-1.3538 Y1.0931
N14235 G3 X-1.3524 Y1.1032 Z-0.2329 I-0.0236 J0.0083
N14240 G2 X-1.3507 Y1.1145 Z-0.2306 I0.0249 J0.0019
N14245 G1 X-1.3475 Y1.1224 Z-0.2288
N14250 X-1.3442 Y1.1307 Z-0.227
N14255 X-1.2758 Y1.3008
N14260 G2 X-1.255 Y1.3164 I0.0232 J-0.0093
N14265 G3 X-1.158 Y1.3333 I-0.0612 J0.6353
N14270 G1 X-1.1494 Y1.3356 Z-0.2288
N14275 G3 X-1.1203 Y1.3442 Z-0.235 I-0.1668 J0.6161
N14280 G2 X-1.0602 Y1.3645 I0.2686 J-0.6947
N14285 G1 X-1.052 Y1.3661
N14290 X-1.0438 Y1.3673
N14295 X-1.0356 Y1.3682
N14300 X-1.016 Y1.3715
N14305 X-0.9933 Y1.3768
N14310 X-0.9635 Y1.3861
N14315 X-0.9298 Y1.3992
N14320 X-0.8968 Y1.4142
N14325 G2 X-0.6686 Y1.5238 I2.3402 J-4.5792
N14330 X-0.4989 Y1.5864 I0.7882 J-1.8758
N14335 X0.8606 Y1.4228 I0.4983 J-1.589
N14340 G1 X0.8913 Y1.4037
N14345 X0.9175 Y1.3865
N14350 X0.9294 Y1.3802
N14355 X0.9424 Y1.3763
N14360 X0.9558 Y1.375
N14365 X0.9616
N14370 X0.9698 Y1.3749
N14375 G2 X1.0602 Y1.3646 I-0.0563 J-0.901
N14380 G1 X1.0684 Y1.3622
N14385 X1.0767 Y1.3595
N14390 X1.0931 Y1.3538
N14395 G3 X1.1032 Y1.3524 Z-0.2329 I0.0083 J0.0236
N14400 G2 X1.1145 Y1.3507 Z-0.2306 I0.0019 J-0.0249
N14405 G1 X1.1224 Y1.3475 Z-0.2288
N14410 X1.1307 Y1.3442 Z-0.227
N14415 X1.3008 Y1.2758
N14420 G2 X1.3164 Y1.255 I-0.0093 J-0.0232
N14425 G3 X1.3333 Y1.158 I0.6353 J0.0612
N14430 G1 X1.3356 Y1.1494 Z-0.2288
N14435 G3 X1.3442 Y1.1203 Z-0.235 I0.6161 J0.1668
N14440 G2 X1.3645 Y1.0602 I-0.6947 J-0.2686
N14445 G1 X1.3661 Y1.052
N14450 X1.3673 Y1.0438
N14455 X1.3682 Y1.0356
N14460 X1.3715 Y1.016
N14465 X1.3768 Y0.9933
N14470 X1.3861 Y0.9635
N14475 X1.3992 Y0.9298
N14480 X1.4142 Y0.8968
N14485 G2 X1.5238 Y0.6686 I-4.5791 J-2.3401
N14490 X1.5864 Y0.4989 I-1.8759 J-0.7882
N14495 X1.4228 Y-0.8606 I-1.589 J-0.4983
N14500 G1 X1.4037 Y-0.8914
N14505 X1.3865 Y-0.9175
N14510 X1.3802 Y-0.9294
N14515 X1.3763 Y-0.9424
N14520 X1.375 Y-0.9558
N14525 Y-0.9616
N14530 X1.3749 Y-0.9698
N14535 G2 X1.3646 Y-1.0602 I-0.9014 J0.0563
N14540 G1 X1.3622 Y-1.0684
N14545 X1.3595 Y-1.0767
N14550 X1.3538 Y-1.0931
N14555 G3 X1.3524 Y-1.1032 Z-0.2329 I0.0236 J-0.0083
N14560 G2 X1.3507 Y-1.1145 Z-0.2306 I-0.0249 J-0.0019
N14565 G1 X1.3475 Y-1.1224 Z-0.2288
N14570 X1.3442 Y-1.1307 Z-0.227
N14575 X1.2758 Y-1.3008
N14580 G2 X1.255 Y-1.3164 I-0.0232 J0.0093
N14585 G3 X1.158 Y-1.3333 I0.0612 J-0.6353
N14590 G1 X1.1494 Y-1.3356 Z-0.2288
N14595 G3 X1.1203 Y-1.3442 Z-0.235 I0.1668 J-0.6161
N14600 G2 X1.0602 Y-1.3645 I-0.2686 J0.6947
N14605 G1 X1.052 Y-1.3661
N14610 X1.0438 Y-1.3673
N14615 X1.0356 Y-1.3682
N14620 X1.016 Y-1.3715
N14625 X0.9933 Y-1.3768
N14630 X0.9635 Y-1.3861
N14635 X0.9298 Y-1.3992
N14640 X0.8968 Y-1.4142
N14645 G2 X0.6686 Y-1.5238 I-2.3401 J4.5791
N14650 X0.4989 Y-1.5864 I-0.7882 J1.8759
N14655 X-0.8606 Y-1.4228 I-0.4983 J1.589
N14660 G1 X-0.8914 Y-1.4037
N14665 X-0.9175 Y-1.3865
N14670 X-0.9294 Y-1.3802
N14675 X-0.9424 Y-1.3763
N14680 X-0.9558 Y-1.375
N14685 X-0.9616
N14690 X-0.9698 Y-1.3749
N14695 G2 X-1.0602 Y-1.3646 I0.0563 J0.9014
N14700 G1 X-1.0684 Y-1.3622
N14705 X-1.0767 Y-1.3595
N14710 X-1.0931 Y-1.3538
N14715 G3 X-1.1206 Y-1.3628 I-0.0074 J-0.0239
N14720 G1 X-1.123 Y-1.3659 Z-0.2347
N14725 X-1.1252 Y-1.369 Z-0.2338
N14730 X-1.1274 Y-1.3719 Z-0.2323
N14735 X-1.1294 Y-1.3746 Z-0.2302
N14740 X-1.1311 Y-1.377 Z-0.2277
N14745 X-1.1327 Y-1.3791 Z-0.2247
N14750 X-1.1339 Y-1.3807 Z-0.2213
N14755 X-1.1348 Y-1.3819 Z-0.2177
N14760 X-1.1353 Y-1.3827 Z-0.2139
N14765 X-1.1355 Y-1.3829 Z-0.21
N14770 G0 Z0.2
N14775 G1 X-1.3838 Y-1.0888 F300.
N14780 G0 Z-0.185
N14785 G1 Z-0.21 F24.
N14790 X-1.3837 Y-1.0886 Z-0.2139
N14795 X-1.3833 Y-1.0877 Z-0.2177
N14800 X-1.3827 Y-1.0863 Z-0.2213
N14805 X-1.3818 Y-1.0845 Z-0.2247
N14810 X-1.3808 Y-1.0822 Z-0.2277
N14815 X-1.3796 Y-1.0794 Z-0.2302
N14820 X-1.3782 Y-1.0764 Z-0.2323
N14825 X-1.3767 Y-1.0731 Z-0.2338
N14830 X-1.3751 Y-1.0696 Z-0.2347
N14835 X-1.3735 Y-1.066 Z-0.235
N14840 G3 X-1.3682 Y-1.0356 I-0.0568 J0.0256
N14845 G1 X-1.3729 Y-0.9945
N14850 X-1.3749 Y-0.9698
N14855 X-1.375 Y-0.9616
N14860 Y-0.8958
N14865 X-1.3763 Y-0.8697
N14870 X-1.3788 Y-0.8487
N14875 X-1.3841 Y-0.8211
N14880 X-1.3933 Y-0.7861
N14885 G3 X-1.4558 Y-0.6164 I-2.6997 J-0.8989
N14890 G2 X-1.5539 Y-0.2687 I1.759 J0.6836
N14895 X-1.3838 Y0.7555 I1.5593 J0.2673
N14900 G1 X-1.3789 Y0.7661
N14905 X-1.376 Y0.7775
N14910 X-1.375 Y0.7892
N14915 Y0.9558
N14920 G3 X-1.3926 Y0.9788 I-0.025 J-0.0009
N14925 G1 X-1.3964 Y0.98 Z-0.2347
N14930 X-1.4 Y0.9811 Z-0.2338
N14935 X-1.4035 Y0.9822 Z-0.2323
N14940 X-1.4067 Y0.9832 Z-0.2302
N14945 X-1.4095 Y0.984 Z-0.2277
N14950 X-1.4119 Y0.9848 Z-0.2247
N14955 X-1.4139 Y0.9854 Z-0.2213
N14960 X-1.4153 Y0.9858 Z-0.2177
N14965 X-1.4162 Y0.9861 Z-0.2139
N14970 X-1.4165 Y0.9862 Z-0.21
N14975 G0 Z0.2
N14980 G1 X-1.0888 Y1.3838 F300.
N14985 G0 Z-0.185
N14990 G1 Z-0.21 F24.
N14995 X-1.0886 Y1.3837 Z-0.2139
N15000 X-1.0877 Y1.3833 Z-0.2177
N15005 X-1.0863 Y1.3827 Z-0.2213
N15010 X-1.0845 Y1.3818 Z-0.2247
N15015 X-1.0822 Y1.3808 Z-0.2277
N15020 X-1.0794 Y1.3796 Z-0.2302
N15025 X-1.0764 Y1.3782 Z-0.2323
N15030 X-1.0731 Y1.3767 Z-0.2338
N15035 X-1.0696 Y1.3751 Z-0.2347
N15040 X-1.066 Y1.3735 Z-0.235
N15045 G3 X-1.0356 Y1.3682 I0.0256 J0.0568
N15050 G1 X-0.9945 Y1.3729
N15055 X-0.9698 Y1.3749
N15060 X-0.9616 Y1.375
N15065 X-0.8958
N15070 X-0.8697 Y1.3763
N15075 X-0.8487 Y1.3788
N15080 X-0.8211 Y1.3841
N15085 X-0.7861 Y1.3933
N15090 G3 X-0.6164 Y1.4558 I-0.8989 J2.6997
N15095 G2 X-0.2687 Y1.5539 I0.6836 J-1.759
N15100 X0.7555 Y1.3838 I0.2673 J-1.5593
N15105 G1 X0.7661 Y1.3789
N15110 X0.7775 Y1.376
N15115 X0.7892 Y1.375
N15120 X0.9558
N15125 G3 X0.9788 Y1.3926 I-0.0009 J0.025
N15130 G1 X0.98 Y1.3964 Z-0.2347
N15135 X0.9811 Y1.4 Z-0.2338
N15140 X0.9822 Y1.4035 Z-0.2323
N15145 X0.9832 Y1.4067 Z-0.2302
N15150 X0.984 Y1.4095 Z-0.2277
N15155 X0.9848 Y1.4119 Z-0.2247
N15160 X0.9854 Y1.4139 Z-0.2213
N15165 X0.9858 Y1.4153 Z-0.2177
N15170 X0.9861 Y1.4162 Z-0.2139
N15175 X0.9862 Y1.4165 Z-0.21
N15180 G0 Z0.2
N15185 G1 X1.3838 Y1.0888 F300.
N15190 G0 Z-0.185
N15195 G1 Z-0.21 F24.
N15200 X1.3837 Y1.0886 Z-0.2139
N15205 X1.3833 Y1.0877 Z-0.2177
N15210 X1.3827 Y1.0863 Z-0.2213
N15215 X1.3818 Y1.0845 Z-0.2247
N15220 X1.3808 Y1.0822 Z-0.2277
N15225 X1.3796 Y1.0794 Z-0.2302
N15230 X1.3782 Y1.0764 Z-0.2323
N15235 X1.3767 Y1.0731 Z-0.2338
N15240 X1.3751 Y1.0696 Z-0.2347
N15245 X1.3735 Y1.066 Z-0.235
N15250 G3 X1.3682 Y1.0356 I0.0568 J-0.0256
N15255 G1 X1.3729 Y0.9945
N15260 X1.3749 Y0.9698
N15265 X1.375 Y0.9616
N15270 Y0.8958
N15275 X1.3763 Y0.8697
N15280 X1.3788 Y0.8487
N15285 X1.3841 Y0.8211
N15290 X1.3933 Y0.7861
N15295 G3 X1.4558 Y0.6164 I2.6998 J0.8989
N15300 G2 X1.5539 Y0.2687 I-1.759 J-0.6836
N15305 X1.3838 Y-0.7555 I-1.5593 J-0.2673
N15310 G1 X1.3789 Y-0.7661
N15315 X1.376 Y-0.7775
N15320 X1.375 Y-0.7892
N15325 Y-0.9558
N15330 G3 X1.3926 Y-0.9788 I0.025 J0.0009
N15335 G1 X1.3964 Y-0.98 Z-0.2347
N15340 X1.4 Y-0.9811 Z-0.2338
N15345 X1.4035 Y-0.9822 Z-0.2323
N15350 X1.4067 Y-0.9832 Z-0.2302
N15355 X1.4095 Y-0.984 Z-0.2277
N15360 X1.4119 Y-0.9848 Z-0.2247
N15365 X1.4139 Y-0.9854 Z-0.2213
N15370 X1.4153 Y-0.9858 Z-0.2177
N15375 X1.4162 Y-0.9861 Z-0.2139
N15380 X1.4165 Y-0.9862 Z-0.21
N15385 G0 Z0.2
N15390 G1 X1.0888 Y-1.3838 F300.
N15395 G0 Z-0.185
N15400 G1 Z-0.21 F24.
N15405 X1.0886 Y-1.3837 Z-0.2139
N15410 X1.0877 Y-1.3833 Z-0.2177
N15415 X1.0863 Y-1.3827 Z-0.2213
N15420 X1.0845 Y-1.3818 Z-0.2247
N15425 X1.0822 Y-1.3808 Z-0.2277
N15430 X1.0794 Y-1.3796 Z-0.2302
N15435 X1.0764 Y-1.3782 Z-0.2323
N15440 X1.0731 Y-1.3767 Z-0.2338
N15445 X1.0696 Y-1.3751 Z-0.2347
N15450 X1.066 Y-1.3735 Z-0.235
N15455 G3 X1.0356 Y-1.3682 I-0.0256 J-0.0568
N15460 G1 X0.9945 Y-1.3729
N15465 X0.9698 Y-1.3749
N15470 X0.9616 Y-1.375
N15475 X0.8958
N15480 X0.8697 Y-1.3763
N15485 X0.8487 Y-1.3788
N15490 X0.8211 Y-1.3841
N15495 X0.7861 Y-1.3933
N15500 G3 X0.6164 Y-1.4558 I0.8989 J-2.6998
N15505 G2 X0.2687 Y-1.5539 I-0.6836 J1.759
N15510 X-0.7555 Y-1.3838 I-0.2673 J1.5593
N15515 G1 X-0.7661 Y-1.3789
N15520 X-0.7775 Y-1.376
N15525 X-0.7892 Y-1.375
N15530 X-0.9558
N15535 G3 X-0.9788 Y-1.3926 I0.0009 J-0.025
N15540 G1 X-0.98 Y-1.3964 Z-0.2347
N15545 X-0.9811 Y-1.4 Z-0.2338
N15550 X-0.9822 Y-1.4035 Z-0.2323
N15555 X-0.9832 Y-1.4067 Z-0.2302
N15560 X-0.984 Y-1.4095 Z-0.2277
N15565 X-0.9848 Y-1.4119 Z-0.2247
N15570 X-0.9854 Y-1.4139 Z-0.2213
N15575 X-0.9858 Y-1.4153 Z-0.2177
N15580 X-0.9861 Y-1.4162 Z-0.2139
N15585 X-0.9862 Y-1.4165 Z-0.21
N15590 G0 Z0.2
N15595 G1 X-1.3965 Y-0.947 F300.
N15600 G0 Z-0.185
N15605 G1 Z-0.21 F24.
N15610 X-1.3963 Y-0.9467 Z-0.2139
N15615 X-1.3959 Y-0.946 Z-0.2177
N15620 X-1.3951 Y-0.9447 Z-0.2213
N15625 X-1.394 Y-0.9429 Z-0.2247
N15630 X-1.3927 Y-0.9407 Z-0.2277
N15635 X-1.3912 Y-0.9381 Z-0.2302
N15640 X-1.3895 Y-0.9353 Z-0.2323
N15645 X-1.3877 Y-0.9322 Z-0.2338
N15650 X-1.3857 Y-0.9289 Z-0.2347
N15655 X-1.3837 Y-0.9255 Z-0.235
N15660 G3 X-1.375 Y-0.8958 I-0.0536 J0.0318
N15665 G1 Y-0.6986
N15670 X-1.3766 Y-0.6671
N15675 X-1.3806 Y-0.6339
N15680 X-1.3873 Y-0.5983
N15685 G3 X-1.433 Y-0.4233 I-4.6593 J-1.1235
N15690 G2 X-1.487 Y-0.1026 I1.7324 J0.4565
N15695 X-1.3769 Y0.5704 I1.5008 J0.0999
N15700 G1 X-1.3756 Y0.5793
N15705 X-1.375 Y0.5881
N15710 Y0.7892
N15715 G3 X-1.3926 Y0.8122 I-0.025 J-0.0009
N15720 G1 X-1.3964 Y0.8134 Z-0.2347
N15725 X-1.4 Y0.8145 Z-0.2338
N15730 X-1.4035 Y0.8156 Z-0.2323
N15735 X-1.4067 Y0.8165 Z-0.2302
N15740 X-1.4095 Y0.8174 Z-0.2277
N15745 X-1.4119 Y0.8182 Z-0.2247
N15750 X-1.4139 Y0.8188 Z-0.2213
N15755 X-1.4153 Y0.8192 Z-0.2177
N15760 X-1.4162 Y0.8195 Z-0.2139
N15765 X-1.4165 Y0.8196 Z-0.21
N15770 G0 Z0.2
N15775 G1 X-0.947 Y1.3965 F300.
N15780 G0 Z-0.185
N15785 G1 Z-0.21 F24.
N15790 X-0.9467 Y1.3963 Z-0.2139
N15795 X-0.946 Y1.3959 Z-0.2177
N15800 X-0.9447 Y1.3951 Z-0.2213
N15805 X-0.9429 Y1.394 Z-0.2247
N15810 X-0.9407 Y1.3927 Z-0.2277
N15815 X-0.9381 Y1.3912 Z-0.2302
N15820 X-0.9353 Y1.3895 Z-0.2323
N15825 X-0.9322 Y1.3877 Z-0.2338
N15830 X-0.9289 Y1.3857 Z-0.2347
N15835 X-0.9255 Y1.3837 Z-0.235
N15840 G3 X-0.8958 Y1.375 I0.0318 J0.0536
N15845 G1 X-0.6986
N15850 X-0.6671 Y1.3766
N15855 X-0.6339 Y1.3806
N15860 X-0.5983 Y1.3873
N15865 G3 X-0.4233 Y1.433 I-1.1235 J4.6593
N15870 G2 X-0.1026 Y1.487 I0.4565 J-1.7324
N15875 X0.5704 Y1.3769 I0.0999 J-1.5008
N15880 G1 X0.5793 Y1.3756
N15885 X0.5881 Y1.375
N15890 X0.7892
N15895 G3 X0.8122 Y1.3926 I-0.0009 J0.025
N15900 G1 X0.8134 Y1.3964 Z-0.2347
N15905 X0.8145 Y1.4 Z-0.2338
N15910 X0.8156 Y1.4035 Z-0.2323
N15915 X0.8165 Y1.4067 Z-0.2302
N15920 X0.8174 Y1.4095 Z-0.2277
N15925 X0.8182 Y1.4119 Z-0.2247
N15930 X0.8188 Y1.4139 Z-0.2213
N15935 X0.8192 Y1.4153 Z-0.2177
N15940 X0.8195 Y1.4162 Z-0.2139
N15945 X0.8196 Y1.4165 Z-0.21
N15950 G0 Z0.2
N15955 G1 X1.3965 Y0.947 F300.
N15960 G0 Z-0.185
N15965 G1 Z-0.21 F24.
N15970 X1.3963 Y0.9467 Z-0.2139
N15975 X1.3959 Y0.946 Z-0.2177
N15980 X1.3951 Y0.9447 Z-0.2213
N15985 X1.394 Y0.9429 Z-0.2247
N15990 X1.3927 Y0.9407 Z-0.2277
N15995 X1.3912 Y0.9381 Z-0.2302
N16000 X1.3895 Y0.9353 Z-0.2323
N16005 X1.3877 Y0.9322 Z-0.2338
N16010 X1.3857 Y0.9289 Z-0.2347
N16015 X1.3837 Y0.9255 Z-0.235
N16020 G3 X1.375 Y0.8958 I0.0536 J-0.0318
N16025 G1 Y0.6986
N16030 X1.3766 Y0.6671
N16035 X1.3806 Y0.6339
N16040 X1.3873 Y0.5983
N16045 G3 X1.433 Y0.4233 I4.6593 J1.1235
N16050 G2 X1.487 Y0.1026 I-1.7324 J-0.4565
N16055 X1.3769 Y-0.5704 I-1.5008 J-0.0999
N16060 G1 X1.3756 Y-0.5793
N16065 X1.375 Y-0.5881
N16070 Y-0.7892
N16075 G3 X1.3926 Y-0.8122 I0.025 J0.0009
N16080 G1 X1.3964 Y-0.8134 Z-0.2347
N16085 X1.4 Y-0.8145 Z-0.2338
N16090 X1.4035 Y-0.8156 Z-0.2323
N16095 X1.4067 Y-0.8165 Z-0.2302
N16100 X1.4095 Y-0.8174 Z-0.2277
N16105 X1.4119 Y-0.8182 Z-0.2247
N16110 X1.4139 Y-0.8188 Z-0.2213
N16115 X1.4153 Y-0.8192 Z-0.2177
N16120 X1.4162 Y-0.8195 Z-0.2139
N16125 X1.4165 Y-0.8196 Z-0.21
N16130 G0 Z0.2
N16135 G1 X0.947 Y-1.3965 F300.
N16140 G0 Z-0.185
N16145 G1 Z-0.21 F24.
N16150 X0.9467 Y-1.3963 Z-0.2139
N16155 X0.946 Y-1.3959 Z-0.2177
N16160 X0.9447 Y-1.3951 Z-0.2213
N16165 X0.9429 Y-1.394 Z-0.2247
N16170 X0.9407 Y-1.3927 Z-0.2277
N16175 X0.9381 Y-1.3912 Z-0.2302
N16180 X0.9353 Y-1.3895 Z-0.2323
N16185 X0.9322 Y-1.3877 Z-0.2338
N16190 X0.9289 Y-1.3857 Z-0.2347
N16195 X0.9255 Y-1.3837 Z-0.235
N16200 G3 X0.8958 Y-1.375 I-0.0318 J-0.0536
N16205 G1 X0.6986
N16210 X0.6671 Y-1.3766
N16215 X0.6339 Y-1.3806
N16220 X0.5983 Y-1.3873
N16225 G3 X0.4233 Y-1.433 I1.1235 J-4.6593
N16230 G2 X0.1026 Y-1.487 I-0.4565 J1.7324
N16235 X-0.5704 Y-1.3769 I-0.0999 J1.5008
N16240 G1 X-0.5793 Y-1.3756
N16245 X-0.5881 Y-1.375
N16250 X-0.7892
N16255 G3 X-0.8122 Y-1.3926 I0.0009 J-0.025
N16260 G1 X-0.8134 Y-1.3964 Z-0.2347
N16265 X-0.8145 Y-1.4 Z-0.2338
N16270 X-0.8156 Y-1.4035 Z-0.2323
N16275 X-0.8165 Y-1.4067 Z-0.2302
N16280 X-0.8174 Y-1.4095 Z-0.2277
N16285 X-0.8182 Y-1.4119 Z-0.2247
N16290 X-0.8188 Y-1.4139 Z-0.2213
N16295 X-0.8192 Y-1.4153 Z-0.2177
N16300 X-0.8195 Y-1.4162 Z-0.2139
N16305 X-0.8196 Y-1.4165 Z-0.21
N16310 G0 Z0.2
N16315 G1 X-1.3965 Y-0.7498 F300.
N16320 G0 Z-0.185
N16325 G1 Z-0.21 F24.
N16330 X-1.3963 Y-0.7495 Z-0.2139
N16335 X-1.3959 Y-0.7487 Z-0.2177
N16340 X-1.3951 Y-0.7474 Z-0.2213
N16345 X-1.394 Y-0.7457 Z-0.2247
N16350 X-1.3927 Y-0.7435 Z-0.2277
N16355 X-1.3912 Y-0.7409 Z-0.2302
N16360 X-1.3895 Y-0.738 Z-0.2323
N16365 X-1.3877 Y-0.7349 Z-0.2338
N16370 X-1.3857 Y-0.7316 Z-0.2347
N16375 X-1.3837 Y-0.7283 Z-0.235
N16380 G3 X-1.375 Y-0.6986 I-0.0536 J0.0318
N16385 G1 Y-0.4849
N16390 G3 X-1.3932 Y-0.3617 I-0.464 J-0.0054
N16395 G1 X-1.4102 Y-0.2877
N16400 X-1.412 Y-0.2794
N16405 X-1.417 Y-0.2548
N16410 X-1.4319 Y-0.1479
N16415 X-1.4343 Y-0.1233
N16420 X-1.4348 Y-0.1151
N16425 X-1.4394 Y-0.0164
N16430 X-1.4395 Y-0.0082
N16435 Y0.0082
N16440 X-1.4394 Y0.0164
N16445 X-1.4348 Y0.1151
N16450 X-1.4343 Y0.1233
N16455 X-1.4319 Y0.1479
N16460 X-1.417 Y0.2548
N16465 X-1.412 Y0.2794
N16470 G3 X-1.3801 Y0.4191 I-4.9406 J1.2026
N16475 X-1.375 Y0.4931 I-0.4797 J0.0706
N16480 G1 Y0.5881
N16485 G3 X-1.3926 Y0.6111 I-0.025 J-0.0009
N16490 G1 X-1.3964 Y0.6122 Z-0.2347
N16495 X-1.4 Y0.6134 Z-0.2338
N16500 X-1.4035 Y0.6144 Z-0.2323
N16505 X-1.4067 Y0.6154 Z-0.2302
N16510 X-1.4095 Y0.6163 Z-0.2277
N16515 X-1.4119 Y0.617 Z-0.2247
N16520 X-1.4139 Y0.6176 Z-0.2213
N16525 X-1.4153 Y0.6181 Z-0.2177
N16530 X-1.4162 Y0.6184 Z-0.2139
N16535 X-1.4165 Z-0.21
N16540 G0 Z0.2
N16545 G1 X-0.7498 Y1.3965 F300.
N16550 G0 Z-0.185
N16555 G1 Z-0.21 F24.
N16560 X-0.7495 Y1.3963 Z-0.2139
N16565 X-0.7487 Y1.3959 Z-0.2177
N16570 X-0.7474 Y1.3951 Z-0.2213
N16575 X-0.7457 Y1.394 Z-0.2247
N16580 X-0.7435 Y1.3927 Z-0.2277
N16585 X-0.7409 Y1.3912 Z-0.2302
N16590 X-0.738 Y1.3895 Z-0.2323
N16595 X-0.7349 Y1.3877 Z-0.2338
N16600 X-0.7316 Y1.3857 Z-0.2347
N16605 X-0.7283 Y1.3837 Z-0.235
N16610 G3 X-0.6986 Y1.375 I0.0318 J0.0536
N16615 G1 X-0.4849
N16620 G3 X-0.3617 Y1.3932 I-0.0054 J0.464
N16625 G1 X-0.2877 Y1.4102
N16630 X-0.2794 Y1.412
N16635 X-0.2548 Y1.417
N16640 X-0.1479 Y1.4319
N16645 X-0.1233 Y1.4343
N16650 X-0.1151 Y1.4348
N16655 X-0.0164 Y1.4394
N16660 X-0.0082 Y1.4395
N16665 X0.0082
N16670 X0.0164 Y1.4394
N16675 X0.1151 Y1.4348
N16680 X0.1233 Y1.4343
N16685 X0.1479 Y1.4319
N16690 X0.2548 Y1.417
N16695 X0.2794 Y1.412
N16700 G3 X0.4191 Y1.3801 I1.2026 J4.9405
N16705 X0.4931 Y1.375 I0.0706 J0.4797
N16710 G1 X0.5881
N16715 G3 X0.6111 Y1.3926 I-0.0009 J0.025
N16720 G1 X0.6122 Y1.3964 Z-0.2347
N16725 X0.6134 Y1.4 Z-0.2338
N16730 X0.6144 Y1.4035 Z-0.2323
N16735 X0.6154 Y1.4067 Z-0.2302
N16740 X0.6163 Y1.4095 Z-0.2277
N16745 X0.617 Y1.4119 Z-0.2247
N16750 X0.6176 Y1.4139 Z-0.2213
N16755 X0.6181 Y1.4153 Z-0.2177
N16760 X0.6184 Y1.4162 Z-0.2139
N16765 Y1.4165 Z-0.21
N16770 G0 Z0.2
N16775 G1 X1.3965 Y0.7498 F300.
N16780 G0 Z-0.185
N16785 G1 Z-0.21 F24.
N16790 X1.3963 Y0.7495 Z-0.2139
N16795 X1.3959 Y0.7487 Z-0.2177
N16800 X1.3951 Y0.7474 Z-0.2213
N16805 X1.394 Y0.7457 Z-0.2247
N16810 X1.3927 Y0.7435 Z-0.2277
N16815 X1.3912 Y0.7409 Z-0.2302
N16820 X1.3895 Y0.738 Z-0.2323
N16825 X1.3877 Y0.7349 Z-0.2338
N16830 X1.3857 Y0.7316 Z-0.2347
N16835 X1.3837 Y0.7283 Z-0.235
N16840 G3 X1.375 Y0.6986 I0.0536 J-0.0318
N16845 G1 Y0.4849
N16850 G3 X1.3932 Y0.3617 I0.464 J0.0054
N16855 G1 X1.4102 Y0.2877
N16860 X1.412 Y0.2794
N16865 X1.417 Y0.2548
N16870 X1.4319 Y0.1479
N16875 X1.4343 Y0.1233
N16880 X1.4348 Y0.1151
N16885 X1.4394 Y0.0164
N16890 X1.4395 Y0.0082
N16895 Y-0.0082
N16900 X1.4394 Y-0.0164
N16905 X1.4348 Y-0.1151
N16910 X1.4343 Y-0.1233
N16915 X1.4319 Y-0.1479
N16920 X1.417 Y-0.2548
N16925 X1.412 Y-0.2794
N16930 G3 X1.3801 Y-0.4191 I4.9406 J-1.2026
N16935 X1.375 Y-0.4931 I0.4797 J-0.0706
N16940 G1 Y-0.5881
N16945 G3 X1.3926 Y-0.6111 I0.025 J0.0009
N16950 G1 X1.3964 Y-0.6122 Z-0.2347
N16955 X1.4 Y-0.6134 Z-0.2338
N16960 X1.4035 Y-0.6144 Z-0.2323
N16965 X1.4067 Y-0.6154 Z-0.2302
N16970 X1.4095 Y-0.6163 Z-0.2277
N16975 X1.4119 Y-0.617 Z-0.2247
N16980 X1.4139 Y-0.6176 Z-0.2213
N16985 X1.4153 Y-0.6181 Z-0.2177
N16990 X1.4162 Y-0.6184 Z-0.2139
N16995 X1.4165 Z-0.21
N17000 G0 Z0.2
N17005 G1 X0.7498 Y-1.3965 F300.
N17010 G0 Z-0.185
N17015 G1 Z-0.21 F24.
N17020 X0.7495 Y-1.3963 Z-0.2139
N17025 X0.7487 Y-1.3959 Z-0.2177
N17030 X0.7474 Y-1.3951 Z-0.2213
N17035 X0.7457 Y-1.394 Z-0.2247
N17040 X0.7435 Y-1.3927 Z-0.2277
N17045 X0.7409 Y-1.3912 Z-0.2302
N17050 X0.738 Y-1.3895 Z-0.2323
N17055 X0.7349 Y-1.3877 Z-0.2338
N17060 X0.7316 Y-1.3857 Z-0.2347
N17065 X0.7283 Y-1.3837 Z-0.235
N17070 G3 X0.6986 Y-1.375 I-0.0318 J-0.0536
N17075 G1 X0.4849
N17080 G3 X0.3617 Y-1.3932 I0.0054 J-0.464
N17085 G1 X0.2877 Y-1.4102
N17090 X0.2794 Y-1.412
N17095 X0.2548 Y-1.417
N17100 X0.1479 Y-1.4319
N17105 X0.1233 Y-1.4343
N17110 X0.1151 Y-1.4348
N17115 X0.0164 Y-1.4394
N17120 X0.0082 Y-1.4395
N17125 X-0.0082
N17130 X-0.0164 Y-1.4394
N17135 X-0.1151 Y-1.4348
N17140 X-0.1233 Y-1.4343
N17145 X-0.1479 Y-1.4319
N17150 X-0.2548 Y-1.417
N17155 X-0.2794 Y-1.412
N17160 G3 X-0.4191 Y-1.3801 I-1.2026 J-4.9405
N17165 X-0.4931 Y-1.375 I-0.0706 J-0.4797
N17170 G1 X-0.5881
N17175 X-0.591 Y-1.3753
N17180 X-0.5939 Y-1.3759
N17185 X-0.5966 Y-1.3772 Z-0.2348
N17190 X-0.5993 Y-1.3785 Z-0.2343
N17195 X-0.6018 Y-1.3797 Z-0.2334
N17200 X-0.604 Y-1.382 Z-0.2319
N17205 X-0.6061 Y-1.3841 Z-0.23
N17210 X-0.6079 Y-1.386 Z-0.2277
N17215 X-0.609 Y-1.3883 Z-0.2247
N17220 X-0.6099 Y-1.3902 Z-0.2214
N17225 X-0.6106 Y-1.3915 Z-0.2177
N17230 X-0.611 Y-1.3923 Z-0.2139
N17235 X-0.6111 Y-1.3926 Z-0.21
N17240 G0 Z0.2
N17245 G1 X-1.314 Y-1.2799 F300.
N17250 G0 Z-0.22
N17255 G1 Z-0.245 F24.
N17260 Y-1.2796 Z-0.2489
N17265 X-1.3141 Y-1.2787 Z-0.2527
N17270 X-1.3142 Y-1.2772 Z-0.2563
N17275 X-1.3144 Y-1.2751 Z-0.2597
N17280 X-1.3147 Y-1.2726 Z-0.2627
N17285 X-1.315 Y-1.2696 Z-0.2652
N17290 X-1.3153 Y-1.2663 Z-0.2673
