%
O01012
(Using high feed G1 F300. instead of G0.)
(T2 D=0.1875 CR=0. TAPER=118deg - ZMIN=-0.1245 - center drill)
(T4 D=0.201 CR=0. TAPER=118deg - ZMIN=-0.4749 - drill)
(T9 D=0.25 CR=0. - ZMIN=-0.375 - flat end mill)
N10 G90 G94 G17
N15 G20
N20 G53 G0 Z0.

(Face2)
N25 T9 M6
N30 S4000 M3
N35 G17 G90 G94
N40 G54
N45 M8
N50 G1 X0.6601 Y-1.6678 F300.
N55 G0 G43 Z0.6 H9
N60 G0 Z0.2
N65 G1 Z0.01 F3.
N70 G18 G3 X0.6351 Z-0.015 I-0.025 K0. F20.4
N75 G1 X-0.6351
N80 X-0.8355
N85 G17 G2 Y-1.5864 I0. J0.0407
N90 G1 X0.8355
N95 X0.9832
N100 G3 Y-1.5051 I0. J0.0407
N105 G1 X-0.9832
N110 X-1.102
N115 G2 Y-1.4237 I0. J0.0407
N120 G1 X1.102
N125 X1.2015
N130 G3 Y-1.3423 I0. J0.0407
N135 G1 X-1.2015
N140 X-1.2872
N145 G2 Y-1.261 I0. J0.0407
N150 G1 X1.2872
N155 X1.3616
N160 G3 Y-1.1796 I0. J0.0407
N165 G1 X-1.3616
N170 X-1.4266
N175 G2 Y-1.0983 I0. J0.0407
N180 G1 X1.4266
N185 X1.4837
N190 G3 Y-1.0169 I0. J0.0407
N195 G1 X-1.4837
N200 X-1.5338
N205 G2 Y-0.9355 I0. J0.0407
N210 G1 X1.5338
N215 X1.5775
N220 G3 Y-0.8542 I0. J0.0407
N225 G1 X-1.5775
N230 X-1.6155
N235 G2 Y-0.7728 I0. J0.0407
N240 G1 X1.6155
N245 X1.6483
N250 G3 Y-0.6914 I0. J0.0407
N255 G1 X-1.6483
N260 X-1.6762
N265 G2 Y-0.6101 I0. J0.0407
N270 G1 X1.6762
N275 X1.6994
N280 G3 Y-0.5287 I0. J0.0407
N285 G1 X-1.6994
N290 X-1.7179
N295 G2 Y-0.4473 I0. J0.0407
N300 G1 X1.7179
N305 X1.7323
N310 G3 Y-0.366 I0. J0.0407
N315 G1 X-1.7323
N320 X-1.7424
N325 G2 Y-0.2846 I0. J0.0407
N330 G1 X1.7424
N335 X1.7483
N340 G3 Y-0.2032 I0. J0.0407
N345 G1 X-1.7483
N350 X-1.7504
N355 G2 Y-0.1219 I0. J0.0407
N360 G1 X1.7504
N365 G3 Y-0.0405 I0. J0.0407
N370 G1 X-1.7504
N375 G2 Y0.0409 I0. J0.0407
N380 G1 X1.7504
N385 G3 Y0.1222 I0. J0.0407
N390 G1 X-1.7504
N395 G2 Y0.2036 I0. J0.0407
N400 G1 X-1.7483
N405 X1.7483
N410 G3 Y0.2849 I0. J0.0407
N415 G1 X1.7424
N420 X-1.7424
N425 G2 Y0.3663 I0. J0.0407
N430 G1 X-1.7323
N435 X1.7323
N440 G3 Y0.4477 I0. J0.0407
N445 G1 X1.7178
N450 X-1.7178
N455 G2 Y0.529 I0. J0.0407
N460 G1 X-1.6993
N465 X1.6993
N470 G3 Y0.6104 I0. J0.0407
N475 G1 X1.6761
N480 X-1.6761
N485 G2 Y0.6918 I0. J0.0407
N490 G1 X-1.6482
N495 X1.6482
N500 G3 Y0.7731 I0. J0.0407
N505 G1 X1.6154
N510 X-1.6154
N515 G2 Y0.8545 I0. J0.0407
N520 G1 X-1.5774
N525 X1.5774
N530 G3 Y0.9359 I0. J0.0407
N535 G1 X1.5336
N540 X-1.5336
N545 G2 Y1.0172 I0. J0.0407
N550 G1 X-1.4834
N555 X1.4834
N560 G3 Y1.0986 I0. J0.0407
N565 G1 X1.4263
N570 X-1.4263
N575 G2 Y1.18 I0. J0.0407
N580 G1 X-1.3613
N585 X1.3613
N590 G3 Y1.2613 I0. J0.0407
N595 G1 X1.2869
N600 X-1.2869
N605 G2 Y1.3427 I0. J0.0407
N610 G1 X-1.2011
N615 X1.2011
N620 G3 Y1.4241 I0. J0.0407
N625 G1 X1.1016
N630 X-1.1016
N635 G2 Y1.5054 I0. J0.0407
N640 G1 X-0.9827
N645 X0.9827
N650 G18 G2 X1.0077 Z0.01 I0. K0.025
N655 G0 Z0.2
N660 G1 X0.6601 Y1.6678 F300.
N665 Z-0.02 F3.
N670 G3 X0.6351 Z-0.045 I-0.025 K0. F20.4
N675 G1 X-0.6351
N680 X-0.8355
N685 G17 G3 Y1.5864 I0. J-0.0407
N690 G1 X0.8355
N695 X0.9832
N700 G2 Y1.5051 I0. J-0.0407
N705 G1 X-0.9832
N710 X-1.102
N715 G3 Y1.4237 I0. J-0.0407
N720 G1 X1.102
N725 X1.2015
N730 G2 Y1.3423 I0. J-0.0407
N735 G1 X-1.2015
N740 X-1.2872
N745 G3 Y1.261 I0. J-0.0407
N750 G1 X1.2872
N755 X1.3616
N760 G2 Y1.1796 I0. J-0.0407
N765 G1 X-1.3616
N770 X-1.4266
N775 G3 Y1.0983 I0. J-0.0407
N780 G1 X1.4266
N785 X1.4837
N790 G2 Y1.0169 I0. J-0.0407
N795 G1 X-1.4837
N800 X-1.5338
N805 G3 Y0.9355 I0. J-0.0407
N810 G1 X1.5338
N815 X1.5775
N820 G2 Y0.8542 I0. J-0.0407
N825 G1 X-1.5775
N830 X-1.6155
N835 G3 Y0.7728 I0. J-0.0407
N840 G1 X1.6155
N845 X1.6483
N850 G2 Y0.6914 I0. J-0.0407
N855 G1 X-1.6483
N860 X-1.6762
N865 G3 Y0.6101 I0. J-0.0407
N870 G1 X1.6762
N875 X1.6994
N880 G2 Y0.5287 I0. J-0.0407
N885 G1 X-1.6994
N890 X-1.7179
N895 G3 Y0.4473 I0. J-0.0407
N900 G1 X1.7179
N905 X1.7323
N910 G2 Y0.366 I0. J-0.0407
N915 G1 X-1.7323
N920 X-1.7424
N925 G3 Y0.2846 I0. J-0.0407
N930 G1 X1.7424
N935 X1.7483
N940 G2 Y0.2032 I0. J-0.0407
N945 G1 X-1.7483
N950 X-1.7504
N955 G3 Y0.1219 I0. J-0.0407
N960 G1 X1.7504
N965 G2 Y0.0405 I0. J-0.0407
N970 G1 X-1.7504
N975 G3 Y-0.0409 I0. J-0.0407
N980 G1 X1.7504
N985 G2 Y-0.1222 I0. J-0.0407
N990 G1 X-1.7504
N995 G3 Y-0.2036 I0. J-0.0407
N1000 G1 X-1.7483
N1005 X1.7483
N1010 G2 Y-0.2849 I0. J-0.0407
N1015 G1 X1.7424
N1020 X-1.7424
N1025 G3 Y-0.3663 I0. J-0.0407
N1030 G1 X-1.7323
N1035 X1.7323
N1040 G2 Y-0.4477 I0. J-0.0407
N1045 G1 X1.7178
N1050 X-1.7178
N1055 G3 Y-0.529 I0. J-0.0407
N1060 G1 X-1.6993
N1065 X1.6993
N1070 G2 Y-0.6104 I0. J-0.0407
N1075 G1 X1.6761
N1080 X-1.6761
N1085 G3 Y-0.6918 I0. J-0.0407
N1090 G1 X-1.6482
N1095 X1.6482
N1100 G2 Y-0.7731 I0. J-0.0407
N1105 G1 X1.6154
N1110 X-1.6154
N1115 G3 Y-0.8545 I0. J-0.0407
N1120 G1 X-1.5774
N1125 X1.5774
N1130 G2 Y-0.9359 I0. J-0.0407
N1135 G1 X1.5336
N1140 X-1.5336
N1145 G3 Y-1.0172 I0. J-0.0407
N1150 G1 X-1.4834
N1155 X1.4834
N1160 G2 Y-1.0986 I0. J-0.0407
N1165 G1 X1.4263
N1170 X-1.4263
N1175 G3 Y-1.18 I0. J-0.0407
N1180 G1 X-1.3613
N1185 X1.3613
N1190 G2 Y-1.2613 I0. J-0.0407
N1195 G1 X1.2869
N1200 X-1.2869
N1205 G3 Y-1.3427 I0. J-0.0407
N1210 G1 X-1.2011
N1215 X1.2011
N1220 G2 Y-1.4241 I0. J-0.0407
N1225 G1 X1.1016
N1230 X-1.1016
N1235 G3 Y-1.5054 I0. J-0.0407
N1240 G1 X-0.9827
N1245 X0.9827
N1250 G18 G2 X1.0077 Z-0.02 I0. K0.025
N1255 G0 Z0.2
N1260 G1 X0.6601 Y-1.6678 F300.
N1265 Z-0.05 F3.
N1270 G3 X0.6351 Z-0.075 I-0.025 K0. F20.4
N1275 G1 X-0.6351
N1280 X-0.8355
N1285 G17 G2 Y-1.5864 I0. J0.0407
N1290 G1 X0.8355
N1295 X0.9832
N1300 G3 Y-1.5051 I0. J0.0407
N1305 G1 X-0.9832
N1310 X-1.102
N1315 G2 Y-1.4237 I0. J0.0407
N1320 G1 X1.102
N1325 X1.2015
N1330 G3 Y-1.3423 I0. J0.0407
N1335 G1 X-1.2015
N1340 X-1.2872
N1345 G2 Y-1.261 I0. J0.0407
N1350 G1 X1.2872
N1355 X1.3616
N1360 G3 Y-1.1796 I0. J0.0407
N1365 G1 X-1.3616
N1370 X-1.4266
N1375 G2 Y-1.0983 I0. J0.0407
N1380 G1 X1.4266
N1385 X1.4837
N1390 G3 Y-1.0169 I0. J0.0407
N1395 G1 X-1.4837
N1400 X-1.5338
N1405 G2 Y-0.9355 I0. J0.0407
N1410 G1 X1.5338
N1415 X1.5775
N1420 G3 Y-0.8542 I0. J0.0407
N1425 G1 X-1.5775
N1430 X-1.6155
N1435 G2 Y-0.7728 I0. J0.0407
N1440 G1 X1.6155
N1445 X1.6483
N1450 G3 Y-0.6914 I0. J0.0407
N1455 G1 X-1.6483
N1460 X-1.6762
N1465 G2 Y-0.6101 I0. J0.0407
N1470 G1 X1.6762
N1475 X1.6994
N1480 G3 Y-0.5287 I0. J0.0407
N1485 G1 X-1.6994
N1490 X-1.7179
N1495 G2 Y-0.4473 I0. J0.0407
N1500 G1 X1.7179
N1505 X1.7323
N1510 G3 Y-0.366 I0. J0.0407
N1515 G1 X-1.7323
N1520 X-1.7424
N1525 G2 Y-0.2846 I0. J0.0407
N1530 G1 X1.7424
N1535 X1.7483
N1540 G3 Y-0.2032 I0. J0.0407
N1545 G1 X-1.7483
N1550 X-1.7504
N1555 G2 Y-0.1219 I0. J0.0407
N1560 G1 X1.7504
N1565 G3 Y-0.0405 I0. J0.0407
N1570 G1 X-1.7504
N1575 G2 Y0.0409 I0. J0.0407
N1580 G1 X1.7504
N1585 G3 Y0.1222 I0. J0.0407
N1590 G1 X-1.7504
N1595 G2 Y0.2036 I0. J0.0407
N1600 G1 X-1.7483
N1605 X1.7483
N1610 G3 Y0.2849 I0. J0.0407
N1615 G1 X1.7424
N1620 X-1.7424
N1625 G2 Y0.3663 I0. J0.0407
N1630 G1 X-1.7323
N1635 X1.7323
N1640 G3 Y0.4477 I0. J0.0407
N1645 G1 X1.7178
N1650 X-1.7178
N1655 G2 Y0.529 I0. J0.0407
N1660 G1 X-1.6993
N1665 X1.6993
N1670 G3 Y0.6104 I0. J0.0407
N1675 G1 X1.6761
N1680 X-1.6761
N1685 G2 Y0.6918 I0. J0.0407
N1690 G1 X-1.6482
N1695 X1.6482
N1700 G3 Y0.7731 I0. J0.0407
N1705 G1 X1.6154
N1710 X-1.6154
N1715 G2 Y0.8545 I0. J0.0407
N1720 G1 X-1.5774
N1725 X1.5774
N1730 G3 Y0.9359 I0. J0.0407
N1735 G1 X1.5336
N1740 X-1.5336
N1745 G2 Y1.0172 I0. J0.0407
N1750 G1 X-1.4834
N1755 X1.4834
N1760 G3 Y1.0986 I0. J0.0407
N1765 G1 X1.4263
N1770 X-1.4263
N1775 G2 Y1.18 I0. J0.0407
N1780 G1 X-1.3613
N1785 X1.3613
N1790 G3 Y1.2613 I0. J0.0407
N1795 G1 X1.2869
N1800 X-1.2869
N1805 G2 Y1.3427 I0. J0.0407
N1810 G1 X-1.2011
N1815 X1.2011
N1820 G3 Y1.4241 I0. J0.0407
N1825 G1 X1.1016
N1830 X-1.1016
N1835 G2 Y1.5054 I0. J0.0407
N1840 G1 X-0.9827
N1845 X0.9827
N1850 G18 G2 X1.0077 Z-0.05 I0. K0.025
N1855 G0 Z0.6

(Face2 1)
N1860 G17
N1865 G1 X-1.314 Y-1.2799 F300.
N1870 G0 Z0.6
N1875 Z-0.06
N1880 G1 Z-0.085 F20.4
N1885 Y-1.2796 Z-0.0889
N1890 X-1.3141 Y-1.2787 Z-0.0927
N1895 X-1.3142 Y-1.2772 Z-0.0963
N1900 X-1.3144 Y-1.2751 Z-0.0997
N1905 X-1.3147 Y-1.2726 Z-0.1027
N1910 X-1.315 Y-1.2696 Z-0.1052
N1915 X-1.3153 Y-1.2663 Z-0.1073
N1920 X-1.3156 Y-1.2627 Z-0.1088
N1925 X-1.316 Y-1.2589 Z-0.1097
N1930 X-1.3164 Y-1.255 Z-0.11
N1935 G3 X-1.3442 Y-1.1203 I-0.6353 J-0.0612
N1940 G2 X-1.3645 Y-1.0602 I0.6947 J0.2686
N1945 G1 X-1.3661 Y-1.052
N1950 X-1.3673 Y-1.0438
N1955 X-1.3682 Y-1.0356
N1960 X-1.3715 Y-1.016
N1965 X-1.3768 Y-0.9933
N1970 X-1.3861 Y-0.9635
N1975 X-1.3992 Y-0.9298
N1980 X-1.4142 Y-0.8968
N1985 G2 X-1.5238 Y-0.6686 I4.5792 J2.3402
N1990 X-1.5864 Y-0.4989 I1.8758 J0.7882
N1995 X-1.4228 Y0.8606 I1.589 J0.4983
N2000 G1 X-1.4037 Y0.8913
N2005 X-1.3865 Y0.9175
N2010 X-1.3802 Y0.9294
N2015 X-1.3763 Y0.9424
N2020 X-1.375 Y0.9558
N2025 Y0.9616
N2030 X-1.3749 Y0.9698
N2035 G2 X-1.3646 Y1.0602 I0.901 J-0.0563
N2040 G1 X-1.3622 Y1.0684
N2045 X-1.3595 Y1.0767
N2050 X-1.3538 Y1.0931
N2055 G3 X-1.3524 Y1.1032 Z-0.1079 I-0.0236 J0.0083
N2060 G2 X-1.3507 Y1.1145 Z-0.1056 I0.0249 J0.0019
N2065 G1 X-1.3475 Y1.1224 Z-0.1038
N2070 X-1.3442 Y1.1307 Z-0.102
N2075 X-1.2758 Y1.3008
N2080 G2 X-1.255 Y1.3164 I0.0232 J-0.0093
N2085 G3 X-1.158 Y1.3333 I-0.0612 J0.6353
N2090 G1 X-1.1494 Y1.3356 Z-0.1038
N2095 G3 X-1.1203 Y1.3442 Z-0.11 I-0.1668 J0.6161
N2100 G2 X-1.0602 Y1.3645 I0.2686 J-0.6947
N2105 G1 X-1.052 Y1.3661
N2110 X-1.0438 Y1.3673
N2115 X-1.0356 Y1.3682
N2120 X-1.016 Y1.3715
N2125 X-0.9933 Y1.3768
N2130 X-0.9635 Y1.3861
N2135 X-0.9298 Y1.3992
N2140 X-0.8968 Y1.4142
N2145 G2 X-0.6686 Y1.5238 I2.3402 J-4.5792
N2150 X-0.4989 Y1.5864 I0.7882 J-1.8758
N2155 X0.8606 Y1.4228 I0.4983 J-1.589
N2160 G1 X0.8913 Y1.4037
N2165 X0.9175 Y1.3865
N2170 X0.9294 Y1.3802
N2175 X0.9424 Y1.3763
N2180 X0.9558 Y1.375
N2185 X0.9616
N2190 X0.9698 Y1.3749
N2195 G2 X1.0602 Y1.3646 I-0.0563 J-0.901
N2200 G1 X1.0684 Y1.3622
N2205 X1.0767 Y1.3595
N2210 X1.0931 Y1.3538
N2215 G3 X1.1032 Y1.3524 Z-0.1079 I0.0083 J0.0236
N2220 G2 X1.1145 Y1.3507 Z-0.1056 I0.0019 J-0.0249
N2225 G1 X1.1224 Y1.3475 Z-0.1038
N2230 X1.1307 Y1.3442 Z-0.102
N2235 X1.3008 Y1.2758
N2240 G2 X1.3164 Y1.255 I-0.0093 J-0.0232
N2245 G3 X1.3333 Y1.158 I0.6353 J0.0612
N2250 G1 X1.3356 Y1.1494 Z-0.1038
N2255 G3 X1.3442 Y1.1203 Z-0.11 I0.6161 J0.1668
N2260 G2 X1.3645 Y1.0602 I-0.6947 J-0.2686
N2265 G1 X1.3661 Y1.052
N2270 X1.3673 Y1.0438
N2275 X1.3682 Y1.0356
N2280 X1.3715 Y1.016
N2285 X1.3768 Y0.9933
N2290 X1.3861 Y0.9635
N2295 X1.3992 Y0.9298
N2300 X1.4142 Y0.8968
N2305 G2 X1.5238 Y0.6686 I-4.5791 J-2.3401
N2310 X1.5864 Y0.4989 I-1.8759 J-0.7882
N2315 X1.4228 Y-0.8606 I-1.589 J-0.4983
N2320 G1 X1.4037 Y-0.8914
N2325 X1.3865 Y-0.9175
N2330 X1.3802 Y-0.9294
N2335 X1.3763 Y-0.9424
N2340 X1.375 Y-0.9558
N2345 Y-0.9616
N2350 X1.3749 Y-0.9698
N2355 G2 X1.3646 Y-1.0602 I-0.9014 J0.0563
N2360 G1 X1.3622 Y-1.0684
N2365 X1.3595 Y-1.0767
N2370 X1.3538 Y-1.0931
N2375 G3 X1.3524 Y-1.1032 Z-0.1079 I0.0236 J-0.0083
N2380 G2 X1.3507 Y-1.1145 Z-0.1056 I-0.0249 J-0.0019
N2385 G1 X1.3475 Y-1.1224 Z-0.1038
N2390 X1.3442 Y-1.1307 Z-0.102
N2395 X1.2758 Y-1.3008
N2400 G2 X1.255 Y-1.3164 I-0.0232 J0.0093
N2405 G3 X1.158 Y-1.3333 I0.0612 J-0.6353
N2410 G1 X1.1494 Y-1.3356 Z-0.1038
N2415 G3 X1.1203 Y-1.3442 Z-0.11 I0.1668 J-0.6161
N2420 G2 X1.0602 Y-1.3645 I-0.2686 J0.6947
N2425 G1 X1.052 Y-1.3661
N2430 X1.0438 Y-1.3673
N2435 X1.0356 Y-1.3682
N2440 X1.016 Y-1.3715
N2445 X0.9933 Y-1.3768
N2450 X0.9635 Y-1.3861
N2455 X0.9298 Y-1.3992
N2460 X0.8968 Y-1.4142
N2465 G2 X0.6686 Y-1.5238 I-2.3401 J4.5791
N2470 X0.4989 Y-1.5864 I-0.7882 J1.8759
N2475 X-0.8606 Y-1.4228 I-0.4983 J1.589
N2480 G1 X-0.8914 Y-1.4037
N2485 X-0.9175 Y-1.3865
N2490 X-0.9294 Y-1.3802
N2495 X-0.9424 Y-1.3763
N2500 X-0.9558 Y-1.375
N2505 X-0.9616
N2510 X-0.9698 Y-1.3749
N2515 G2 X-1.0602 Y-1.3646 I0.0563 J0.9014
N2520 G1 X-1.0684 Y-1.3622
N2525 X-1.0767 Y-1.3595
N2530 X-1.0931 Y-1.3538
N2535 G3 X-1.1206 Y-1.3628 I-0.0074 J-0.0239
N2540 G1 X-1.123 Y-1.3659 Z-0.1097
N2545 X-1.1252 Y-1.369 Z-0.1088
N2550 X-1.1274 Y-1.3719 Z-0.1073
N2555 X-1.1294 Y-1.3746 Z-0.1052
N2560 X-1.1311 Y-1.377 Z-0.1027
N2565 X-1.1327 Y-1.3791 Z-0.0997
N2570 X-1.1339 Y-1.3807 Z-0.0963
N2575 X-1.1348 Y-1.3819 Z-0.0927
N2580 X-1.1353 Y-1.3827 Z-0.0889
N2585 X-1.1355 Y-1.3829 Z-0.085
N2590 G0 Z0.2
N2595 G1 X-1.3838 Y-1.0888 F300.
N2600 G0 Z-0.06
N2605 G1 Z-0.085 F20.4
N2610 X-1.3837 Y-1.0886 Z-0.0889
N2615 X-1.3833 Y-1.0877 Z-0.0927
N2620 X-1.3827 Y-1.0863 Z-0.0963
N2625 X-1.3818 Y-1.0845 Z-0.0997
N2630 X-1.3808 Y-1.0822 Z-0.1027
N2635 X-1.3796 Y-1.0794 Z-0.1052
N2640 X-1.3782 Y-1.0764 Z-0.1073
N2645 X-1.3767 Y-1.0731 Z-0.1088
N2650 X-1.3751 Y-1.0696 Z-0.1097
N2655 X-1.3735 Y-1.066 Z-0.11
N2660 G3 X-1.3682 Y-1.0356 I-0.0568 J0.0256
N2665 G1 X-1.3729 Y-0.9945
N2670 X-1.3749 Y-0.9698
N2675 X-1.375 Y-0.9616
N2680 Y-0.8958
N2685 X-1.3763 Y-0.8697
N2690 X-1.3788 Y-0.8487
N2695 X-1.3841 Y-0.8211
N2700 X-1.3933 Y-0.7861
N2705 G3 X-1.4558 Y-0.6164 I-2.6997 J-0.8989
N2710 G2 X-1.5539 Y-0.2687 I1.759 J0.6836
N2715 X-1.3838 Y0.7555 I1.5593 J0.2673
N2720 G1 X-1.3789 Y0.7661
N2725 X-1.376 Y0.7775
N2730 X-1.375 Y0.7892
N2735 Y0.9558
N2740 G3 X-1.3926 Y0.9788 I-0.025 J-0.0009
N2745 G1 X-1.3964 Y0.98 Z-0.1097
N2750 X-1.4 Y0.9811 Z-0.1088
N2755 X-1.4035 Y0.9822 Z-0.1073
N2760 X-1.4067 Y0.9832 Z-0.1052
N2765 X-1.4095 Y0.984 Z-0.1027
N2770 X-1.4119 Y0.9848 Z-0.0997
N2775 X-1.4139 Y0.9854 Z-0.0963
N2780 X-1.4153 Y0.9858 Z-0.0927
N2785 X-1.4162 Y0.9861 Z-0.0889
N2790 X-1.4165 Y0.9862 Z-0.085
N2795 G0 Z0.2
N2800 G1 X-1.0888 Y1.3838 F300.
N2805 G0 Z-0.06
N2810 G1 Z-0.085 F20.4
N2815 X-1.0886 Y1.3837 Z-0.0889
N2820 X-1.0877 Y1.3833 Z-0.0927
N2825 X-1.0863 Y1.3827 Z-0.0963
N2830 X-1.0845 Y1.3818 Z-0.0997
N2835 X-1.0822 Y1.3808 Z-0.1027
N2840 X-1.0794 Y1.3796 Z-0.1052
N2845 X-1.0764 Y1.3782 Z-0.1073
N2850 X-1.0731 Y1.3767 Z-0.1088
N2855 X-1.0696 Y1.3751 Z-0.1097
N2860 X-1.066 Y1.3735 Z-0.11
N2865 G3 X-1.0356 Y1.3682 I0.0256 J0.0568
N2870 G1 X-0.9945 Y1.3729
N2875 X-0.9698 Y1.3749
N2880 X-0.9616 Y1.375
N2885 X-0.8958
N2890 X-0.8697 Y1.3763
N2895 X-0.8487 Y1.3788
N2900 X-0.8211 Y1.3841
N2905 X-0.7861 Y1.3933
N2910 G3 X-0.6164 Y1.4558 I-0.8989 J2.6997
N2915 G2 X-0.2687 Y1.5539 I0.6836 J-1.759
N2920 X0.7555 Y1.3838 I0.2673 J-1.5593
N2925 G1 X0.7661 Y1.3789
N2930 X0.7775 Y1.376
N2935 X0.7892 Y1.375
N2940 X0.9558
N2945 G3 X0.9788 Y1.3926 I-0.0009 J0.025
N2950 G1 X0.98 Y1.3964 Z-0.1097
N2955 X0.9811 Y1.4 Z-0.1088
N2960 X0.9822 Y1.4035 Z-0.1073
N2965 X0.9832 Y1.4067 Z-0.1052
N2970 X0.984 Y1.4095 Z-0.1027
N2975 X0.9848 Y1.4119 Z-0.0997
N2980 X0.9854 Y1.4139 Z-0.0963
N2985 X0.9858 Y1.4153 Z-0.0927
N2990 X0.9861 Y1.4162 Z-0.0889
N2995 X0.9862 Y1.4165 Z-0.085
N3000 G0 Z0.2
N3005 G1 X1.3838 Y1.0888 F300.
N3010 G0 Z-0.06
N3015 G1 Z-0.085 F20.4
N3020 X1.3837 Y1.0886 Z-0.0889
N3025 X1.3833 Y1.0877 Z-0.0927
N3030 X1.3827 Y1.0863 Z-0.0963
N3035 X1.3818 Y1.0845 Z-0.0997
N3040 X1.3808 Y1.0822 Z-0.1027
N3045 X1.3796 Y1.0794 Z-0.1052
N3050 X1.3782 Y1.0764 Z-0.1073
N3055 X1.3767 Y1.0731 Z-0.1088
N3060 X1.3751 Y1.0696 Z-0.1097
N3065 X1.3735 Y1.066 Z-0.11
N3070 G3 X1.3682 Y1.0356 I0.0568 J-0.0256
N3075 G1 X1.3729 Y0.9945
N3080 X1.3749 Y0.9698
N3085 X1.375 Y0.9616
N3090 Y0.8958
N3095 X1.3763 Y0.8697
N3100 X1.3788 Y0.8487
N3105 X1.3841 Y0.8211
N3110 X1.3933 Y0.7861
N3115 G3 X1.4558 Y0.6164 I2.6998 J0.8989
N3120 G2 X1.5539 Y0.2687 I-1.759 J-0.6836
N3125 X1.3838 Y-0.7555 I-1.5593 J-0.2673
N3130 G1 X1.3789 Y-0.7661
N3135 X1.376 Y-0.7775
N3140 X1.375 Y-0.7892
N3145 Y-0.9558
N3150 G3 X1.3926 Y-0.9788 I0.025 J0.0009
N3155 G1 X1.3964 Y-0.98 Z-0.1097
N3160 X1.4 Y-0.9811 Z-0.1088
N3165 X1.4035 Y-0.9822 Z-0.1073
N3170 X1.4067 Y-0.9832 Z-0.1052
N3175 X1.4095 Y-0.984 Z-0.1027
N3180 X1.4119 Y-0.9848 Z-0.0997
N3185 X1.4139 Y-0.9854 Z-0.0963
N3190 X1.4153 Y-0.9858 Z-0.0927
N3195 X1.4162 Y-0.9861 Z-0.0889
N3200 X1.4165 Y-0.9862 Z-0.085
N3205 G0 Z0.2
N3210 G1 X1.0888 Y-1.3838 F300.
N3215 G0 Z-0.06
N3220 G1 Z-0.085 F20.4
N3225 X1.0886 Y-1.3837 Z-0.0889
N3230 X1.0877 Y-1.3833 Z-0.0927
N3235 X1.0863 Y-1.3827 Z-0.0963
N3240 X1.0845 Y-1.3818 Z-0.0997
N3245 X1.0822 Y-1.3808 Z-0.1027
N3250 X1.0794 Y-1.3796 Z-0.1052
N3255 X1.0764 Y-1.3782 Z-0.1073
N3260 X1.0731 Y-1.3767 Z-0.1088
N3265 X1.0696 Y-1.3751 Z-0.1097
N3270 X1.066 Y-1.3735 Z-0.11
N3275 G3 X1.0356 Y-1.3682 I-0.0256 J-0.0568
N3280 G1 X0.9945 Y-1.3729
N3285 X0.9698 Y-1.3749
N3290 X0.9616 Y-1.375
N3295 X0.8958
N3300 X0.8697 Y-1.3763
N3305 X0.8487 Y-1.3788
N3310 X0.8211 Y-1.3841
N3315 X0.7861 Y-1.3933
N3320 G3 X0.6164 Y-1.4558 I0.8989 J-2.6998
N3325 G2 X0.2687 Y-1.5539 I-0.6836 J1.759
N3330 X-0.7555 Y-1.3838 I-0.2673 J1.5593
N3335 G1 X-0.7661 Y-1.3789
N3340 X-0.7775 Y-1.376
N3345 X-0.7892 Y-1.375
N3350 X-0.9558
N3355 G3 X-0.9788 Y-1.3926 I0.0009 J-0.025
N3360 G1 X-0.98 Y-1.3964 Z-0.1097
N3365 X-0.9811 Y-1.4 Z-0.1088
N3370 X-0.9822 Y-1.4035 Z-0.1073
N3375 X-0.9832 Y-1.4067 Z-0.1052
N3380 X-0.984 Y-1.4095 Z-0.1027
N3385 X-0.9848 Y-1.4119 Z-0.0997
N3390 X-0.9854 Y-1.4139 Z-0.0963
N3395 X-0.9858 Y-1.4153 Z-0.0927
N3400 X-0.9861 Y-1.4162 Z-0.0889
N3405 X-0.9862 Y-1.4165 Z-0.085
N3410 G0 Z0.2
N3415 G1 X-1.3965 Y-0.947 F300.
N3420 G0 Z-0.06
N3425 G1 Z-0.085 F20.4
N3430 X-1.3963 Y-0.9467 Z-0.0889
N3435 X-1.3959 Y-0.946 Z-0.0927
N3440 X-1.3951 Y-0.9447 Z-0.0963
N3445 X-1.394 Y-0.9429 Z-0.0997
N3450 X-1.3927 Y-0.9407 Z-0.1027
N3455 X-1.3912 Y-0.9381 Z-0.1052
N3460 X-1.3895 Y-0.9353 Z-0.1073
N3465 X-1.3877 Y-0.9322 Z-0.1088
N3470 X-1.3857 Y-0.9289 Z-0.1097
N3475 X-1.3837 Y-0.9255 Z-0.11
N3480 G3 X-1.375 Y-0.8958 I-0.0536 J0.0318
N3485 G1 Y-0.6986
N3490 X-1.3766 Y-0.6671
N3495 X-1.3806 Y-0.6339
N3500 X-1.3873 Y-0.5983
N3505 G3 X-1.433 Y-0.4233 I-4.6593 J-1.1235
N3510 G2 X-1.487 Y-0.1026 I1.7324 J0.4565
N3515 X-1.3769 Y0.5704 I1.5008 J0.0999
N3520 G1 X-1.3756 Y0.5793
N3525 X-1.375 Y0.5881
N3530 Y0.7892
N3535 G3 X-1.3926 Y0.8122 I-0.025 J-0.0009
N3540 G1 X-1.3964 Y0.8134 Z-0.1097
N3545 X-1.4 Y0.8145 Z-0.1088
N3550 X-1.4035 Y0.8156 Z-0.1073
N3555 X-1.4067 Y0.8165 Z-0.1052
N3560 X-1.4095 Y0.8174 Z-0.1027
N3565 X-1.4119 Y0.8182 Z-0.0997
N3570 X-1.4139 Y0.8188 Z-0.0963
N3575 X-1.4153 Y0.8192 Z-0.0927
N3580 X-1.4162 Y0.8195 Z-0.0889
N3585 X-1.4165 Y0.8196 Z-0.085
N3590 G0 Z0.2
N3595 G1 X-0.947 Y1.3965 F300.
N3600 G0 Z-0.06
N3605 G1 Z-0.085 F20.4
N3610 X-0.9467 Y1.3963 Z-0.0889
N3615 X-0.946 Y1.3959 Z-0.0927
N3620 X-0.9447 Y1.3951 Z-0.0963
N3625 X-0.9429 Y1.394 Z-0.0997
N3630 X-0.9407 Y1.3927 Z-0.1027
N3635 X-0.9381 Y1.3912 Z-0.1052
N3640 X-0.9353 Y1.3895 Z-0.1073
N3645 X-0.9322 Y1.3877 Z-0.1088
N3650 X-0.9289 Y1.3857 Z-0.1097
N3655 X-0.9255 Y1.3837 Z-0.11
N3660 G3 X-0.8958 Y1.375 I0.0318 J0.0536
N3665 G1 X-0.6986
N3670 X-0.6671 Y1.3766
N3675 X-0.6339 Y1.3806
N3680 X-0.5983 Y1.3873
N3685 G3 X-0.4233 Y1.433 I-1.1235 J4.6593
N3690 G2 X-0.1026 Y1.487 I0.4565 J-1.7324
N3695 X0.5704 Y1.3769 I0.0999 J-1.5008
N3700 G1 X0.5793 Y1.3756
N3705 X0.5881 Y1.375
N3710 X0.7892
N3715 G3 X0.8122 Y1.3926 I-0.0009 J0.025
N3720 G1 X0.8134 Y1.3964 Z-0.1097
N3725 X0.8145 Y1.4 Z-0.1088
N3730 X0.8156 Y1.4035 Z-0.1073
N3735 X0.8165 Y1.4067 Z-0.1052
N3740 X0.8174 Y1.4095 Z-0.1027
N3745 X0.8182 Y1.4119 Z-0.0997
N3750 X0.8188 Y1.4139 Z-0.0963
N3755 X0.8192 Y1.4153 Z-0.0927
N3760 X0.8195 Y1.4162 Z-0.0889
N3765 X0.8196 Y1.4165 Z-0.085
N3770 G0 Z0.2
N3775 G1 X1.3965 Y0.947 F300.
N3780 G0 Z-0.06
N3785 G1 Z-0.085 F20.4
N3790 X1.3963 Y0.9467 Z-0.0889
N3795 X1.3959 Y0.946 Z-0.0927
N3800 X1.3951 Y0.9447 Z-0.0963
N3805 X1.394 Y0.9429 Z-0.0997
N3810 X1.3927 Y0.9407 Z-0.1027
N3815 X1.3912 Y0.9381 Z-0.1052
N3820 X1.3895 Y0.9353 Z-0.1073
N3825 X1.3877 Y0.9322 Z-0.1088
N3830 X1.3857 Y0.9289 Z-0.1097
N3835 X1.3837 Y0.9255 Z-0.11
N3840 G3 X1.375 Y0.8958 I0.0536 J-0.0318
N3845 G1 Y0.6986
N3850 X1.3766 Y0.6671
N3855 X1.3806 Y0.6339
N3860 X1.3873 Y0.5983
N3865 G3 X1.433 Y0.4233 I4.6593 J1.1235
N3870 G2 X1.487 Y0.1026 I-1.7324 J-0.4565
N3875 X1.3769 Y-0.5704 I-1.5008 J-0.0999
N3880 G1 X1.3756 Y-0.5793
N3885 X1.375 Y-0.5881
N3890 Y-0.7892
N3895 G3 X1.3926 Y-0.8122 I0.025 J0.0009
N3900 G1 X1.3964 Y-0.8134 Z-0.1097
N3905 X1.4 Y-0.8145 Z-0.1088
N3910 X1.4035 Y-0.8156 Z-0.1073
N3915 X1.4067 Y-0.8165 Z-0.1052
N3920 X1.4095 Y-0.8174 Z-0.1027
N3925 X1.4119 Y-0.8182 Z-0.0997
N3930 X1.4139 Y-0.8188 Z-0.0963
N3935 X1.4153 Y-0.8192 Z-0.0927
N3940 X1.4162 Y-0.8195 Z-0.0889
N3945 X1.4165 Y-0.8196 Z-0.085
N3950 G0 Z0.2
N3955 G1 X0.947 Y-1.3965 F300.
N3960 G0 Z-0.06
N3965 G1 Z-0.085 F20.4
N3970 X0.9467 Y-1.3963 Z-0.0889
N3975 X0.946 Y-1.3959 Z-0.0927
N3980 X0.9447 Y-1.3951 Z-0.0963
N3985 X0.9429 Y-1.394 Z-0.0997
N3990 X0.9407 Y-1.3927 Z-0.1027
N3995 X0.9381 Y-1.3912 Z-0.1052
N4000 X0.9353 Y-1.3895 Z-0.1073
N4005 X0.9322 Y-1.3877 Z-0.1088
N4010 X0.9289 Y-1.3857 Z-0.1097
N4015 X0.9255 Y-1.3837 Z-0.11
N4020 G3 X0.8958 Y-1.375 I-0.0318 J-0.0536
N4025 G1 X0.6986
N4030 X0.6671 Y-1.3766
N4035 X0.6339 Y-1.3806
N4040 X0.5983 Y-1.3873
N4045 G3 X0.4233 Y-1.433 I1.1235 J-4.6593
N4050 G2 X0.1026 Y-1.487 I-0.4565 J1.7324
N4055 X-0.5704 Y-1.3769 I-0.0999 J1.5008
N4060 G1 X-0.5793 Y-1.3756
N4065 X-0.5881 Y-1.375
N4070 X-0.7892
N4075 G3 X-0.8122 Y-1.3926 I0.0009 J-0.025
N4080 G1 X-0.8134 Y-1.3964 Z-0.1097
N4085 X-0.8145 Y-1.4 Z-0.1088
N4090 X-0.8156 Y-1.4035 Z-0.1073
N4095 X-0.8165 Y-1.4067 Z-0.1052
N4100 X-0.8174 Y-1.4095 Z-0.1027
N4105 X-0.8182 Y-1.4119 Z-0.0997
N4110 X-0.8188 Y-1.4139 Z-0.0963
N4115 X-0.8192 Y-1.4153 Z-0.0927
N4120 X-0.8195 Y-1.4162 Z-0.0889
N4125 X-0.8196 Y-1.4165 Z-0.085
N4130 G0 Z0.2
N4135 G1 X-1.3965 Y-0.7498 F300.
N4140 G0 Z-0.06
N4145 G1 Z-0.085 F20.4
N4150 X-1.3963 Y-0.7495 Z-0.0889
N4155 X-1.3959 Y-0.7487 Z-0.0927
N4160 X-1.3951 Y-0.7474 Z-0.0963
N4165 X-1.394 Y-0.7457 Z-0.0997
N4170 X-1.3927 Y-0.7435 Z-0.1027
N4175 X-1.3912 Y-0.7409 Z-0.1052
N4180 X-1.3895 Y-0.738 Z-0.1073
N4185 X-1.3877 Y-0.7349 Z-0.1088
N4190 X-1.3857 Y-0.7316 Z-0.1097
N4195 X-1.3837 Y-0.7283 Z-0.11
N4200 G3 X-1.375 Y-0.6986 I-0.0536 J0.0318
N4205 G1 Y-0.4849
N4210 G3 X-1.3932 Y-0.3617 I-0.464 J-0.0054
N4215 G1 X-1.4102 Y-0.2877
N4220 X-1.412 Y-0.2794
N4225 X-1.417 Y-0.2548
N4230 X-1.4319 Y-0.1479
N4235 X-1.4343 Y-0.1233
N4240 X-1.4348 Y-0.1151
N4245 X-1.4394 Y-0.0164
N4250 X-1.4395 Y-0.0082
N4255 Y0.0082
N4260 X-1.4394 Y0.0164
N4265 X-1.4348 Y0.1151
N4270 X-1.4343 Y0.1233
N4275 X-1.4319 Y0.1479
N4280 X-1.417 Y0.2548
N4285 X-1.412 Y0.2794
N4290 G3 X-1.3801 Y0.4191 I-4.9406 J1.2026
N4295 X-1.375 Y0.4931 I-0.4797 J0.0706
N4300 G1 Y0.5881
N4305 G3 X-1.3926 Y0.6111 I-0.025 J-0.0009
N4310 G1 X-1.3964 Y0.6122 Z-0.1097
N4315 X-1.4 Y0.6134 Z-0.1088
N4320 X-1.4035 Y0.6144 Z-0.1073
N4325 X-1.4067 Y0.6154 Z-0.1052
N4330 X-1.4095 Y0.6163 Z-0.1027
N4335 X-1.4119 Y0.617 Z-0.0997
N4340 X-1.4139 Y0.6176 Z-0.0963
N4345 X-1.4153 Y0.6181 Z-0.0927
N4350 X-1.4162 Y0.6184 Z-0.0889
N4355 X-1.4165 Z-0.085
N4360 G0 Z0.2
N4365 G1 X-0.7498 Y1.3965 F300.
N4370 G0 Z-0.06
N4375 G1 Z-0.085 F20.4
N4380 X-0.7495 Y1.3963 Z-0.0889
N4385 X-0.7487 Y1.3959 Z-0.0927
N4390 X-0.7474 Y1.3951 Z-0.0963
N4395 X-0.7457 Y1.394 Z-0.0997
N4400 X-0.7435 Y1.3927 Z-0.1027
N4405 X-0.7409 Y1.3912 Z-0.1052
N4410 X-0.738 Y1.3895 Z-0.1073
N4415 X-0.7349 Y1.3877 Z-0.1088
N4420 X-0.7316 Y1.3857 Z-0.1097
N4425 X-0.7283 Y1.3837 Z-0.11
N4430 G3 X-0.6986 Y1.375 I0.0318 J0.0536
N4435 G1 X-0.4849
N4440 G3 X-0.3617 Y1.3932 I-0.0054 J0.464
N4445 G1 X-0.2877 Y1.4102
N4450 X-0.2794 Y1.412
N4455 X-0.2548 Y1.417
N4460 X-0.1479 Y1.4319
N4465 X-0.1233 Y1.4343
N4470 X-0.1151 Y1.4348
N4475 X-0.0164 Y1.4394
N4480 X-0.0082 Y1.4395
N4485 X0.0082
N4490 X0.0164 Y1.4394
N4495 X0.1151 Y1.4348
N4500 X0.1233 Y1.4343
N4505 X0.1479 Y1.4319
N4510 X0.2548 Y1.417
N4515 X0.2794 Y1.412
N4520 G3 X0.4191 Y1.3801 I1.2026 J4.9405
N4525 X0.4931 Y1.375 I0.0706 J0.4797
N4530 G1 X0.5881
N4535 G3 X0.6111 Y1.3926 I-0.0009 J0.025
N4540 G1 X0.6122 Y1.3964 Z-0.1097
N4545 X0.6134 Y1.4 Z-0.1088
N4550 X0.6144 Y1.4035 Z-0.1073
N4555 X0.6154 Y1.4067 Z-0.1052
N4560 X0.6163 Y1.4095 Z-0.1027
N4565 X0.617 Y1.4119 Z-0.0997
N4570 X0.6176 Y1.4139 Z-0.0963
N4575 X0.6181 Y1.4153 Z-0.0927
N4580 X0.6184 Y1.4162 Z-0.0889
N4585 Y1.4165 Z-0.085
N4590 G0 Z0.2
N4595 G1 X1.3965 Y0.7498 F300.
N4600 G0 Z-0.06
N4605 G1 Z-0.085 F20.4
N4610 X1.3963 Y0.7495 Z-0.0889
N4615 X1.3959 Y0.7487 Z-0.0927
N4620 X1.3951 Y0.7474 Z-0.0963
N4625 X1.394 Y0.7457 Z-0.0997
N4630 X1.3927 Y0.7435 Z-0.1027
N4635 X1.3912 Y0.7409 Z-0.1052
N4640 X1.3895 Y0.738 Z-0.1073
N4645 X1.3877 Y0.7349 Z-0.1088
N4650 X1.3857 Y0.7316 Z-0.1097
N4655 X1.3837 Y0.7283 Z-0.11
N4660 G3 X1.375 Y0.6986 I0.0536 J-0.0318
N4665 G1 Y0.4849
N4670 G3 X1.3932 Y0.3617 I0.464 J0.0054
N4675 G1 X1.4102 Y0.2877
N4680 X1.412 Y0.2794
N4685 X1.417 Y0.2548
N4690 X1.4319 Y0.1479
N4695 X1.4343 Y0.1233
N4700 X1.4348 Y0.1151
N4705 X1.4394 Y0.0164
N4710 X1.4395 Y0.0082
N4715 Y-0.0082
N4720 X1.4394 Y-0.0164
N4725 X1.4348 Y-0.1151
N4730 X1.4343 Y-0.1233
N4735 X1.4319 Y-0.1479
N4740 X1.417 Y-0.2548
N4745 X1.412 Y-0.2794
N4750 G3 X1.3801 Y-0.4191 I4.9406 J-1.2026
N4755 X1.375 Y-0.4931 I0.4797 J-0.0706
N4760 G1 Y-0.5881
N4765 G3 X1.3926 Y-0.6111 I0.025 J0.0009
N4770 G1 X1.3964 Y-0.6122 Z-0.1097
N4775 X1.4 Y-0.6134 Z-0.1088
N4780 X1.4035 Y-0.6144 Z-0.1073
N4785 X1.4067 Y-0.6154 Z-0.1052
N4790 X1.4095 Y-0.6163 Z-0.1027
N4795 X1.4119 Y-0.617 Z-0.0997
N4800 X1.4139 Y-0.6176 Z-0.0963
N4805 X1.4153 Y-0.6181 Z-0.0927
N4810 X1.4162 Y-0.6184 Z-0.0889
N4815 X1.4165 Z-0.085
N4820 G0 Z0.2
N4825 G1 X0.7498 Y-1.3965 F300.
N4830 G0 Z-0.06
N4835 G1 Z-0.085 F20.4
N4840 X0.7495 Y-1.3963 Z-0.0889
N4845 X0.7487 Y-1.3959 Z-0.0927
N4850 X0.7474 Y-1.3951 Z-0.0963
N4855 X0.7457 Y-1.394 Z-0.0997
N4860 X0.7435 Y-1.3927 Z-0.1027
N4865 X0.7409 Y-1.3912 Z-0.1052
N4870 X0.738 Y-1.3895 Z-0.1073
N4875 X0.7349 Y-1.3877 Z-0.1088
N4880 X0.7316 Y-1.3857 Z-0.1097
N4885 X0.7283 Y-1.3837 Z-0.11
N4890 G3 X0.6986 Y-1.375 I-0.0318 J-0.0536
N4895 G1 X0.4849
N4900 G3 X0.3617 Y-1.3932 I0.0054 J-0.464
N4905 G1 X0.2877 Y-1.4102
N4910 X0.2794 Y-1.412
N4915 X0.2548 Y-1.417
N4920 X0.1479 Y-1.4319
N4925 X0.1233 Y-1.4343
N4930 X0.1151 Y-1.4348
N4935 X0.0164 Y-1.4394
N4940 X0.0082 Y-1.4395
N4945 X-0.0082
N4950 X-0.0164 Y-1.4394
N4955 X-0.1151 Y-1.4348
N4960 X-0.1233 Y-1.4343
N4965 X-0.1479 Y-1.4319
N4970 X-0.2548 Y-1.417
N4975 X-0.2794 Y-1.412
N4980 G3 X-0.4191 Y-1.3801 I-1.2026 J-4.9405
N4985 X-0.4931 Y-1.375 I-0.0706 J-0.4797
N4990 G1 X-0.5881
N4995 X-0.591 Y-1.3753
N5000 X-0.5939 Y-1.3759
N5005 X-0.5966 Y-1.3772 Z-0.1098
N5010 X-0.5993 Y-1.3785 Z-0.1093
N5015 X-0.6018 Y-1.3797 Z-0.1084
N5020 X-0.604 Y-1.382 Z-0.1069
N5025 X-0.6061 Y-1.3841 Z-0.105
N5030 X-0.6079 Y-1.386 Z-0.1027
N5035 X-0.609 Y-1.3883 Z-0.0997
N5040 X-0.6099 Y-1.3902 Z-0.0964
N5045 X-0.6106 Y-1.3915 Z-0.0927
N5050 X-0.611 Y-1.3923 Z-0.0889
N5055 X-0.6111 Y-1.3926 Z-0.085
N5060 G0 Z0.2
N5065 G1 X-1.314 Y-1.2799 F300.
N5070 G0 Z-0.095
N5075 G1 Z-0.12 F20.4
N5080 Y-1.2796 Z-0.1239
N5085 X-1.3141 Y-1.2787 Z-0.1277
N5090 X-1.3142 Y-1.2772 Z-0.1313
N5095 X-1.3144 Y-1.2751 Z-0.1347
N5100 X-1.3147 Y-1.2726 Z-0.1377
N5105 X-1.315 Y-1.2696 Z-0.1402
N5110 X-1.3153 Y-1.2663 Z-0.1423
N5115 X-1.3156 Y-1.2627 Z-0.1438
N5120 X-1.316 Y-1.2589 Z-0.1447
N5125 X-1.3164 Y-1.255 Z-0.145
N5130 G3 X-1.3442 Y-1.1203 I-0.6353 J-0.0612
N5135 G2 X-1.3645 Y-1.0602 I0.6947 J0.2686
N5140 G1 X-1.3661 Y-1.052
N5145 X-1.3673 Y-1.0438
N5150 X-1.3682 Y-1.0356
N5155 X-1.3715 Y-1.016
N5160 X-1.3768 Y-0.9933
N5165 X-1.3861 Y-0.9635
N5170 X-1.3992 Y-0.9298
N5175 X-1.4142 Y-0.8968
N5180 G2 X-1.5238 Y-0.6686 I4.5792 J2.3402
N5185 X-1.5864 Y-0.4989 I1.8758 J0.7882
N5190 X-1.4228 Y0.8606 I1.589 J0.4983
N5195 G1 X-1.4037 Y0.8913
N5200 X-1.3865 Y0.9175
N5205 X-1.3802 Y0.9294
N5210 X-1.3763 Y0.9424
N5215 X-1.375 Y0.9558
N5220 Y0.9616
N5225 X-1.3749 Y0.9698
N5230 G2 X-1.3646 Y1.0602 I0.901 J-0.0563
N5235 G1 X-1.3622 Y1.0684
N5240 X-1.3595 Y1.0767
N5245 X-1.3538 Y1.0931
N5250 G3 X-1.3524 Y1.1032 Z-0.1429 I-0.0236 J0.0083
N5255 G2 X-1.3507 Y1.1145 Z-0.1406 I0.0249 J0.0019
N5260 G1 X-1.3475 Y1.1224 Z-0.1388
N5265 X-1.3442 Y1.1307 Z-0.137
N5270 X-1.2758 Y1.3008
N5275 G2 X-1.255 Y1.3164 I0.0232 J-0.0093
N5280 G3 X-1.158 Y1.3333 I-0.0612 J0.6353
N5285 G1 X-1.1494 Y1.3356 Z-0.1388
N5290 G3 X-1.1203 Y1.3442 Z-0.145 I-0.1668 J0.6161
N5295 G2 X-1.0602 Y1.3645 I0.2686 J-0.6947
N5300 G1 X-1.052 Y1.3661
N5305 X-1.0438 Y1.3673
N5310 X-1.0356 Y1.3682
N5315 X-1.016 Y1.3715
N5320 X-0.9933 Y1.3768
N5325 X-0.9635 Y1.3861
N5330 X-0.9298 Y1.3992
N5335 X-0.8968 Y1.4142
N5340 G2 X-0.6686 Y1.5238 I2.3402 J-4.5792
N5345 X-0.4989 Y1.5864 I0.7882 J-1.8758
N5350 X0.8606 Y1.4228 I0.4983 J-1.589
N5355 G1 X0.8913 Y1.4037
N5360 X0.9175 Y1.3865
N5365 X0.9294 Y1.3802
N5370 X0.9424 Y1.3763
N5375 X0.9558 Y1.375
N5380 X0.9616
N5385 X0.9698 Y1.3749
N5390 G2 X1.0602 Y1.3646 I-0.0563 J-0.901
N5395 G1 X1.0684 Y1.3622
N5400 X1.0767 Y1.3595
N5405 X1.0931 Y1.3538
N5410 G3 X1.1032 Y1.3524 Z-0.1429 I0.0083 J0.0236
N5415 G2 X1.1145 Y1.3507 Z-0.1406 I0.0019 J-0.0249
N5420 G1 X1.1224 Y1.3475 Z-0.1388
N5425 X1.1307 Y1.3442 Z-0.137
N5430 X1.3008 Y1.2758
N5435 G2 X1.3164 Y1.255 I-0.0093 J-0.0232
N5440 G3 X1.3333 Y1.158 I0.6353 J0.0612
N5445 G1 X1.3356 Y1.1494 Z-0.1388
N5450 G3 X1.3442 Y1.1203 Z-0.145 I0.6161 J0.1668
N5455 G2 X1.3645 Y1.0602 I-0.6947 J-0.2686
N5460 G1 X1.3661 Y1.052
N5465 X1.3673 Y1.0438
N5470 X1.3682 Y1.0356
N5475 X1.3715 Y1.016
N5480 X1.3768 Y0.9933
N5485 X1.3861 Y0.9635
N5490 X1.3992 Y0.9298
N5495 X1.4142 Y0.8968
N5500 G2 X1.5238 Y0.6686 I-4.5791 J-2.3401
N5505 X1.5864 Y0.4989 I-1.8759 J-0.7882
N5510 X1.4228 Y-0.8606 I-1.589 J-0.4983
N5515 G1 X1.4037 Y-0.8914
N5520 X1.3865 Y-0.9175
N5525 X1.3802 Y-0.9294
N5530 X1.3763 Y-0.9424
N5535 X1.375 Y-0.9558
N5540 Y-0.9616
N5545 X1.3749 Y-0.9698
N5550 G2 X1.3646 Y-1.0602 I-0.9014 J0.0563
N5555 G1 X1.3622 Y-1.0684
N5560 X1.3595 Y-1.0767
N5565 X1.3538 Y-1.0931
N5570 G3 X1.3524 Y-1.1032 Z-0.1429 I0.0236 J-0.0083
N5575 G2 X1.3507 Y-1.1145 Z-0.1406 I-0.0249 J-0.0019
N5580 G1 X1.3475 Y-1.1224 Z-0.1388
N5585 X1.3442 Y-1.1307 Z-0.137
N5590 X1.2758 Y-1.3008
N5595 G2 X1.255 Y-1.3164 I-0.0232 J0.0093
N5600 G3 X1.158 Y-1.3333 I0.0612 J-0.6353
N5605 G1 X1.1494 Y-1.3356 Z-0.1388
N5610 G3 X1.1203 Y-1.3442 Z-0.145 I0.1668 J-0.6161
N5615 G2 X1.0602 Y-1.3645 I-0.2686 J0.6947
N5620 G1 X1.052 Y-1.3661
N5625 X1.0438 Y-1.3673
N5630 X1.0356 Y-1.3682
N5635 X1.016 Y-1.3715
N5640 X0.9933 Y-1.3768
N5645 X0.9635 Y-1.3861
N5650 X0.9298 Y-1.3992
N5655 X0.8968 Y-1.4142
N5660 G2 X0.6686 Y-1.5238 I-2.3401 J4.5791
N5665 X0.4989 Y-1.5864 I-0.7882 J1.8759
N5670 X-0.8606 Y-1.4228 I-0.4983 J1.589
N5675 G1 X-0.8914 Y-1.4037
N5680 X-0.9175 Y-1.3865
N5685 X-0.9294 Y-1.3802
N5690 X-0.9424 Y-1.3763
N5695 X-0.9558 Y-1.375
N5700 X-0.9616
N5705 X-0.9698 Y-1.3749
N5710 G2 X-1.0602 Y-1.3646 I0.0563 J0.9014
N5715 G1 X-1.0684 Y-1.3622
N5720 X-1.0767 Y-1.3595
N5725 X-1.0931 Y-1.3538
N5730 G3 X-1.1206 Y-1.3628 I-0.0074 J-0.0239
N5735 G1 X-1.123 Y-1.3659 Z-0.1447
N5740 X-1.1252 Y-1.369 Z-0.1438
N5745 X-1.1274 Y-1.3719 Z-0.1423
N5750 X-1.1294 Y-1.3746 Z-0.1402
N5755 X-1.1311 Y-1.377 Z-0.1377
N5760 X-1.1327 Y-1.3791 Z-0.1347
N5765 X-1.1339 Y-1.3807 Z-0.1313
N5770 X-1.1348 Y-1.3819 Z-0.1277
N5775 X-1.1353 Y-1.3827 Z-0.1239
N5780 X-1.1355 Y-1.3829 Z-0.12
N5785 G0 Z0.2
N5790 G1 X-1.3838 Y-1.0888 F300.
N5795 G0 Z-0.095
N5800 G1 Z-0.12 F20.4
N5805 X-1.3837 Y-1.0886 Z-0.1239
N5810 X-1.3833 Y-1.0877 Z-0.1277
N5815 X-1.3827 Y-1.0863 Z-0.1313
N5820 X-1.3818 Y-1.0845 Z-0.1347
N5825 X-1.3808 Y-1.0822 Z-0.1377
N5830 X-1.3796 Y-1.0794 Z-0.1402
N5835 X-1.3782 Y-1.0764 Z-0.1423
N5840 X-1.3767 Y-1.0731 Z-0.1438
N5845 X-1.3751 Y-1.0696 Z-0.1447
N5850 X-1.3735 Y-1.066 Z-0.145
N5855 G3 X-1.3682 Y-1.0356 I-0.0568 J0.0256
N5860 G1 X-1.3729 Y-0.9945
N5865 X-1.3749 Y-0.9698
N5870 X-1.375 Y-0.9616
N5875 Y-0.8958
N5880 X-1.3763 Y-0.8697
N5885 X-1.3788 Y-0.8487
N5890 X-1.3841 Y-0.8211
N5895 X-1.3933 Y-0.7861
N5900 G3 X-1.4558 Y-0.6164 I-2.6997 J-0.8989
N5905 G2 X-1.5539 Y-0.2687 I1.759 J0.6836
N5910 X-1.3838 Y0.7555 I1.5593 J0.2673
N5915 G1 X-1.3789 Y0.7661
N5920 X-1.376 Y0.7775
N5925 X-1.375 Y0.7892
N5930 Y0.9558
N5935 G3 X-1.3926 Y0.9788 I-0.025 J-0.0009
N5940 G1 X-1.3964 Y0.98 Z-0.1447
N5945 X-1.4 Y0.9811 Z-0.1438
N5950 X-1.4035 Y0.9822 Z-0.1423
N5955 X-1.4067 Y0.9832 Z-0.1402
N5960 X-1.4095 Y0.984 Z-0.1377
N5965 X-1.4119 Y0.9848 Z-0.1347
N5970 X-1.4139 Y0.9854 Z-0.1313
N5975 X-1.4153 Y0.9858 Z-0.1277
N5980 X-1.4162 Y0.9861 Z-0.1239
N5985 X-1.4165 Y0.9862 Z-0.12
N5990 G0 Z0.2
N5995 G1 X-1.0888 Y1.3838 F300.
N6000 G0 Z-0.095
N6005 G1 Z-0.12 F20.4
N6010 X-1.0886 Y1.3837 Z-0.1239
N6015 X-1.0877 Y1.3833 Z-0.1277
N6020 X-1.0863 Y1.3827 Z-0.1313
N6025 X-1.0845 Y1.3818 Z-0.1347
N6030 X-1.0822 Y1.3808 Z-0.1377
N6035 X-1.0794 Y1.3796 Z-0.1402
N6040 X-1.0764 Y1.3782 Z-0.1423
N6045 X-1.0731 Y1.3767 Z-0.1438
N6050 X-1.0696 Y1.3751 Z-0.1447
N6055 X-1.066 Y1.3735 Z-0.145
N6060 G3 X-1.0356 Y1.3682 I0.0256 J0.0568
N6065 G1 X-0.9945 Y1.3729
N6070 X-0.9698 Y1.3749
N6075 X-0.9616 Y1.375
N6080 X-0.8958
N6085 X-0.8697 Y1.3763
N6090 X-0.8487 Y1.3788
N6095 X-0.8211 Y1.3841
N6100 X-0.7861 Y1.3933
N6105 G3 X-0.6164 Y1.4558 I-0.8989 J2.6997
N6110 G2 X-0.2687 Y1.5539 I0.6836 J-1.759
N6115 X0.7555 Y1.3838 I0.2673 J-1.5593
N6120 G1 X0.7661 Y1.3789
N6125 X0.7775 Y1.376
N6130 X0.7892 Y1.375
N6135 X0.9558
N6140 G3 X0.9788 Y1.3926 I-0.0009 J0.025
N6145 G1 X0.98 Y1.3964 Z-0.1447
N6150 X0.9811 Y1.4 Z-0.1438
N6155 X0.9822 Y1.4035 Z-0.1423
N6160 X0.9832 Y1.4067 Z-0.1402
N6165 X0.984 Y1.4095 Z-0.1377
N6170 X0.9848 Y1.4119 Z-0.1347
N6175 X0.9854 Y1.4139 Z-0.1313
N6180 X0.9858 Y1.4153 Z-0.1277
N6185 X0.9861 Y1.4162 Z-0.1239
N6190 X0.9862 Y1.4165 Z-0.12
N6195 G0 Z0.2
N6200 G1 X1.3838 Y1.0888 F300.
N6205 G0 Z-0.095
N6210 G1 Z-0.12 F20.4
N6215 X1.3837 Y1.0886 Z-0.1239
N6220 X1.3833 Y1.0877 Z-0.1277
N6225 X1.3827 Y1.0863 Z-0.1313
N6230 X1.3818 Y1.0845 Z-0.1347
N6235 X1.3808 Y1.0822 Z-0.1377
N6240 X1.3796 Y1.0794 Z-0.1402
N6245 X1.3782 Y1.0764 Z-0.1423
N6250 X1.3767 Y1.0731 Z-0.1438
N6255 X1.3751 Y1.0696 Z-0.1447
N6260 X1.3735 Y1.066 Z-0.145
N6265 G3 X1.3682 Y1.0356 I0.0568 J-0.0256
N6270 G1 X1.3729 Y0.9945
N6275 X1.3749 Y0.9698
N6280 X1.375 Y0.9616
N6285 Y0.8958
N6290 X1.3763 Y0.8697
N6295 X1.3788 Y0.8487
N6300 X1.3841 Y0.8211
N6305 X1.3933 Y0.7861
N6310 G3 X1.4558 Y0.6164 I2.6998 J0.8989
N6315 G2 X1.5539 Y0.2687 I-1.759 J-0.6836
N6320 X1.3838 Y-0.7555 I-1.5593 J-0.2673
N6325 G1 X1.3789 Y-0.7661
N6330 X1.376 Y-0.7775
N6335 X1.375 Y-0.7892
N6340 Y-0.9558
N6345 G3 X1.3926 Y-0.9788 I0.025 J0.0009
N6350 G1 X1.3964 Y-0.98 Z-0.1447
N6355 X1.4 Y-0.9811 Z-0.1438
N6360 X1.4035 Y-0.9822 Z-0.1423
N6365 X1.4067 Y-0.9832 Z-0.1402
N6370 X1.4095 Y-0.984 Z-0.1377
N6375 X1.4119 Y-0.9848 Z-0.1347
N6380 X1.4139 Y-0.9854 Z-0.1313
N6385 X1.4153 Y-0.9858 Z-0.1277
N6390 X1.4162 Y-0.9861 Z-0.1239
N6395 X1.4165 Y-0.9862 Z-0.12
N6400 G0 Z0.2
N6405 G1 X1.0888 Y-1.3838 F300.
N6410 G0 Z-0.095
N6415 G1 Z-0.12 F20.4
N6420 X1.0886 Y-1.3837 Z-0.1239
N6425 X1.0877 Y-1.3833 Z-0.1277
N6430 X1.0863 Y-1.3827 Z-0.1313
N6435 X1.0845 Y-1.3818 Z-0.1347
N6440 X1.0822 Y-1.3808 Z-0.1377
N6445 X1.0794 Y-1.3796 Z-0.1402
N6450 X1.0764 Y-1.3782 Z-0.1423
N6455 X1.0731 Y-1.3767 Z-0.1438
N6460 X1.0696 Y-1.3751 Z-0.1447
N6465 X1.066 Y-1.3735 Z-0.145
N6470 G3 X1.0356 Y-1.3682 I-0.0256 J-0.0568
N6475 G1 X0.9945 Y-1.3729
N6480 X0.9698 Y-1.3749
N6485 X0.9616 Y-1.375
N6490 X0.8958
N6495 X0.8697 Y-1.3763
N6500 X0.8487 Y-1.3788
N6505 X0.8211 Y-1.3841
N6510 X0.7861 Y-1.3933
N6515 G3 X0.6164 Y-1.4558 I0.8989 J-2.6998
N6520 G2 X0.2687 Y-1.5539 I-0.6836 J1.759
N6525 X-0.7555 Y-1.3838 I-0.2673 J1.5593
N6530 G1 X-0.7661 Y-1.3789
N6535 X-0.7775 Y-1.376
N6540 X-0.7892 Y-1.375
N6545 X-0.9558
N6550 G3 X-0.9788 Y-1.3926 I0.0009 J-0.025
N6555 G1 X-0.98 Y-1.3964 Z-0.1447
N6560 X-0.9811 Y-1.4 Z-0.1438
N6565 X-0.9822 Y-1.4035 Z-0.1423
N6570 X-0.9832 Y-1.4067 Z-0.1402
N6575 X-0.984 Y-1.4095 Z-0.1377
N6580 X-0.9848 Y-1.4119 Z-0.1347
N6585 X-0.9854 Y-1.4139 Z-0.1313
N6590 X-0.9858 Y-1.4153 Z-0.1277
N6595 X-0.9861 Y-1.4162 Z-0.1239
N6600 X-0.9862 Y-1.4165 Z-0.12
N6605 G0 Z0.2
N6610 G1 X-1.3965 Y-0.947 F300.
N6615 G0 Z-0.095
N6620 G1 Z-0.12 F20.4
N6625 X-1.3963 Y-0.9467 Z-0.1239
N6630 X-1.3959 Y-0.946 Z-0.1277
N6635 X-1.3951 Y-0.9447 Z-0.1313
N6640 X-1.394 Y-0.9429 Z-0.1347
N6645 X-1.3927 Y-0.9407 Z-0.1377
N6650 X-1.3912 Y-0.9381 Z-0.1402
N6655 X-1.3895 Y-0.9353 Z-0.1423
N6660 X-1.3877 Y-0.9322 Z-0.1438
N6665 X-1.3857 Y-0.9289 Z-0.1447
N6670 X-1.3837 Y-0.9255 Z-0.145
N6675 G3 X-1.375 Y-0.8958 I-0.0536 J0.0318
N6680 G1 Y-0.6986
N6685 X-1.3766 Y-0.6671
N6690 X-1.3806 Y-0.6339
N6695 X-1.3873 Y-0.5983
N6700 G3 X-1.433 Y-0.4233 I-4.6593 J-1.1235
N6705 G2 X-1.487 Y-0.1026 I1.7324 J0.4565
N6710 X-1.3769 Y0.5704 I1.5008 J0.0999
N6715 G1 X-1.3756 Y0.5793
N6720 X-1.375 Y0.5881
N6725 Y0.7892
N6730 G3 X-1.3926 Y0.8122 I-0.025 J-0.0009
N6735 G1 X-1.3964 Y0.8134 Z-0.1447
N6740 X-1.4 Y0.8145 Z-0.1438
N6745 X-1.4035 Y0.8156 Z-0.1423
N6750 X-1.4067 Y0.8165 Z-0.1402
N6755 X-1.4095 Y0.8174 Z-0.1377
N6760 X-1.4119 Y0.8182 Z-0.1347
N6765 X-1.4139 Y0.8188 Z-0.1313
N6770 X-1.4153 Y0.8192 Z-0.1277
N6775 X-1.4162 Y0.8195 Z-0.1239
N6780 X-1.4165 Y0.8196 Z-0.12
N6785 G0 Z0.2
N6790 G1 X-0.947 Y1.3965 F300.
N6795 G0 Z-0.095
N6800 G1 Z-0.12 F20.4
N6805 X-0.9467 Y1.3963 Z-0.1239
N6810 X-0.946 Y1.3959 Z-0.1277
N6815 X-0.9447 Y1.3951 Z-0.1313
N6820 X-0.9429 Y1.394 Z-0.1347
N6825 X-0.9407 Y1.3927 Z-0.1377
N6830 X-0.9381 Y1.3912 Z-0.1402
N6835 X-0.9353 Y1.3895 Z-0.1423
N6840 X-0.9322 Y1.3877 Z-0.1438
N6845 X-0.9289 Y1.3857 Z-0.1447
N6850 X-0.9255 Y1.3837 Z-0.145
N6855 G3 X-0.8958 Y1.375 I0.0318 J0.0536
N6860 G1 X-0.6986
N6865 X-0.6671 Y1.3766
N6870 X-0.6339 Y1.3806
N6875 X-0.5983 Y1.3873
N6880 G3 X-0.4233 Y1.433 I-1.1235 J4.6593
N6885 G2 X-0.1026 Y1.487 I0.4565 J-1.7324
N6890 X0.5704 Y1.3769 I0.0999 J-1.5008
N6895 G1 X0.5793 Y1.3756
N6900 X0.5881 Y1.375
N6905 X0.7892
N6910 G3 X0.8122 Y1.3926 I-0.0009 J0.025
N6915 G1 X0.8134 Y1.3964 Z-0.1447
N6920 X0.8145 Y1.4 Z-0.1438
N6925 X0.8156 Y1.4035 Z-0.1423
N6930 X0.8165 Y1.4067 Z-0.1402
N6935 X0.8174 Y1.4095 Z-0.1377
N6940 X0.8182 Y1.4119 Z-0.1347
N6945 X0.8188 Y1.4139 Z-0.1313
N6950 X0.8192 Y1.4153 Z-0.1277
N6955 X0.8195 Y1.4162 Z-0.1239
N6960 X0.8196 Y1.4165 Z-0.12
N6965 G0 Z0.2
N6970 G1 X1.3965 Y0.947 F300.
N6975 G0 Z-0.095
N6980 G1 Z-0.12 F20.4
N6985 X1.3963 Y0.9467 Z-0.1239
N6990 X1.3959 Y0.946 Z-0.1277
N6995 X1.3951 Y0.9447 Z-0.1313
N7000 X1.394 Y0.9429 Z-0.1347
N7005 X1.3927 Y0.9407 Z-0.1377
N7010 X1.3912 Y0.9381 Z-0.1402
N7015 X1.3895 Y0.9353 Z-0.1423
N7020 X1.3877 Y0.9322 Z-0.1438
N7025 X1.3857 Y0.9289 Z-0.1447
N7030 X1.3837 Y0.9255 Z-0.145
N7035 G3 X1.375 Y0.8958 I0.0536 J-0.0318
N7040 G1 Y0.6986
N7045 X1.3766 Y0.6671
N7050 X1.3806 Y0.6339
N7055 X1.3873 Y0.5983
N7060 G3 X1.433 Y0.4233 I4.6593 J1.1235
N7065 G2 X1.487 Y0.1026 I-1.7324 J-0.4565
N7070 X1.3769 Y-0.5704 I-1.5008 J-0.0999
N7075 G1 X1.3756 Y-0.5793
N7080 X1.375 Y-0.5881
N7085 Y-0.7892
N7090 G3 X1.3926 Y-0.8122 I0.025 J0.0009
N7095 G1 X1.3964 Y-0.8134 Z-0.1447
N7100 X1.4 Y-0.8145 Z-0.1438
N7105 X1.4035 Y-0.8156 Z-0.1423
N7110 X1.4067 Y-0.8165 Z-0.1402
N7115 X1.4095 Y-0.8174 Z-0.1377
N7120 X1.4119 Y-0.8182 Z-0.1347
N7125 X1.4139 Y-0.8188 Z-0.1313
N7130 X1.4153 Y-0.8192 Z-0.1277
N7135 X1.4162 Y-0.8195 Z-0.1239
N7140 X1.4165 Y-0.8196 Z-0.12
N7145 G0 Z0.2
N7150 G1 X0.947 Y-1.3965 F300.
N7155 G0 Z-0.095
N7160 G1 Z-0.12 F20.4
N7165 X0.9467 Y-1.3963 Z-0.1239
N7170 X0.946 Y-1.3959 Z-0.1277
N7175 X0.9447 Y-1.3951 Z-0.1313
N7180 X0.9429 Y-1.394 Z-0.1347
N7185 X0.9407 Y-1.3927 Z-0.1377
N7190 X0.9381 Y-1.3912 Z-0.1402
N7195 X0.9353 Y-1.3895 Z-0.1423
N7200 X0.9322 Y-1.3877 Z-0.1438
N7205 X0.9289 Y-1.3857 Z-0.1447
N7210 X0.9255 Y-1.3837 Z-0.145
N7215 G3 X0.8958 Y-1.375 I-0.0318 J-0.0536
N7220 G1 X0.6986
N7225 X0.6671 Y-1.3766
N7230 X0.6339 Y-1.3806
N7235 X0.5983 Y-1.3873
N7240 G3 X0.4233 Y-1.433 I1.1235 J-4.6593
N7245 G2 X0.1026 Y-1.487 I-0.4565 J1.7324
N7250 X-0.5704 Y-1.3769 I-0.0999 J1.5008
N7255 G1 X-0.5793 Y-1.3756
N7260 X-0.5881 Y-1.375
N7265 X-0.7892
N7270 G3 X-0.8122 Y-1.3926 I0.0009 J-0.025
N7275 G1 X-0.8134 Y-1.3964 Z-0.1447
N7280 X-0.8145 Y-1.4 Z-0.1438
N7285 X-0.8156 Y-1.4035 Z-0.1423
N7290 X-0.8165 Y-1.4067 Z-0.1402
N7295 X-0.8174 Y-1.4095 Z-0.1377
N7300 X-0.8182 Y-1.4119 Z-0.1347
N7305 X-0.8188 Y-1.4139 Z-0.1313
N7310 X-0.8192 Y-1.4153 Z-0.1277
N7315 X-0.8195 Y-1.4162 Z-0.1239
N7320 X-0.8196 Y-1.4165 Z-0.12
N7325 G0 Z0.2
N7330 G1 X-1.3965 Y-0.7498 F300.
N7335 G0 Z-0.095
N7340 G1 Z-0.12 F20.4
N7345 X-1.3963 Y-0.7495 Z-0.1239
N7350 X-1.3959 Y-0.7487 Z-0.1277
N7355 X-1.3951 Y-0.7474 Z-0.1313
N7360 X-1.394 Y-0.7457 Z-0.1347
N7365 X-1.3927 Y-0.7435 Z-0.1377
N7370 X-1.3912 Y-0.7409 Z-0.1402
N7375 X-1.3895 Y-0.738 Z-0.1423
N7380 X-1.3877 Y-0.7349 Z-0.1438
N7385 X-1.3857 Y-0.7316 Z-0.1447
N7390 X-1.3837 Y-0.7283 Z-0.145
N7395 G3 X-1.375 Y-0.6986 I-0.0536 J0.0318
N7400 G1 Y-0.4849
N7405 G3 X-1.3932 Y-0.3617 I-0.464 J-0.0054
N7410 G1 X-1.4102 Y-0.2877
N7415 X-1.412 Y-0.2794
N7420 X-1.417 Y-0.2548
N7425 X-1.4319 Y-0.1479
N7430 X-1.4343 Y-0.1233
N7435 X-1.4348 Y-0.1151
N7440 X-1.4394 Y-0.0164
N7445 X-1.4395 Y-0.0082
N7450 Y0.0082
N7455 X-1.4394 Y0.0164
N7460 X-1.4348 Y0.1151
N7465 X-1.4343 Y0.1233
N7470 X-1.4319 Y0.1479
N7475 X-1.417 Y0.2548
N7480 X-1.412 Y0.2794
N7485 G3 X-1.3801 Y0.4191 I-4.9406 J1.2026
N7490 X-1.375 Y0.4931 I-0.4797 J0.0706
N7495 G1 Y0.5881
N7500 G3 X-1.3926 Y0.6111 I-0.025 J-0.0009
N7505 G1 X-1.3964 Y0.6122 Z-0.1447
N7510 X-1.4 Y0.6134 Z-0.1438
N7515 X-1.4035 Y0.6144 Z-0.1423
N7520 X-1.4067 Y0.6154 Z-0.1402
N7525 X-1.4095 Y0.6163 Z-0.1377
N7530 X-1.4119 Y0.617 Z-0.1347
N7535 X-1.4139 Y0.6176 Z-0.1313
N7540 X-1.4153 Y0.6181 Z-0.1277
N7545 X-1.4162 Y0.6184 Z-0.1239
N7550 X-1.4165 Z-0.12
N7555 G0 Z0.2
N7560 G1 X-0.7498 Y1.3965 F300.
N7565 G0 Z-0.095
N7570 G1 Z-0.12 F20.4
N7575 X-0.7495 Y1.3963 Z-0.1239
N7580 X-0.7487 Y1.3959 Z-0.1277
N7585 X-0.7474 Y1.3951 Z-0.1313
N7590 X-0.7457 Y1.394 Z-0.1347
N7595 X-0.7435 Y1.3927 Z-0.1377
N7600 X-0.7409 Y1.3912 Z-0.1402
N7605 X-0.738 Y1.3895 Z-0.1423
N7610 X-0.7349 Y1.3877 Z-0.1438
N7615 X-0.7316 Y1.3857 Z-0.1447
N7620 X-0.7283 Y1.3837 Z-0.145
N7625 G3 X-0.6986 Y1.375 I0.0318 J0.0536
N7630 G1 X-0.4849
N7635 G3 X-0.3617 Y1.3932 I-0.0054 J0.464
N7640 G1 X-0.2877 Y1.4102
N7645 X-0.2794 Y1.412
N7650 X-0.2548 Y1.417
N7655 X-0.1479 Y1.4319
N7660 X-0.1233 Y1.4343
N7665 X-0.1151 Y1.4348
N7670 X-0.0164 Y1.4394
N7675 X-0.0082 Y1.4395
N7680 X0.0082
N7685 X0.0164 Y1.4394
N7690 X0.1151 Y1.4348
N7695 X0.1233 Y1.4343
N7700 X0.1479 Y1.4319
N7705 X0.2548 Y1.417
N7710 X0.2794 Y1.412
N7715 G3 X0.4191 Y1.3801 I1.2026 J4.9405
N7720 X0.4931 Y1.375 I0.0706 J0.4797
N7725 G1 X0.5881
N7730 G3 X0.6111 Y1.3926 I-0.0009 J0.025
N7735 G1 X0.6122 Y1.3964 Z-0.1447
N7740 X0.6134 Y1.4 Z-0.1438
N7745 X0.6144 Y1.4035 Z-0.1423
N7750 X0.6154 Y1.4067 Z-0.1402
N7755 X0.6163 Y1.4095 Z-0.1377
N7760 X0.617 Y1.4119 Z-0.1347
N7765 X0.6176 Y1.4139 Z-0.1313
N7770 X0.6181 Y1.4153 Z-0.1277
N7775 X0.6184 Y1.4162 Z-0.1239
N7780 Y1.4165 Z-0.12
N7785 G0 Z0.2
N7790 G1 X1.3965 Y0.7498 F300.
N7795 G0 Z-0.095
N7800 G1 Z-0.12 F20.4
N7805 X1.3963 Y0.7495 Z-0.1239
N7810 X1.3959 Y0.7487 Z-0.1277
N7815 X1.3951 Y0.7474 Z-0.1313
N7820 X1.394 Y0.7457 Z-0.1347
N7825 X1.3927 Y0.7435 Z-0.1377
N7830 X1.3912 Y0.7409 Z-0.1402
N7835 X1.3895 Y0.738 Z-0.1423
N7840 X1.3877 Y0.7349 Z-0.1438
N7845 X1.3857 Y0.7316 Z-0.1447
N7850 X1.3837 Y0.7283 Z-0.145
N7855 G3 X1.375 Y0.6986 I0.0536 J-0.0318
N7860 G1 Y0.4849
N7865 G3 X1.3932 Y0.3617 I0.464 J0.0054
N7870 G1 X1.4102 Y0.2877
N7875 X1.412 Y0.2794
N7880 X1.417 Y0.2548
N7885 X1.4319 Y0.1479
N7890 X1.4343 Y0.1233
N7895 X1.4348 Y0.1151
N7900 X1.4394 Y0.0164
N7905 X1.4395 Y0.0082
N7910 Y-0.0082
N7915 X1.4394 Y-0.0164
N7920 X1.4348 Y-0.1151
N7925 X1.4343 Y-0.1233
N7930 X1.4319 Y-0.1479
N7935 X1.417 Y-0.2548
N7940 X1.412 Y-0.2794
N7945 G3 X1.3801 Y-0.4191 I4.9406 J-1.2026
N7950 X1.375 Y-0.4931 I0.4797 J-0.0706
N7955 G1 Y-0.5881
N7960 G3 X1.3926 Y-0.6111 I0.025 J0.0009
N7965 G1 X1.3964 Y-0.6122 Z-0.1447
N7970 X1.4 Y-0.6134 Z-0.1438
N7975 X1.4035 Y-0.6144 Z-0.1423
N7980 X1.4067 Y-0.6154 Z-0.1402
N7985 X1.4095 Y-0.6163 Z-0.1377
N7990 X1.4119 Y-0.617 Z-0.1347
N7995 X1.4139 Y-0.6176 Z-0.1313
N8000 X1.4153 Y-0.6181 Z-0.1277
N8005 X1.4162 Y-0.6184 Z-0.1239
N8010 X1.4165 Z-0.12
N8015 G0 Z0.2
N8020 G1 X0.7498 Y-1.3965 F300.
N8025 G0 Z-0.095
N8030 G1 Z-0.12 F20.4
N8035 X0.7495 Y-1.3963 Z-0.1239
N8040 X0.7487 Y-1.3959 Z-0.1277
N8045 X0.7474 Y-1.3951 Z-0.1313
N8050 X0.7457 Y-1.394 Z-0.1347
N8055 X0.7435 Y-1.3927 Z-0.1377
N8060 X0.7409 Y-1.3912 Z-0.1402
N8065 X0.738 Y-1.3895 Z-0.1423
N8070 X0.7349 Y-1.3877 Z-0.1438
N8075 X0.7316 Y-1.3857 Z-0.1447
N8080 X0.7283 Y-1.3837 Z-0.145
N8085 G3 X0.6986 Y-1.375 I-0.0318 J-0.0536
N8090 G1 X0.4849
N8095 G3 X0.3617 Y-1.3932 I0.0054 J-0.464
N8100 G1 X0.2877 Y-1.4102
N8105 X0.2794 Y-1.412
N8110 X0.2548 Y-1.417
N8115 X0.1479 Y-1.4319
N8120 X0.1233 Y-1.4343
N8125 X0.1151 Y-1.4348
N8130 X0.0164 Y-1.4394
N8135 X0.0082 Y-1.4395
N8140 X-0.0082
N8145 X-0.0164 Y-1.4394
N8150 X-0.1151 Y-1.4348
N8155 X-0.1233 Y-1.4343
N8160 X-0.1479 Y-1.4319
N8165 X-0.2548 Y-1.417
N8170 X-0.2794 Y-1.412
N8175 G3 X-0.4191 Y-1.3801 I-1.2026 J-4.9405
N8180 X-0.4931 Y-1.375 I-0.0706 J-0.4797
N8185 G1 X-0.5881
N8190 X-0.591 Y-1.3753
N8195 X-0.5939 Y-1.3759
N8200 X-0.5966 Y-1.3772 Z-0.1448
N8205 X-0.5993 Y-1.3785 Z-0.1443
N8210 X-0.6018 Y-1.3797 Z-0.1434
N8215 X-0.604 Y-1.382 Z-0.1419
N8220 X-0.6061 Y-1.3841 Z-0.14
N8225 X-0.6079 Y-1.386 Z-0.1377
N8230 X-0.609 Y-1.3883 Z-0.1347
N8235 X-0.6099 Y-1.3902 Z-0.1314
N8240 X-0.6106 Y-1.3915 Z-0.1277
N8245 X-0.611 Y-1.3923 Z-0.1239
N8250 X-0.6111 Y-1.3926 Z-0.12
N8255 G0 Z0.2
N8260 G1 X-1.314 Y-1.2799 F300.
N8265 G0 Z-0.13
N8270 G1 Z-0.155 F20.4
N8275 Y-1.2796 Z-0.1589
N8280 X-1.3141 Y-1.2787 Z-0.1627
N8285 X-1.3142 Y-1.2772 Z-0.1663
N8290 X-1.3144 Y-1.2751 Z-0.1697
N8295 X-1.3147 Y-1.2726 Z-0.1727
N8300 X-1.315 Y-1.2696 Z-0.1752
N8305 X-1.3153 Y-1.2663 Z-0.1773
N8310 X-1.3156 Y-1.2627 Z-0.1788
N8315 X-1.316 Y-1.2589 Z-0.1797
N8320 X-1.3164 Y-1.255 Z-0.18
N8325 G3 X-1.3442 Y-1.1203 I-0.6353 J-0.0612
N8330 G2 X-1.3645 Y-1.0602 I0.6947 J0.2686
N8335 G1 X-1.3661 Y-1.052
N8340 X-1.3673 Y-1.0438
N8345 X-1.3682 Y-1.0356
N8350 X-1.3715 Y-1.016
N8355 X-1.3768 Y-0.9933
N8360 X-1.3861 Y-0.9635
N8365 X-1.3992 Y-0.9298
N8370 X-1.4142 Y-0.8968
N8375 G2 X-1.5238 Y-0.6686 I4.5792 J2.3402
N8380 X-1.5864 Y-0.4989 I1.8758 J0.7882
N8385 X-1.4228 Y0.8606 I1.589 J0.4983
N8390 G1 X-1.4037 Y0.8913
N8395 X-1.3865 Y0.9175
N8400 X-1.3802 Y0.9294
N8405 X-1.3763 Y0.9424
N8410 X-1.375 Y0.9558
N8415 Y0.9616
N8420 X-1.3749 Y0.9698
N8425 G2 X-1.3646 Y1.0602 I0.901 J-0.0563
N8430 G1 X-1.3622 Y1.0684
N8435 X-1.3595 Y1.0767
N8440 X-1.3538 Y1.0931
N8445 G3 X-1.3524 Y1.1032 Z-0.1779 I-0.0236 J0.0083
N8450 G2 X-1.3507 Y1.1145 Z-0.1756 I0.0249 J0.0019
N8455 G1 X-1.3475 Y1.1224 Z-0.1738
N8460 X-1.3442 Y1.1307 Z-0.172
N8465 X-1.2758 Y1.3008
N8470 G2 X-1.255 Y1.3164 I0.0232 J-0.0093
N8475 G3 X-1.158 Y1.3333 I-0.0612 J0.6353
N8480 G1 X-1.1494 Y1.3356 Z-0.1738
N8485 G3 X-1.1203 Y1.3442 Z-0.18 I-0.1668 J0.6161
N8490 G2 X-1.0602 Y1.3645 I0.2686 J-0.6947
N8495 G1 X-1.052 Y1.3661
N8500 X-1.0438 Y1.3673
N8505 X-1.0356 Y1.3682
N8510 X-1.016 Y1.3715
N8515 X-0.9933 Y1.3768
N8520 X-0.9635 Y1.3861
N8525 X-0.9298 Y1.3992
N8530 X-0.8968 Y1.4142
N8535 G2 X-0.6686 Y1.5238 I2.3402 J-4.5792
N8540 X-0.4989 Y1.5864 I0.7882 J-1.8758
N8545 X0.8606 Y1.4228 I0.4983 J-1.589
N8550 G1 X0.8913 Y1.4037
N8555 X0.9175 Y1.3865
N8560 X0.9294 Y1.3802
N8565 X0.9424 Y1.3763
N8570 X0.9558 Y1.375
N8575 X0.9616
N8580 X0.9698 Y1.3749
N8585 G2 X1.0602 Y1.3646 I-0.0563 J-0.901
N8590 G1 X1.0684 Y1.3622
N8595 X1.0767 Y1.3595
N8600 X1.0931 Y1.3538
N8605 G3 X1.1032 Y1.3524 Z-0.1779 I0.0083 J0.0236
N8610 G2 X1.1145 Y1.3507 Z-0.1756 I0.0019 J-0.0249
N8615 G1 X1.1224 Y1.3475 Z-0.1738
N8620 X1.1307 Y1.3442 Z-0.172
N8625 X1.3008 Y1.2758
N8630 G2 X1.3164 Y1.255 I-0.0093 J-0.0232
N8635 G3 X1.3333 Y1.158 I0.6353 J0.0612
N8640 G1 X1.3356 Y1.1494 Z-0.1738
N8645 G3 X1.3442 Y1.1203 Z-0.18 I0.6161 J0.1668
N8650 G2 X1.3645 Y1.0602 I-0.6947 J-0.2686
N8655 G1 X1.3661 Y1.052
N8660 X1.3673 Y1.0438
N8665 X1.3682 Y1.0356
N8670 X1.3715 Y1.016
N8675 X1.3768 Y0.9933
N8680 X1.3861 Y0.9635
N8685 X1.3992 Y0.9298
N8690 X1.4142 Y0.8968
N8695 G2 X1.5238 Y0.6686 I-4.5791 J-2.3401
N8700 X1.5864 Y0.4989 I-1.8759 J-0.7882
N8705 X1.4228 Y-0.8606 I-1.589 J-0.4983
N8710 G1 X1.4037 Y-0.8914
N8715 X1.3865 Y-0.9175
N8720 X1.3802 Y-0.9294
N8725 X1.3763 Y-0.9424
N8730 X1.375 Y-0.9558
N8735 Y-0.9616
N8740 X1.3749 Y-0.9698
N8745 G2 X1.3646 Y-1.0602 I-0.9014 J0.0563
N8750 G1 X1.3622 Y-1.0684
N8755 X1.3595 Y-1.0767
N8760 X1.3538 Y-1.0931
N8765 G3 X1.3524 Y-1.1032 Z-0.1779 I0.0236 J-0.0083
N8770 G2 X1.3507 Y-1.1145 Z-0.1756 I-0.0249 J-0.0019
N8775 G1 X1.3475 Y-1.1224 Z-0.1738
N8780 X1.3442 Y-1.1307 Z-0.172
N8785 X1.2758 Y-1.3008
N8790 G2 X1.255 Y-1.3164 I-0.0232 J0.0093
N8795 G3 X1.158 Y-1.3333 I0.0612 J-0.6353
N8800 G1 X1.1494 Y-1.3356 Z-0.1738
N8805 G3 X1.1203 Y-1.3442 Z-0.18 I0.1668 J-0.6161
N8810 G2 X1.0602 Y-1.3645 I-0.2686 J0.6947
N8815 G1 X1.052 Y-1.3661
N8820 X1.0438 Y-1.3673
N8825 X1.0356 Y-1.3682
N8830 X1.016 Y-1.3715
N8835 X0.9933 Y-1.3768
N8840 X0.9635 Y-1.3861
N8845 X0.9298 Y-1.3992
N8850 X0.8968 Y-1.4142
N8855 G2 X0.6686 Y-1.5238 I-2.3401 J4.5791
N8860 X0.4989 Y-1.5864 I-0.7882 J1.8759
N8865 X-0.8606 Y-1.4228 I-0.4983 J1.589
N8870 G1 X-0.8914 Y-1.4037
N8875 X-0.9175 Y-1.3865
N8880 X-0.9294 Y-1.3802
N8885 X-0.9424 Y-1.3763
N8890 X-0.9558 Y-1.375
N8895 X-0.9616
N8900 X-0.9698 Y-1.3749
N8905 G2 X-1.0602 Y-1.3646 I0.0563 J0.9014
N8910 G1 X-1.0684 Y-1.3622
N8915 X-1.0767 Y-1.3595
N8920 X-1.0931 Y-1.3538
N8925 G3 X-1.1206 Y-1.3628 I-0.0074 J-0.0239
N8930 G1 X-1.123 Y-1.3659 Z-0.1797
N8935 X-1.1252 Y-1.369 Z-0.1788
N8940 X-1.1274 Y-1.3719 Z-0.1773
N8945 X-1.1294 Y-1.3746 Z-0.1752
N8950 X-1.1311 Y-1.377 Z-0.1727
N8955 X-1.1327 Y-1.3791 Z-0.1697
N8960 X-1.1339 Y-1.3807 Z-0.1663
N8965 X-1.1348 Y-1.3819 Z-0.1627
N8970 X-1.1353 Y-1.3827 Z-0.1589
N8975 X-1.1355 Y-1.3829 Z-0.155
N8980 G0 Z0.2
N8985 G1 X-1.3838 Y-1.0888 F300.
N8990 G0 Z-0.13
N8995 G1 Z-0.155 F20.4
N9000 X-1.3837 Y-1.0886 Z-0.1589
N9005 X-1.3833 Y-1.0877 Z-0.1627
N9010 X-1.3827 Y-1.0863 Z-0.1663
N9015 X-1.3818 Y-1.0845 Z-0.1697
N9020 X-1.3808 Y-1.0822 Z-0.1727
N9025 X-1.3796 Y-1.0794 Z-0.1752
N9030 X-1.3782 Y-1.0764 Z-0.1773
N9035 X-1.3767 Y-1.0731 Z-0.1788
N9040 X-1.3751 Y-1.0696 Z-0.1797
N9045 X-1.3735 Y-1.066 Z-0.18
N9050 G3 X-1.3682 Y-1.0356 I-0.0568 J0.0256
N9055 G1 X-1.3729 Y-0.9945
N9060 X-1.3749 Y-0.9698
N9065 X-1.375 Y-0.9616
N9070 Y-0.8958
N9075 X-1.3763 Y-0.8697
N9080 X-1.3788 Y-0.8487
N9085 X-1.3841 Y-0.8211
N9090 X-1.3933 Y-0.7861
N9095 G3 X-1.4558 Y-0.6164 I-2.6997 J-0.8989
N9100 G2 X-1.5539 Y-0.2687 I1.759 J0.6836
N9105 X-1.3838 Y0.7555 I1.5593 J0.2673
N9110 G1 X-1.3789 Y0.7661
N9115 X-1.376 Y0.7775
N9120 X-1.375 Y0.7892
N9125 Y0.9558
N9130 G3 X-1.3926 Y0.9788 I-0.025 J-0.0009
N9135 G1 X-1.3964 Y0.98 Z-0.1797
N9140 X-1.4 Y0.9811 Z-0.1788
N9145 X-1.4035 Y0.9822 Z-0.1773
N9150 X-1.4067 Y0.9832 Z-0.1752
N9155 X-1.4095 Y0.984 Z-0.1727
N9160 X-1.4119 Y0.9848 Z-0.1697
N9165 X-1.4139 Y0.9854 Z-0.1663
N9170 X-1.4153 Y0.9858 Z-0.1627
N9175 X-1.4162 Y0.9861 Z-0.1589
N9180 X-1.4165 Y0.9862 Z-0.155
N9185 G0 Z0.2
N9190 G1 X-1.0888 Y1.3838 F300.
N9195 G0 Z-0.13
N9200 G1 Z-0.155 F20.4
N9205 X-1.0886 Y1.3837 Z-0.1589
N9210 X-1.0877 Y1.3833 Z-0.1627
N9215 X-1.0863 Y1.3827 Z-0.1663
N9220 X-1.0845 Y1.3818 Z-0.1697
N9225 X-1.0822 Y1.3808 Z-0.1727
N9230 X-1.0794 Y1.3796 Z-0.1752
N9235 X-1.0764 Y1.3782 Z-0.1773
N9240 X-1.0731 Y1.3767 Z-0.1788
N9245 X-1.0696 Y1.3751 Z-0.1797
N9250 X-1.066 Y1.3735 Z-0.18
N9255 G3 X-1.0356 Y1.3682 I0.0256 J0.0568
N9260 G1 X-0.9945 Y1.3729
N9265 X-0.9698 Y1.3749
N9270 X-0.9616 Y1.375
N9275 X-0.8958
N9280 X-0.8697 Y1.3763
N9285 X-0.8487 Y1.3788
N9290 X-0.8211 Y1.3841
N9295 X-0.7861 Y1.3933
N9300 G3 X-0.6164 Y1.4558 I-0.8989 J2.6997
N9305 G2 X-0.2687 Y1.5539 I0.6836 J-1.759
N9310 X0.7555 Y1.3838 I0.2673 J-1.5593
N9315 G1 X0.7661 Y1.3789
N9320 X0.7775 Y1.376
N9325 X0.7892 Y1.375
N9330 X0.9558
N9335 G3 X0.9788 Y1.3926 I-0.0009 J0.025
N9340 G1 X0.98 Y1.3964 Z-0.1797
N9345 X0.9811 Y1.4 Z-0.1788
N9350 X0.9822 Y1.4035 Z-0.1773
N9355 X0.9832 Y1.4067 Z-0.1752
N9360 X0.984 Y1.4095 Z-0.1727
N9365 X0.9848 Y1.4119 Z-0.1697
N9370 X0.9854 Y1.4139 Z-0.1663
N9375 X0.9858 Y1.4153 Z-0.1627
N9380 X0.9861 Y1.4162 Z-0.1589
N9385 X0.9862 Y1.4165 Z-0.155
N9390 G0 Z0.2
N9395 G1 X1.3838 Y1.0888 F300.
N9400 G0 Z-0.13
N9405 G1 Z-0.155 F20.4
N9410 X1.3837 Y1.0886 Z-0.1589
N9415 X1.3833 Y1.0877 Z-0.1627
N9420 X1.3827 Y1.0863 Z-0.1663
N9425 X1.3818 Y1.0845 Z-0.1697
N9430 X1.3808 Y1.0822 Z-0.1727
N9435 X1.3796 Y1.0794 Z-0.1752
N9440 X1.3782 Y1.0764 Z-0.1773
N9445 X1.3767 Y1.0731 Z-0.1788
N9450 X1.3751 Y1.0696 Z-0.1797
N9455 X1.3735 Y1.066 Z-0.18
N9460 G3 X1.3682 Y1.0356 I0.0568 J-0.0256
N9465 G1 X1.3729 Y0.9945
N9470 X1.3749 Y0.9698
N9475 X1.375 Y0.9616
N9480 Y0.8958
N9485 X1.3763 Y0.8697
N9490 X1.3788 Y0.8487
N9495 X1.3841 Y0.8211
N9500 X1.3933 Y0.7861
N9505 G3 X1.4558 Y0.6164 I2.6998 J0.8989
N9510 G2 X1.5539 Y0.2687 I-1.759 J-0.6836
N9515 X1.3838 Y-0.7555 I-1.5593 J-0.2673
N9520 G1 X1.3789 Y-0.7661
N9525 X1.376 Y-0.7775
N9530 X1.375 Y-0.7892
N9535 Y-0.9558
N9540 G3 X1.3926 Y-0.9788 I0.025 J0.0009
N9545 G1 X1.3964 Y-0.98 Z-0.1797
N9550 X1.4 Y-0.9811 Z-0.1788
N9555 X1.4035 Y-0.9822 Z-0.1773
N9560 X1.4067 Y-0.9832 Z-0.1752
N9565 X1.4095 Y-0.984 Z-0.1727
N9570 X1.4119 Y-0.9848 Z-0.1697
N9575 X1.4139 Y-0.9854 Z-0.1663
N9580 X1.4153 Y-0.9858 Z-0.1627
N9585 X1.4162 Y-0.9861 Z-0.1589
N9590 X1.4165 Y-0.9862 Z-0.155
N9595 G0 Z0.2
N9600 G1 X1.0888 Y-1.3838 F300.
N9605 G0 Z-0.13
N9610 G1 Z-0.155 F20.4
N9615 X1.0886 Y-1.3837 Z-0.1589
N9620 X1.0877 Y-1.3833 Z-0.1627
N9625 X1.0863 Y-1.3827 Z-0.1663
N9630 X1.0845 Y-1.3818 Z-0.1697
N9635 X1.0822 Y-1.3808 Z-0.1727
N9640 X1.0794 Y-1.3796 Z-0.1752
N9645 X1.0764 Y-1.3782 Z-0.1773
N9650 X1.0731 Y-1.3767 Z-0.1788
N9655 X1.0696 Y-1.3751 Z-0.1797
N9660 X1.066 Y-1.3735 Z-0.18
N9665 G3 X1.0356 Y-1.3682 I-0.0256 J-0.0568
N9670 G1 X0.9945 Y-1.3729
N9675 X0.9698 Y-1.3749
N9680 X0.9616 Y-1.375
N9685 X0.8958
N9690 X0.8697 Y-1.3763
N9695 X0.8487 Y-1.3788
N9700 X0.8211 Y-1.3841
N9705 X0.7861 Y-1.3933
N9710 G3 X0.6164 Y-1.4558 I0.8989 J-2.6998
N9715 G2 X0.2687 Y-1.5539 I-0.6836 J1.759
N9720 X-0.7555 Y-1.3838 I-0.2673 J1.5593
N9725 G1 X-0.7661 Y-1.3789
N9730 X-0.7775 Y-1.376
N9735 X-0.7892 Y-1.375
N9740 X-0.9558
N9745 G3 X-0.9788 Y-1.3926 I0.0009 J-0.025
N9750 G1 X-0.98 Y-1.3964 Z-0.1797
N9755 X-0.9811 Y-1.4 Z-0.1788
N9760 X-0.9822 Y-1.4035 Z-0.1773
N9765 X-0.9832 Y-1.4067 Z-0.1752
N9770 X-0.984 Y-1.4095 Z-0.1727
N9775 X-0.9848 Y-1.4119 Z-0.1697
N9780 X-0.9854 Y-1.4139 Z-0.1663
N9785 X-0.9858 Y-1.4153 Z-0.1627
N9790 X-0.9861 Y-1.4162 Z-0.1589
N9795 X-0.9862 Y-1.4165 Z-0.155
N9800 G0 Z0.2
N9805 G1 X-1.3965 Y-0.947 F300.
N9810 G0 Z-0.13
N9815 G1 Z-0.155 F20.4
N9820 X-1.3963 Y-0.9467 Z-0.1589
N9825 X-1.3959 Y-0.946 Z-0.1627
N9830 X-1.3951 Y-0.9447 Z-0.1663
N9835 X-1.394 Y-0.9429 Z-0.1697
N9840 X-1.3927 Y-0.9407 Z-0.1727
N9845 X-1.3912 Y-0.9381 Z-0.1752
N9850 X-1.3895 Y-0.9353 Z-0.1773
N9855 X-1.3877 Y-0.9322 Z-0.1788
N9860 X-1.3857 Y-0.9289 Z-0.1797
N9865 X-1.3837 Y-0.9255 Z-0.18
N9870 G3 X-1.375 Y-0.8958 I-0.0536 J0.0318
N9875 G1 Y-0.6986
N9880 X-1.3766 Y-0.6671
N9885 X-1.3806 Y-0.6339
N9890 X-1.3873 Y-0.5983
N9895 G3 X-1.433 Y-0.4233 I-4.6593 J-1.1235
N9900 G2 X-1.487 Y-0.1026 I1.7324 J0.4565
N9905 X-1.3769 Y0.5704 I1.5008 J0.0999
N9910 G1 X-1.3756 Y0.5793
N9915 X-1.375 Y0.5881
N9920 Y0.7892
N9925 G3 X-1.3926 Y0.8122 I-0.025 J-0.0009
N9930 G1 X-1.3964 Y0.8134 Z-0.1797
N9935 X-1.4 Y0.8145 Z-0.1788
N9940 X-1.4035 Y0.8156 Z-0.1773
N9945 X-1.4067 Y0.8165 Z-0.1752
N9950 X-1.4095 Y0.8174 Z-0.1727
N9955 X-1.4119 Y0.8182 Z-0.1697
N9960 X-1.4139 Y0.8188 Z-0.1663
N9965 X-1.4153 Y0.8192 Z-0.1627
N9970 X-1.4162 Y0.8195 Z-0.1589
N9975 X-1.4165 Y0.8196 Z-0.155
N9980 G0 Z0.2
N9985 G1 X-0.947 Y1.3965 F300.
N9990 G0 Z-0.13
N9995 G1 Z-0.155 F20.4
N10000 X-0.9467 Y1.3963 Z-0.1589
N10005 X-0.946 Y1.3959 Z-0.1627
N10010 X-0.9447 Y1.3951 Z-0.1663
N10015 X-0.9429 Y1.394 Z-0.1697
N10020 X-0.9407 Y1.3927 Z-0.1727
N10025 X-0.9381 Y1.3912 Z-0.1752
N10030 X-0.9353 Y1.3895 Z-0.1773
N10035 X-0.9322 Y1.3877 Z-0.1788
N10040 X-0.9289 Y1.3857 Z-0.1797
N10045 X-0.9255 Y1.3837 Z-0.18
N10050 G3 X-0.8958 Y1.375 I0.0318 J0.0536
N10055 G1 X-0.6986
N10060 X-0.6671 Y1.3766
N10065 X-0.6339 Y1.3806
N10070 X-0.5983 Y1.3873
N10075 G3 X-0.4233 Y1.433 I-1.1235 J4.6593
N10080 G2 X-0.1026 Y1.487 I0.4565 J-1.7324
N10085 X0.5704 Y1.3769 I0.0999 J-1.5008
N10090 G1 X0.5793 Y1.3756
N10095 X0.5881 Y1.375
N10100 X0.7892
N10105 G3 X0.8122 Y1.3926 I-0.0009 J0.025
N10110 G1 X0.8134 Y1.3964 Z-0.1797
N10115 X0.8145 Y1.4 Z-0.1788
N10120 X0.8156 Y1.4035 Z-0.1773
N10125 X0.8165 Y1.4067 Z-0.1752
N10130 X0.8174 Y1.4095 Z-0.1727
N10135 X0.8182 Y1.4119 Z-0.1697
N10140 X0.8188 Y1.4139 Z-0.1663
N10145 X0.8192 Y1.4153 Z-0.1627
N10150 X0.8195 Y1.4162 Z-0.1589
N10155 X0.8196 Y1.4165 Z-0.155
N10160 G0 Z0.2
N10165 G1 X1.3965 Y0.947 F300.
N10170 G0 Z-0.13
N10175 G1 Z-0.155 F20.4
N10180 X1.3963 Y0.9467 Z-0.1589
N10185 X1.3959 Y0.946 Z-0.1627
N10190 X1.3951 Y0.9447 Z-0.1663
N10195 X1.394 Y0.9429 Z-0.1697
N10200 X1.3927 Y0.9407 Z-0.1727
N10205 X1.3912 Y0.9381 Z-0.1752
N10210 X1.3895 Y0.9353 Z-0.1773
N10215 X1.3877 Y0.9322 Z-0.1788
N10220 X1.3857 Y0.9289 Z-0.1797
N10225 X1.3837 Y0.9255 Z-0.18
N10230 G3 X1.375 Y0.8958 I0.0536 J-0.0318
N10235 G1 Y0.6986
N10240 X1.3766 Y0.6671
N10245 X1.3806 Y0.6339
N10250 X1.3873 Y0.5983
N10255 G3 X1.433 Y0.4233 I4.6593 J1.1235
N10260 G2 X1.487 Y0.1026 I-1.7324 J-0.4565
N10265 X1.3769 Y-0.5704 I-1.5008 J-0.0999
N10270 G1 X1.3756 Y-0.5793
N10275 X1.375 Y-0.5881
N10280 Y-0.7892
N10285 G3 X1.3926 Y-0.8122 I0.025 J0.0009
N10290 G1 X1.3964 Y-0.8134 Z-0.1797
N10295 X1.4 Y-0.8145 Z-0.1788
N10300 X1.4035 Y-0.8156 Z-0.1773
N10305 X1.4067 Y-0.8165 Z-0.1752
N10310 X1.4095 Y-0.8174 Z-0.1727
N10315 X1.4119 Y-0.8182 Z-0.1697
N10320 X1.4139 Y-0.8188 Z-0.1663
N10325 X1.4153 Y-0.8192 Z-0.1627
N10330 X1.4162 Y-0.8195 Z-0.1589
N10335 X1.4165 Y-0.8196 Z-0.155
N10340 G0 Z0.2
N10345 G1 X0.947 Y-1.3965 F300.
N10350 G0 Z-0.13
N10355 G1 Z-0.155 F20.4
N10360 X0.9467 Y-1.3963 Z-0.1589
N10365 X0.946 Y-1.3959 Z-0.1627
N10370 X0.9447 Y-1.3951 Z-0.1663
N10375 X0.9429 Y-1.394 Z-0.1697
N10380 X0.9407 Y-1.3927 Z-0.1727
N10385 X0.9381 Y-1.3912 Z-0.1752
N10390 X0.9353 Y-1.3895 Z-0.1773
N10395 X0.9322 Y-1.3877 Z-0.1788
N10400 X0.9289 Y-1.3857 Z-0.1797
N10405 X0.9255 Y-1.3837 Z-0.18
N10410 G3 X0.8958 Y-1.375 I-0.0318 J-0.0536
N10415 G1 X0.6986
N10420 X0.6671 Y-1.3766
N10425 X0.6339 Y-1.3806
N10430 X0.5983 Y-1.3873
N10435 G3 X0.4233 Y-1.433 I1.1235 J-4.6593
N10440 G2 X0.1026 Y-1.487 I-0.4565 J1.7324
N10445 X-0.5704 Y-1.3769 I-0.0999 J1.5008
N10450 G1 X-0.5793 Y-1.3756
N10455 X-0.5881 Y-1.375
N10460 X-0.7892
N10465 G3 X-0.8122 Y-1.3926 I0.0009 J-0.025
N10470 G1 X-0.8134 Y-1.3964 Z-0.1797
N10475 X-0.8145 Y-1.4 Z-0.1788
N10480 X-0.8156 Y-1.4035 Z-0.1773
N10485 X-0.8165 Y-1.4067 Z-0.1752
N10490 X-0.8174 Y-1.4095 Z-0.1727
N10495 X-0.8182 Y-1.4119 Z-0.1697
N10500 X-0.8188 Y-1.4139 Z-0.1663
N10505 X-0.8192 Y-1.4153 Z-0.1627
N10510 X-0.8195 Y-1.4162 Z-0.1589
N10515 X-0.8196 Y-1.4165 Z-0.155
N10520 G0 Z0.2
N10525 G1 X-1.3965 Y-0.7498 F300.
N10530 G0 Z-0.13
N10535 G1 Z-0.155 F20.4
N10540 X-1.3963 Y-0.7495 Z-0.1589
N10545 X-1.3959 Y-0.7487 Z-0.1627
N10550 X-1.3951 Y-0.7474 Z-0.1663
N10555 X-1.394 Y-0.7457 Z-0.1697
N10560 X-1.3927 Y-0.7435 Z-0.1727
N10565 X-1.3912 Y-0.7409 Z-0.1752
N10570 X-1.3895 Y-0.738 Z-0.1773
N10575 X-1.3877 Y-0.7349 Z-0.1788
N10580 X-1.3857 Y-0.7316 Z-0.1797
N10585 X-1.3837 Y-0.7283 Z-0.18
N10590 G3 X-1.375 Y-0.6986 I-0.0536 J0.0318
N10595 G1 Y-0.4849
N10600 G3 X-1.3932 Y-0.3617 I-0.464 J-0.0054
N10605 G1 X-1.4102 Y-0.2877
N10610 X-1.412 Y-0.2794
N10615 X-1.417 Y-0.2548
N10620 X-1.4319 Y-0.1479
N10625 X-1.4343 Y-0.1233
N10630 X-1.4348 Y-0.1151
N10635 X-1.4394 Y-0.0164
N10640 X-1.4395 Y-0.0082
N10645 Y0.0082
N10650 X-1.4394 Y0.0164
N10655 X-1.4348 Y0.1151
N10660 X-1.4343 Y0.1233
N10665 X-1.4319 Y0.1479
N10670 X-1.417 Y0.2548
N10675 X-1.412 Y0.2794
N10680 G3 X-1.3801 Y0.4191 I-4.9406 J1.2026
N10685 X-1.375 Y0.4931 I-0.4797 J0.0706
N10690 G1 Y0.5881
N10695 G3 X-1.3926 Y0.6111 I-0.025 J-0.0009
N10700 G1 X-1.3964 Y0.6122 Z-0.1797
N10705 X-1.4 Y0.6134 Z-0.1788
N10710 X-1.4035 Y0.6144 Z-0.1773
N10715 X-1.4067 Y0.6154 Z-0.1752
N10720 X-1.4095 Y0.6163 Z-0.1727
N10725 X-1.4119 Y0.617 Z-0.1697
N10730 X-1.4139 Y0.6176 Z-0.1663
N10735 X-1.4153 Y0.6181 Z-0.1627
N10740 X-1.4162 Y0.6184 Z-0.1589
N10745 X-1.4165 Z-0.155
N10750 G0 Z0.2
N10755 G1 X-0.7498 Y1.3965 F300.
N10760 G0 Z-0.13
N10765 G1 Z-0.155 F20.4
N10770 X-0.7495 Y1.3963 Z-0.1589
N10775 X-0.7487 Y1.3959 Z-0.1627
N10780 X-0.7474 Y1.3951 Z-0.1663
N10785 X-0.7457 Y1.394 Z-0.1697
N10790 X-0.7435 Y1.3927 Z-0.1727
N10795 X-0.7409 Y1.3912 Z-0.1752
N10800 X-0.738 Y1.3895 Z-0.1773
N10805 X-0.7349 Y1.3877 Z-0.1788
N10810 X-0.7316 Y1.3857 Z-0.1797
N10815 X-0.7283 Y1.3837 Z-0.18
N10820 G3 X-0.6986 Y1.375 I0.0318 J0.0536
N10825 G1 X-0.4849
N10830 G3 X-0.3617 Y1.3932 I-0.0054 J0.464
N10835 G1 X-0.2877 Y1.4102
N10840 X-0.2794 Y1.412
N10845 X-0.2548 Y1.417
N10850 X-0.1479 Y1.4319
N10855 X-0.1233 Y1.4343
N10860 X-0.1151 Y1.4348
N10865 X-0.0164 Y1.4394
N10870 X-0.0082 Y1.4395
N10875 X0.0082
N10880 X0.0164 Y1.4394
N10885 X0.1151 Y1.4348
N10890 X0.1233 Y1.4343
N10895 X0.1479 Y1.4319
N10900 X0.2548 Y1.417
N10905 X0.2794 Y1.412
N10910 G3 X0.4191 Y1.3801 I1.2026 J4.9405
N10915 X0.4931 Y1.375 I0.0706 J0.4797
N10920 G1 X0.5881
N10925 G3 X0.6111 Y1.3926 I-0.0009 J0.025
N10930 G1 X0.6122 Y1.3964 Z-0.1797
N10935 X0.6134 Y1.4 Z-0.1788
N10940 X0.6144 Y1.4035 Z-0.1773
N10945 X0.6154 Y1.4067 Z-0.1752
N10950 X0.6163 Y1.4095 Z-0.1727
N10955 X0.617 Y1.4119 Z-0.1697
N10960 X0.6176 Y1.4139 Z-0.1663
N10965 X0.6181 Y1.4153 Z-0.1627
N10970 X0.6184 Y1.4162 Z-0.1589
N10975 Y1.4165 Z-0.155
N10980 G0 Z0.2
N10985 G1 X1.3965 Y0.7498 F300.
N10990 G0 Z-0.13
N10995 G1 Z-0.155 F20.4
N11000 X1.3963 Y0.7495 Z-0.1589
N11005 X1.3959 Y0.7487 Z-0.1627
N11010 X1.3951 Y0.7474 Z-0.1663
N11015 X1.394 Y0.7457 Z-0.1697
N11020 X1.3927 Y0.7435 Z-0.1727
N11025 X1.3912 Y0.7409 Z-0.1752
N11030 X1.3895 Y0.738 Z-0.1773
N11035 X1.3877 Y0.7349 Z-0.1788
N11040 X1.3857 Y0.7316 Z-0.1797
N11045 X1.3837 Y0.7283 Z-0.18
N11050 G3 X1.375 Y0.6986 I0.0536 J-0.0318
N11055 G1 Y0.4849
N11060 G3 X1.3932 Y0.3617 I0.464 J0.0054
N11065 G1 X1.4102 Y0.2877
N11070 X1.412 Y0.2794
N11075 X1.417 Y0.2548
N11080 X1.4319 Y0.1479
N11085 X1.4343 Y0.1233
N11090 X1.4348 Y0.1151
N11095 X1.4394 Y0.0164
N11100 X1.4395 Y0.0082
N11105 Y-0.0082
N11110 X1.4394 Y-0.0164
N11115 X1.4348 Y-0.1151
N11120 X1.4343 Y-0.1233
N11125 X1.4319 Y-0.1479
N11130 X1.417 Y-0.2548
N11135 X1.412 Y-0.2794
N11140 G3 X1.3801 Y-0.4191 I4.9406 J-1.2026
N11145 X1.375 Y-0.4931 I0.4797 J-0.0706
N11150 G1 Y-0.5881
N11155 G3 X1.3926 Y-0.6111 I0.025 J0.0009
N11160 G1 X1.3964 Y-0.6122 Z-0.1797
N11165 X1.4 Y-0.6134 Z-0.1788
N11170 X1.4035 Y-0.6144 Z-0.1773
N11175 X1.4067 Y-0.6154 Z-0.1752
N11180 X1.4095 Y-0.6163 Z-0.1727
N11185 X1.4119 Y-0.617 Z-0.1697
N11190 X1.4139 Y-0.6176 Z-0.1663
N11195 X1.4153 Y-0.6181 Z-0.1627
N11200 X1.4162 Y-0.6184 Z-0.1589
N11205 X1.4165 Z-0.155
N11210 G0 Z0.2
N11215 G1 X0.7498 Y-1.3965 F300.
N11220 G0 Z-0.13
N11225 G1 Z-0.155 F20.4
N11230 X0.7495 Y-1.3963 Z-0.1589
N11235 X0.7487 Y-1.3959 Z-0.1627
N11240 X0.7474 Y-1.3951 Z-0.1663
N11245 X0.7457 Y-1.394 Z-0.1697
N11250 X0.7435 Y-1.3927 Z-0.1727
N11255 X0.7409 Y-1.3912 Z-0.1752
N11260 X0.738 Y-1.3895 Z-0.1773
N11265 X0.7349 Y-1.3877 Z-0.1788
N11270 X0.7316 Y-1.3857 Z-0.1797
N11275 X0.7283 Y-1.3837 Z-0.18
N11280 G3 X0.6986 Y-1.375 I-0.0318 J-0.0536
N11285 G1 X0.4849
N11290 G3 X0.3617 Y-1.3932 I0.0054 J-0.464
N11295 G1 X0.2877 Y-1.4102
N11300 X0.2794 Y-1.412
N11305 X0.2548 Y-1.417
N11310 X0.1479 Y-1.4319
N11315 X0.1233 Y-1.4343
N11320 X0.1151 Y-1.4348
N11325 X0.0164 Y-1.4394
N11330 X0.0082 Y-1.4395
N11335 X-0.0082
N11340 X-0.0164 Y-1.4394
N11345 X-0.1151 Y-1.4348
N11350 X-0.1233 Y-1.4343
N11355 X-0.1479 Y-1.4319
N11360 X-0.2548 Y-1.417
N11365 X-0.2794 Y-1.412
N11370 G3 X-0.4191 Y-1.3801 I-1.2026 J-4.9405
N11375 X-0.4931 Y-1.375 I-0.0706 J-0.4797
N11380 G1 X-0.5881
N11385 X-0.591 Y-1.3753
N11390 X-0.5939 Y-1.3759
N11395 X-0.5966 Y-1.3772 Z-0.1798
N11400 X-0.5993 Y-1.3785 Z-0.1793
N11405 X-0.6018 Y-1.3797 Z-0.1784
N11410 X-0.604 Y-1.382 Z-0.1769
N11415 X-0.6061 Y-1.3841 Z-0.175
N11420 X-0.6079 Y-1.386 Z-0.1727
N11425 X-0.609 Y-1.3883 Z-0.1697
N11430 X-0.6099 Y-1.3902 Z-0.1664
N11435 X-0.6106 Y-1.3915 Z-0.1627
N11440 X-0.611 Y-1.3923 Z-0.1589
N11445 X-0.6111 Y-1.3926 Z-0.155
N11450 G0 Z0.2
N11455 G1 X-1.314 Y-1.2799 F300.
N11460 G0 Z-0.165
N11465 G1 Z-0.19 F20.4
N11470 Y-1.2796 Z-0.1939
N11475 X-1.3141 Y-1.2787 Z-0.1977
N11480 X-1.3142 Y-1.2772 Z-0.2013
N11485 X-1.3144 Y-1.2751 Z-0.2047
N11490 X-1.3147 Y-1.2726 Z-0.2077
N11495 X-1.315 Y-1.2696 Z-0.2102
N11500 X-1.3153 Y-1.2663 Z-0.2123
N11505 X-1.3156 Y-1.2627 Z-0.2138
N11510 X-1.316 Y-1.2589 Z-0.2147
N11515 X-1.3164 Y-1.255 Z-0.215
N11520 G3 X-1.3442 Y-1.1203 I-0.6353 J-0.0612
N11525 G2 X-1.3645 Y-1.0602 I0.6947 J0.2686
N11530 G1 X-1.3661 Y-1.052
N11535 X-1.3673 Y-1.0438
N11540 X-1.3682 Y-1.0356
N11545 X-1.3715 Y-1.016
N11550 X-1.3768 Y-0.9933
N11555 X-1.3861 Y-0.9635
N11560 X-1.3992 Y-0.9298
N11565 X-1.4142 Y-0.8968
N11570 G2 X-1.5238 Y-0.6686 I4.5792 J2.3402
N11575 X-1.5864 Y-0.4989 I1.8758 J0.7882
N11580 X-1.4228 Y0.8606 I1.589 J0.4983
N11585 G1 X-1.4037 Y0.8913
N11590 X-1.3865 Y0.9175
N11595 X-1.3802 Y0.9294
N11600 X-1.3763 Y0.9424
N11605 X-1.375 Y0.9558
N11610 Y0.9616
N11615 X-1.3749 Y0.9698
N11620 G2 X-1.3646 Y1.0602 I0.901 J-0.0563
N11625 G1 X-1.3622 Y1.0684
N11630 X-1.3595 Y1.0767
N11635 X-1.3538 Y1.0931
N11640 G3 X-1.3524 Y1.1032 Z-0.2129 I-0.0236 J0.0083
N11645 G2 X-1.3507 Y1.1145 Z-0.2106 I0.0249 J0.0019
N11650 G1 X-1.3475 Y1.1224 Z-0.2088
N11655 X-1.3442 Y1.1307 Z-0.207
N11660 X-1.2758 Y1.3008
N11665 G2 X-1.255 Y1.3164 I0.0232 J-0.0093
N11670 G3 X-1.158 Y1.3333 I-0.0612 J0.6353
N11675 G1 X-1.1494 Y1.3356 Z-0.2088
N11680 G3 X-1.1203 Y1.3442 Z-0.215 I-0.1668 J0.6161
N11685 G2 X-1.0602 Y1.3645 I0.2686 J-0.6947
N11690 G1 X-1.052 Y1.3661
N11695 X-1.0438 Y1.3673
N11700 X-1.0356 Y1.3682
N11705 X-1.016 Y1.3715
N11710 X-0.9933 Y1.3768
N11715 X-0.9635 Y1.3861
N11720 X-0.9298 Y1.3992
N11725 X-0.8968 Y1.4142
N11730 G2 X-0.6686 Y1.5238 I2.3402 J-4.5792
N11735 X-0.4989 Y1.5864 I0.7882 J-1.8758
N11740 X0.8606 Y1.4228 I0.4983 J-1.589
N11745 G1 X0.8913 Y1.4037
N11750 X0.9175 Y1.3865
N11755 X0.9294 Y1.3802
N11760 X0.9424 Y1.3763
N11765 X0.9558 Y1.375
N11770 X0.9616
N11775 X0.9698 Y1.3749
N11780 G2 X1.0602 Y1.3646 I-0.0563 J-0.901
N11785 G1 X1.0684 Y1.3622
N11790 X1.0767 Y1.3595
N11795 X1.0931 Y1.3538
N11800 G3 X1.1032 Y1.3524 Z-0.2129 I0.0083 J0.0236
N11805 G2 X1.1145 Y1.3507 Z-0.2106 I0.0019 J-0.0249
N11810 G1 X1.1224 Y1.3475 Z-0.2088
N11815 X1.1307 Y1.3442 Z-0.207
N11820 X1.3008 Y1.2758
N11825 G2 X1.3164 Y1.255 I-0.0093 J-0.0232
N11830 G3 X1.3333 Y1.158 I0.6353 J0.0612
N11835 G1 X1.3356 Y1.1494 Z-0.2088
N11840 G3 X1.3442 Y1.1203 Z-0.215 I0.6161 J0.1668
N11845 G2 X1.3645 Y1.0602 I-0.6947 J-0.2686
N11850 G1 X1.3661 Y1.052
N11855 X1.3673 Y1.0438
N11860 X1.3682 Y1.0356
N11865 X1.3715 Y1.016
N11870 X1.3768 Y0.9933
N11875 X1.3861 Y0.9635
N11880 X1.3992 Y0.9298
N11885 X1.4142 Y0.8968
N11890 G2 X1.5238 Y0.6686 I-4.5791 J-2.3401
N11895 X1.5864 Y0.4989 I-1.8759 J-0.7882
N11900 X1.4228 Y-0.8606 I-1.589 J-0.4983
N11905 G1 X1.4037 Y-0.8914
N11910 X1.3865 Y-0.9175
N11915 X1.3802 Y-0.9294
N11920 X1.3763 Y-0.9424
N11925 X1.375 Y-0.9558
N11930 Y-0.9616
N11935 X1.3749 Y-0.9698
N11940 G2 X1.3646 Y-1.0602 I-0.9014 J0.0563
N11945 G1 X1.3622 Y-1.0684
N11950 X1.3595 Y-1.0767
N11955 X1.3538 Y-1.0931
N11960 G3 X1.3524 Y-1.1032 Z-0.2129 I0.0236 J-0.0083
N11965 G2 X1.3507 Y-1.1145 Z-0.2106 I-0.0249 J-0.0019
N11970 G1 X1.3475 Y-1.1224 Z-0.2088
N11975 X1.3442 Y-1.1307 Z-0.207
N11980 X1.2758 Y-1.3008
N11985 G2 X1.255 Y-1.3164 I-0.0232 J0.0093
N11990 G3 X1.158 Y-1.3333 I0.0612 J-0.6353
N11995 G1 X1.1494 Y-1.3356 Z-0.2088
N12000 G3 X1.1203 Y-1.3442 Z-0.215 I0.1668 J-0.6161
N12005 G2 X1.0602 Y-1.3645 I-0.2686 J0.6947
N12010 G1 X1.052 Y-1.3661
N12015 X1.0438 Y-1.3673
N12020 X1.0356 Y-1.3682
N12025 X1.016 Y-1.3715
N12030 X0.9933 Y-1.3768
N12035 X0.9635 Y-1.3861
N12040 X0.9298 Y-1.3992
N12045 X0.8968 Y-1.4142
N12050 G2 X0.6686 Y-1.5238 I-2.3401 J4.5791
N12055 X0.4989 Y-1.5864 I-0.7882 J1.8759
N12060 X-0.8606 Y-1.4228 I-0.4983 J1.589
N12065 G1 X-0.8914 Y-1.4037
N12070 X-0.9175 Y-1.3865
N12075 X-0.9294 Y-1.3802
N12080 X-0.9424 Y-1.3763
N12085 X-0.9558 Y-1.375
N12090 X-0.9616
N12095 X-0.9698 Y-1.3749
N12100 G2 X-1.0602 Y-1.3646 I0.0563 J0.9014
N12105 G1 X-1.0684 Y-1.3622
N12110 X-1.0767 Y-1.3595
N12115 X-1.0931 Y-1.3538
N12120 G3 X-1.1206 Y-1.3628 I-0.0074 J-0.0239
N12125 G1 X-1.123 Y-1.3659 Z-0.2147
N12130 X-1.1252 Y-1.369 Z-0.2138
N12135 X-1.1274 Y-1.3719 Z-0.2123
N12140 X-1.1294 Y-1.3746 Z-0.2102
N12145 X-1.1311 Y-1.377 Z-0.2077
N12150 X-1.1327 Y-1.3791 Z-0.2047
N12155 X-1.1339 Y-1.3807 Z-0.2013
N12160 X-1.1348 Y-1.3819 Z-0.1977
N12165 X-1.1353 Y-1.3827 Z-0.1939
N12170 X-1.1355 Y-1.3829 Z-0.19
N12175 G0 Z0.2
N12180 G1 X-1.3838 Y-1.0888 F300.
N12185 G0 Z-0.165
N12190 G1 Z-0.19 F20.4
N12195 X-1.3837 Y-1.0886 Z-0.1939
N12200 X-1.3833 Y-1.0877 Z-0.1977
N12205 X-1.3827 Y-1.0863 Z-0.2013
N12210 X-1.3818 Y-1.0845 Z-0.2047
N12215 X-1.3808 Y-1.0822 Z-0.2077
N12220 X-1.3796 Y-1.0794 Z-0.2102
N12225 X-1.3782 Y-1.0764 Z-0.2123
N12230 X-1.3767 Y-1.0731 Z-0.2138
N12235 X-1.3751 Y-1.0696 Z-0.2147
N12240 X-1.3735 Y-1.066 Z-0.215
N12245 G3 X-1.3682 Y-1.0356 I-0.0568 J0.0256
N12250 G1 X-1.3729 Y-0.9945
N12255 X-1.3749 Y-0.9698
N12260 X-1.375 Y-0.9616
N12265 Y-0.8958
N12270 X-1.3763 Y-0.8697
N12275 X-1.3788 Y-0.8487
N12280 X-1.3841 Y-0.8211
N12285 X-1.3933 Y-0.7861
N12290 G3 X-1.4558 Y-0.6164 I-2.6997 J-0.8989
N12295 G2 X-1.5539 Y-0.2687 I1.759 J0.6836
N12300 X-1.3838 Y0.7555 I1.5593 J0.2673
N12305 G1 X-1.3789 Y0.7661
N12310 X-1.376 Y0.7775
N12315 X-1.375 Y0.7892
N12320 Y0.9558
N12325 G3 X-1.3926 Y0.9788 I-0.025 J-0.0009
N12330 G1 X-1.3964 Y0.98 Z-0.2147
N12335 X-1.4 Y0.9811 Z-0.2138
N12340 X-1.4035 Y0.9822 Z-0.2123
N12345 X-1.4067 Y0.9832 Z-0.2102
N12350 X-1.4095 Y0.984 Z-0.2077
N12355 X-1.4119 Y0.9848 Z-0.2047
N12360 X-1.4139 Y0.9854 Z-0.2013
N12365 X-1.4153 Y0.9858 Z-0.1977
N12370 X-1.4162 Y0.9861 Z-0.1939
N12375 X-1.4165 Y0.9862 Z-0.19
N12380 G0 Z0.2
N12385 G1 X-1.0888 Y1.3838 F300.
N12390 G0 Z-0.165
N12395 G1 Z-0.19 F20.4
N12400 X-1.0886 Y1.3837 Z-0.1939
N12405 X-1.0877 Y1.3833 Z-0.1977
N12410 X-1.0863 Y1.3827 Z-0.2013
N12415 X-1.0845 Y1.3818 Z-0.2047
N12420 X-1.0822 Y1.3808 Z-0.2077
N12425 X-1.0794 Y1.3796 Z-0.2102
N12430 X-1.0764 Y1.3782 Z-0.2123
N12435 X-1.0731 Y1.3767 Z-0.2138
N12440 X-1.0696 Y1.3751 Z-0.2147
N12445 X-1.066 Y1.3735 Z-0.215
N12450 G3 X-1.0356 Y1.3682 I0.0256 J0.0568
N12455 G1 X-0.9945 Y1.3729
N12460 X-0.9698 Y1.3749
N12465 X-0.9616 Y1.375
N12470 X-0.8958
N12475 X-0.8697 Y1.3763
N12480 X-0.8487 Y1.3788
N12485 X-0.8211 Y1.3841
N12490 X-0.7861 Y1.3933
N12495 G3 X-0.6164 Y1.4558 I-0.8989 J2.6997
N12500 G2 X-0.2687 Y1.5539 I0.6836 J-1.759
N12505 X0.7555 Y1.3838 I0.2673 J-1.5593
N12510 G1 X0.7661 Y1.3789
N12515 X0.7775 Y1.376
N12520 X0.7892 Y1.375
N12525 X0.9558
N12530 G3 X0.9788 Y1.3926 I-0.0009 J0.025
N12535 G1 X0.98 Y1.3964 Z-0.2147
N12540 X0.9811 Y1.4 Z-0.2138
N12545 X0.9822 Y1.4035 Z-0.2123
N12550 X0.9832 Y1.4067 Z-0.2102
N12555 X0.984 Y1.4095 Z-0.2077
N12560 X0.9848 Y1.4119 Z-0.2047
N12565 X0.9854 Y1.4139 Z-0.2013
N12570 X0.9858 Y1.4153 Z-0.1977
N12575 X0.9861 Y1.4162 Z-0.1939
N12580 X0.9862 Y1.4165 Z-0.19
N12585 G0 Z0.2
N12590 G1 X1.3838 Y1.0888 F300.
N12595 G0 Z-0.165
N12600 G1 Z-0.19 F20.4
N12605 X1.3837 Y1.0886 Z-0.1939
N12610 X1.3833 Y1.0877 Z-0.1977
N12615 X1.3827 Y1.0863 Z-0.2013
N12620 X1.3818 Y1.0845 Z-0.2047
N12625 X1.3808 Y1.0822 Z-0.2077
N12630 X1.3796 Y1.0794 Z-0.2102
N12635 X1.3782 Y1.0764 Z-0.2123
N12640 X1.3767 Y1.0731 Z-0.2138
N12645 X1.3751 Y1.0696 Z-0.2147
N12650 X1.3735 Y1.066 Z-0.215
N12655 G3 X1.3682 Y1.0356 I0.0568 J-0.0256
N12660 G1 X1.3729 Y0.9945
N12665 X1.3749 Y0.9698
N12670 X1.375 Y0.9616
N12675 Y0.8958
N12680 X1.3763 Y0.8697
N12685 X1.3788 Y0.8487
N12690 X1.3841 Y0.8211
N12695 X1.3933 Y0.7861
N12700 G3 X1.4558 Y0.6164 I2.6998 J0.8989
N12705 G2 X1.5539 Y0.2687 I-1.759 J-0.6836
N12710 X1.3838 Y-0.7555 I-1.5593 J-0.2673
N12715 G1 X1.3789 Y-0.7661
N12720 X1.376 Y-0.7775
N12725 X1.375 Y-0.7892
N12730 Y-0.9558
N12735 G3 X1.3926 Y-0.9788 I0.025 J0.0009
N12740 G1 X1.3964 Y-0.98 Z-0.2147
N12745 X1.4 Y-0.9811 Z-0.2138
N12750 X1.4035 Y-0.9822 Z-0.2123
N12755 X1.4067 Y-0.9832 Z-0.2102
N12760 X1.4095 Y-0.984 Z-0.2077
N12765 X1.4119 Y-0.9848 Z-0.2047
N12770 X1.4139 Y-0.9854 Z-0.2013
N12775 X1.4153 Y-0.9858 Z-0.1977
N12780 X1.4162 Y-0.9861 Z-0.1939
N12785 X1.4165 Y-0.9862 Z-0.19
N12790 G0 Z0.2
N12795 G1 X1.0888 Y-1.3838 F300.
N12800 G0 Z-0.165
N12805 G1 Z-0.19 F20.4
N12810 X1.0886 Y-1.3837 Z-0.1939
N12815 X1.0877 Y-1.3833 Z-0.1977
N12820 X1.0863 Y-1.3827 Z-0.2013
N12825 X1.0845 Y-1.3818 Z-0.2047
N12830 X1.0822 Y-1.3808 Z-0.2077
N12835 X1.0794 Y-1.3796 Z-0.2102
N12840 X1.0764 Y-1.3782 Z-0.2123
N12845 X1.0731 Y-1.3767 Z-0.2138
N12850 X1.0696 Y-1.3751 Z-0.2147
N12855 X1.066 Y-1.3735 Z-0.215
N12860 G3 X1.0356 Y-1.3682 I-0.0256 J-0.0568
N12865 G1 X0.9945 Y-1.3729
N12870 X0.9698 Y-1.3749
N12875 X0.9616 Y-1.375
N12880 X0.8958
N12885 X0.8697 Y-1.3763
N12890 X0.8487 Y-1.3788
N12895 X0.8211 Y-1.3841
N12900 X0.7861 Y-1.3933
N12905 G3 X0.6164 Y-1.4558 I0.8989 J-2.6998
N12910 G2 X0.2687 Y-1.5539 I-0.6836 J1.759
N12915 X-0.7555 Y-1.3838 I-0.2673 J1.5593
N12920 G1 X-0.7661 Y-1.3789
N12925 X-0.7775 Y-1.376
N12930 X-0.7892 Y-1.375
N12935 X-0.9558
N12940 G3 X-0.9788 Y-1.3926 I0.0009 J-0.025
N12945 G1 X-0.98 Y-1.3964 Z-0.2147
N12950 X-0.9811 Y-1.4 Z-0.2138
N12955 X-0.9822 Y-1.4035 Z-0.2123
N12960 X-0.9832 Y-1.4067 Z-0.2102
N12965 X-0.984 Y-1.4095 Z-0.2077
N12970 X-0.9848 Y-1.4119 Z-0.2047
N12975 X-0.9854 Y-1.4139 Z-0.2013
N12980 X-0.9858 Y-1.4153 Z-0.1977
N12985 X-0.9861 Y-1.4162 Z-0.1939
N12990 X-0.9862 Y-1.4165 Z-0.19
N12995 G0 Z0.2
N13000 G1 X-1.3965 Y-0.947 F300.
N13005 G0 Z-0.165
N13010 G1 Z-0.19 F20.4
N13015 X-1.3963 Y-0.9467 Z-0.1939
N13020 X-1.3959 Y-0.946 Z-0.1977
N13025 X-1.3951 Y-0.9447 Z-0.2013
N13030 X-1.394 Y-0.9429 Z-0.2047
N13035 X-1.3927 Y-0.9407 Z-0.2077
N13040 X-1.3912 Y-0.9381 Z-0.2102
N13045 X-1.3895 Y-0.9353 Z-0.2123
N13050 X-1.3877 Y-0.9322 Z-0.2138
N13055 X-1.3857 Y-0.9289 Z-0.2147
N13060 X-1.3837 Y-0.9255 Z-0.215
N13065 G3 X-1.375 Y-0.8958 I-0.0536 J0.0318
N13070 G1 Y-0.6986
N13075 X-1.3766 Y-0.6671
N13080 X-1.3806 Y-0.6339
N13085 X-1.3873 Y-0.5983
N13090 G3 X-1.433 Y-0.4233 I-4.6593 J-1.1235
N13095 G2 X-1.487 Y-0.1026 I1.7324 J0.4565
N13100 X-1.3769 Y0.5704 I1.5008 J0.0999
N13105 G1 X-1.3756 Y0.5793
N13110 X-1.375 Y0.5881
N13115 Y0.7892
N13120 G3 X-1.3926 Y0.8122 I-0.025 J-0.0009
N13125 G1 X-1.3964 Y0.8134 Z-0.2147
N13130 X-1.4 Y0.8145 Z-0.2138
N13135 X-1.4035 Y0.8156 Z-0.2123
N13140 X-1.4067 Y0.8165 Z-0.2102
N13145 X-1.4095 Y0.8174 Z-0.2077
N13150 X-1.4119 Y0.8182 Z-0.2047
N13155 X-1.4139 Y0.8188 Z-0.2013
N13160 X-1.4153 Y0.8192 Z-0.1977
N13165 X-1.4162 Y0.8195 Z-0.1939
N13170 X-1.4165 Y0.8196 Z-0.19
N13175 G0 Z0.2
N13180 G1 X-0.947 Y1.3965 F300.
N13185 G0 Z-0.165
N13190 G1 Z-0.19 F20.4
N13195 X-0.9467 Y1.3963 Z-0.1939
N13200 X-0.946 Y1.3959 Z-0.1977
N13205 X-0.9447 Y1.3951 Z-0.2013
N13210 X-0.9429 Y1.394 Z-0.2047
N13215 X-0.9407 Y1.3927 Z-0.2077
N13220 X-0.9381 Y1.3912 Z-0.2102
N13225 X-0.9353 Y1.3895 Z-0.2123
N13230 X-0.9322 Y1.3877 Z-0.2138
N13235 X-0.9289 Y1.3857 Z-0.2147
N13240 X-0.9255 Y1.3837 Z-0.215
N13245 G3 X-0.8958 Y1.375 I0.0318 J0.0536
N13250 G1 X-0.6986
N13255 X-0.6671 Y1.3766
N13260 X-0.6339 Y1.3806
N13265 X-0.5983 Y1.3873
N13270 G3 X-0.4233 Y1.433 I-1.1235 J4.6593
N13275 G2 X-0.1026 Y1.487 I0.4565 J-1.7324
N13280 X0.5704 Y1.3769 I0.0999 J-1.5008
N13285 G1 X0.5793 Y1.3756
N13290 X0.5881 Y1.375
N13295 X0.7892
N13300 G3 X0.8122 Y1.3926 I-0.0009 J0.025
N13305 G1 X0.8134 Y1.3964 Z-0.2147
N13310 X0.8145 Y1.4 Z-0.2138
N13315 X0.8156 Y1.4035 Z-0.2123
N13320 X0.8165 Y1.4067 Z-0.2102
N13325 X0.8174 Y1.4095 Z-0.2077
N13330 X0.8182 Y1.4119 Z-0.2047
N13335 X0.8188 Y1.4139 Z-0.2013
N13340 X0.8192 Y1.4153 Z-0.1977
N13345 X0.8195 Y1.4162 Z-0.1939
N13350 X0.8196 Y1.4165 Z-0.19
N13355 G0 Z0.2
N13360 G1 X1.3965 Y0.947 F300.
N13365 G0 Z-0.165
N13370 G1 Z-0.19 F20.4
N13375 X1.3963 Y0.9467 Z-0.1939
N13380 X1.3959 Y0.946 Z-0.1977
N13385 X1.3951 Y0.9447 Z-0.2013
N13390 X1.394 Y0.9429 Z-0.2047
N13395 X1.3927 Y0.9407 Z-0.2077
N13400 X1.3912 Y0.9381 Z-0.2102
N13405 X1.3895 Y0.9353 Z-0.2123
N13410 X1.3877 Y0.9322 Z-0.2138
N13415 X1.3857 Y0.9289 Z-0.2147
N13420 X1.3837 Y0.9255 Z-0.215
N13425 G3 X1.375 Y0.8958 I0.0536 J-0.0318
N13430 G1 Y0.6986
N13435 X1.3766 Y0.6671
N13440 X1.3806 Y0.6339
N13445 X1.3873 Y0.5983
N13450 G3 X1.433 Y0.4233 I4.6593 J1.1235
N13455 G2 X1.487 Y0.1026 I-1.7324 J-0.4565
N13460 X1.3769 Y-0.5704 I-1.5008 J-0.0999
N13465 G1 X1.3756 Y-0.5793
N13470 X1.375 Y-0.5881
N13475 Y-0.7892
N13480 G3 X1.3926 Y-0.8122 I0.025 J0.0009
N13485 G1 X1.3964 Y-0.8134 Z-0.2147
N13490 X1.4 Y-0.8145 Z-0.2138
N13495 X1.4035 Y-0.8156 Z-0.2123
N13500 X1.4067 Y-0.8165 Z-0.2102
N13505 X1.4095 Y-0.8174 Z-0.2077
N13510 X1.4119 Y-0.8182 Z-0.2047
N13515 X1.4139 Y-0.8188 Z-0.2013
N13520 X1.4153 Y-0.8192 Z-0.1977
N13525 X1.4162 Y-0.8195 Z-0.1939
N13530 X1.4165 Y-0.8196 Z-0.19
N13535 G0 Z0.2
N13540 G1 X0.947 Y-1.3965 F300.
N13545 G0 Z-0.165
N13550 G1 Z-0.19 F20.4
N13555 X0.9467 Y-1.3963 Z-0.1939
N13560 X0.946 Y-1.3959 Z-0.1977
N13565 X0.9447 Y-1.3951 Z-0.2013
N13570 X0.9429 Y-1.394 Z-0.2047
N13575 X0.9407 Y-1.3927 Z-0.2077
N13580 X0.9381 Y-1.3912 Z-0.2102
N13585 X0.9353 Y-1.3895 Z-0.2123
N13590 X0.9322 Y-1.3877 Z-0.2138
N13595 X0.9289 Y-1.3857 Z-0.2147
N13600 X0.9255 Y-1.3837 Z-0.215
N13605 G3 X0.8958 Y-1.375 I-0.0318 J-0.0536
N13610 G1 X0.6986
N13615 X0.6671 Y-1.3766
N13620 X0.6339 Y-1.3806
N13625 X0.5983 Y-1.3873
N13630 G3 X0.4233 Y-1.433 I1.1235 J-4.6593
N13635 G2 X0.1026 Y-1.487 I-0.4565 J1.7324
N13640 X-0.5704 Y-1.3769 I-0.0999 J1.5008
N13645 G1 X-0.5793 Y-1.3756
N13650 X-0.5881 Y-1.375
N13655 X-0.7892
N13660 G3 X-0.8122 Y-1.3926 I0.0009 J-0.025
N13665 G1 X-0.8134 Y-1.3964 Z-0.2147
N13670 X-0.8145 Y-1.4 Z-0.2138
N13675 X-0.8156 Y-1.4035 Z-0.2123
N13680 X-0.8165 Y-1.4067 Z-0.2102
N13685 X-0.8174 Y-1.4095 Z-0.2077
N13690 X-0.8182 Y-1.4119 Z-0.2047
N13695 X-0.8188 Y-1.4139 Z-0.2013
N13700 X-0.8192 Y-1.4153 Z-0.1977
N13705 X-0.8195 Y-1.4162 Z-0.1939
N13710 X-0.8196 Y-1.4165 Z-0.19
N13715 G0 Z0.2
N13720 G1 X-1.3965 Y-0.7498 F300.
N13725 G0 Z-0.165
N13730 G1 Z-0.19 F20.4
N13735 X-1.3963 Y-0.7495 Z-0.1939
N13740 X-1.3959 Y-0.7487 Z-0.1977
N13745 X-1.3951 Y-0.7474 Z-0.2013
N13750 X-1.394 Y-0.7457 Z-0.2047
N13755 X-1.3927 Y-0.7435 Z-0.2077
N13760 X-1.3912 Y-0.7409 Z-0.2102
N13765 X-1.3895 Y-0.738 Z-0.2123
N13770 X-1.3877 Y-0.7349 Z-0.2138
N13775 X-1.3857 Y-0.7316 Z-0.2147
N13780 X-1.3837 Y-0.7283 Z-0.215
N13785 G3 X-1.375 Y-0.6986 I-0.0536 J0.0318
N13790 G1 Y-0.4849
N13795 G3 X-1.3932 Y-0.3617 I-0.464 J-0.0054
N13800 G1 X-1.4102 Y-0.2877
N13805 X-1.412 Y-0.2794
N13810 X-1.417 Y-0.2548
N13815 X-1.4319 Y-0.1479
N13820 X-1.4343 Y-0.1233
N13825 X-1.4348 Y-0.1151
N13830 X-1.4394 Y-0.0164
N13835 X-1.4395 Y-0.0082
N13840 Y0.0082
N13845 X-1.4394 Y0.0164
N13850 X-1.4348 Y0.1151
N13855 X-1.4343 Y0.1233
N13860 X-1.4319 Y0.1479
N13865 X-1.417 Y0.2548
N13870 X-1.412 Y0.2794
N13875 G3 X-1.3801 Y0.4191 I-4.9406 J1.2026
N13880 X-1.375 Y0.4931 I-0.4797 J0.0706
N13885 G1 Y0.5881
N13890 G3 X-1.3926 Y0.6111 I-0.025 J-0.0009
N13895 G1 X-1.3964 Y0.6122 Z-0.2147
N13900 X-1.4 Y0.6134 Z-0.2138
N13905 X-1.4035 Y0.6144 Z-0.2123
N13910 X-1.4067 Y0.6154 Z-0.2102
N13915 X-1.4095 Y0.6163 Z-0.2077
N13920 X-1.4119 Y0.617 Z-0.2047
N13925 X-1.4139 Y0.6176 Z-0.2013
N13930 X-1.4153 Y0.6181 Z-0.1977
N13935 X-1.4162 Y0.6184 Z-0.1939
N13940 X-1.4165 Z-0.19
N13945 G0 Z0.2
N13950 G1 X-0.7498 Y1.3965 F300.
N13955 G0 Z-0.165
N13960 G1 Z-0.19 F20.4
N13965 X-0.7495 Y1.3963 Z-0.1939
N13970 X-0.7487 Y1.3959 Z-0.1977
N13975 X-0.7474 Y1.3951 Z-0.2013
N13980 X-0.7457 Y1.394 Z-0.2047
N13985 X-0.7435 Y1.3927 Z-0.2077
N13990 X-0.7409 Y1.3912 Z-0.2102
N13995 X-0.738 Y1.3895 Z-0.2123
N14000 X-0.7349 Y1.3877 Z-0.2138
N14005 X-0.7316 Y1.3857 Z-0.2147
N14010 X-0.7283 Y1.3837 Z-0.215
N14015 G3 X-0.6986 Y1.375 I0.0318 J0.0536
N14020 G1 X-0.4849
N14025 G3 X-0.3617 Y1.3932 I-0.0054 J0.464
N14030 G1 X-0.2877 Y1.4102
N14035 X-0.2794 Y1.412
N14040 X-0.2548 Y1.417
N14045 X-0.1479 Y1.4319
N14050 X-0.1233 Y1.4343
N14055 X-0.1151 Y1.4348
N14060 X-0.0164 Y1.4394
N14065 X-0.0082 Y1.4395
N14070 X0.0082
N14075 X0.0164 Y1.4394
N14080 X0.1151 Y1.4348
N14085 X0.1233 Y1.4343
N14090 X0.1479 Y1.4319
N14095 X0.2548 Y1.417
N14100 X0.2794 Y1.412
N14105 G3 X0.4191 Y1.3801 I1.2026 J4.9405
N14110 X0.4931 Y1.375 I0.0706 J0.4797
N14115 G1 X0.5881
N14120 G3 X0.6111 Y1.3926 I-0.0009 J0.025
N14125 G1 X0.6122 Y1.3964 Z-0.2147
N14130 X0.6134 Y1.4 Z-0.2138
N14135 X0.6144 Y1.4035 Z-0.2123
N14140 X0.6154 Y1.4067 Z-0.2102
N14145 X0.6163 Y1.4095 Z-0.2077
N14150 X0.617 Y1.4119 Z-0.2047
N14155 X0.6176 Y1.4139 Z-0.2013
N14160 X0.6181 Y1.4153 Z-0.1977
N14165 X0.6184 Y1.4162 Z-0.1939
N14170 Y1.4165 Z-0.19
N14175 G0 Z0.2
N14180 G1 X1.3965 Y0.7498 F300.
N14185 G0 Z-0.165
N14190 G1 Z-0.19 F20.4
N14195 X1.3963 Y0.7495 Z-0.1939
N14200 X1.3959 Y0.7487 Z-0.1977
N14205 X1.3951 Y0.7474 Z-0.2013
N14210 X1.394 Y0.7457 Z-0.2047
N14215 X1.3927 Y0.7435 Z-0.2077
N14220 X1.3912 Y0.7409 Z-0.2102
N14225 X1.3895 Y0.738 Z-0.2123
N14230 X1.3877 Y0.7349 Z-0.2138
N14235 X1.3857 Y0.7316 Z-0.2147
N14240 X1.3837 Y0.7283 Z-0.215
N14245 G3 X1.375 Y0.6986 I0.0536 J-0.0318
N14250 G1 Y0.4849
N14255 G3 X1.3932 Y0.3617 I0.464 J0.0054
N14260 G1 X1.4102 Y0.2877
N14265 X1.412 Y0.2794
N14270 X1.417 Y0.2548
N14275 X1.4319 Y0.1479
N14280 X1.4343 Y0.1233
N14285 X1.4348 Y0.1151
N14290 X1.4394 Y0.0164
N14295 X1.4395 Y0.0082
N14300 Y-0.0082
N14305 X1.4394 Y-0.0164
N14310 X1.4348 Y-0.1151
N14315 X1.4343 Y-0.1233
N14320 X1.4319 Y-0.1479
N14325 X1.417 Y-0.2548
N14330 X1.412 Y-0.2794
N14335 G3 X1.3801 Y-0.4191 I4.9406 J-1.2026
N14340 X1.375 Y-0.4931 I0.4797 J-0.0706
N14345 G1 Y-0.5881
N14350 G3 X1.3926 Y-0.6111 I0.025 J0.0009
N14355 G1 X1.3964 Y-0.6122 Z-0.2147
N14360 X1.4 Y-0.6134 Z-0.2138
N14365 X1.4035 Y-0.6144 Z-0.2123
N14370 X1.4067 Y-0.6154 Z-0.2102
N14375 X1.4095 Y-0.6163 Z-0.2077
N14380 X1.4119 Y-0.617 Z-0.2047
N14385 X1.4139 Y-0.6176 Z-0.2013
N14390 X1.4153 Y-0.6181 Z-0.1977
N14395 X1.4162 Y-0.6184 Z-0.1939
N14400 X1.4165 Z-0.19
N14405 G0 Z0.2
N14410 G1 X0.7498 Y-1.3965 F300.
N14415 G0 Z-0.165
N14420 G1 Z-0.19 F20.4
N14425 X0.7495 Y-1.3963 Z-0.1939
N14430 X0.7487 Y-1.3959 Z-0.1977
N14435 X0.7474 Y-1.3951 Z-0.2013
N14440 X0.7457 Y-1.394 Z-0.2047
N14445 X0.7435 Y-1.3927 Z-0.2077
N14450 X0.7409 Y-1.3912 Z-0.2102
N14455 X0.738 Y-1.3895 Z-0.2123
N14460 X0.7349 Y-1.3877 Z-0.2138
N14465 X0.7316 Y-1.3857 Z-0.2147
N14470 X0.7283 Y-1.3837 Z-0.215
N14475 G3 X0.6986 Y-1.375 I-0.0318 J-0.0536
N14480 G1 X0.4849
N14485 G3 X0.3617 Y-1.3932 I0.0054 J-0.464
N14490 G1 X0.2877 Y-1.4102
N14495 X0.2794 Y-1.412
N14500 X0.2548 Y-1.417
N14505 X0.1479 Y-1.4319
N14510 X0.1233 Y-1.4343
N14515 X0.1151 Y-1.4348
N14520 X0.0164 Y-1.4394
N14525 X0.0082 Y-1.4395
N14530 X-0.0082
N14535 X-0.0164 Y-1.4394
N14540 X-0.1151 Y-1.4348
N14545 X-0.1233 Y-1.4343
N14550 X-0.1479 Y-1.4319
N14555 X-0.2548 Y-1.417
N14560 X-0.2794 Y-1.412
N14565 G3 X-0.4191 Y-1.3801 I-1.2026 J-4.9405
N14570 X-0.4931 Y-1.375 I-0.0706 J-0.4797
N14575 G1 X-0.5881
N14580 X-0.591 Y-1.3753
N14585 X-0.5939 Y-1.3759
N14590 X-0.5966 Y-1.3772 Z-0.2148
N14595 X-0.5993 Y-1.3785 Z-0.2143
N14600 X-0.6018 Y-1.3797 Z-0.2134
N14605 X-0.604 Y-1.382 Z-0.2119
N14610 X-0.6061 Y-1.3841 Z-0.21
N14615 X-0.6079 Y-1.386 Z-0.2077
N14620 X-0.609 Y-1.3883 Z-0.2047
N14625 X-0.6099 Y-1.3902 Z-0.2014
N14630 X-0.6106 Y-1.3915 Z-0.1977
N14635 X-0.611 Y-1.3923 Z-0.1939
N14640 X-0.6111 Y-1.3926 Z-0.19
N14645 G0 Z0.2
N14650 G1 X-1.314 Y-1.2799 F300.
N14655 G0 Z-0.2
N14660 G1 Z-0.225 F20.4
N14665 Y-1.2796 Z-0.2289
N14670 X-1.3141 Y-1.2787 Z-0.2327
N14675 X-1.3142 Y-1.2772 Z-0.2363
N14680 X-1.3144 Y-1.2751 Z-0.2397
N14685 X-1.3147 Y-1.2726 Z-0.2427
N14690 X-1.315 Y-1.2696 Z-0.2452
N14695 X-1.3153 Y-1.2663 Z-0.2473
N14700 X-1.3156 Y-1.2627 Z-0.2488
N14705 X-1.316 Y-1.2589 Z-0.2497
N14710 X-1.3164 Y-1.255 Z-0.25
N14715 G3 X-1.3442 Y-1.1203 I-0.6353 J-0.0612
N14720 G2 X-1.3645 Y-1.0602 I0.6947 J0.2686
N14725 G1 X-1.3661 Y-1.052
N14730 X-1.3673 Y-1.0438
N14735 X-1.3682 Y-1.0356
N14740 X-1.3715 Y-1.016
N14745 X-1.3768 Y-0.9933
N14750 X-1.3861 Y-0.9635
N14755 X-1.3992 Y-0.9298
N14760 X-1.4142 Y-0.8968
N14765 G2 X-1.5238 Y-0.6686 I4.5792 J2.3402
N14770 X-1.5864 Y-0.4989 I1.8758 J0.7882
N14775 X-1.4228 Y0.8606 I1.589 J0.4983
N14780 G1 X-1.4037 Y0.8913
N14785 X-1.3865 Y0.9175
N14790 X-1.3802 Y0.9294
N14795 X-1.3763 Y0.9424
N14800 X-1.375 Y0.9558
N14805 Y0.9616
N14810 X-1.3749 Y0.9698
N14815 G2 X-1.3646 Y1.0602 I0.901 J-0.0563
N14820 G1 X-1.3622 Y1.0684
N14825 X-1.3595 Y1.0767
N14830 X-1.3538 Y1.0931
N14835 G3 X-1.3524 Y1.1032 Z-0.2479 I-0.0236 J0.0083
N14840 G2 X-1.3507 Y1.1145 Z-0.2456 I0.0249 J0.0019
N14845 G1 X-1.3475 Y1.1224 Z-0.2438
N14850 X-1.3442 Y1.1307 Z-0.242
N14855 X-1.2758 Y1.3008
N14860 G2 X-1.255 Y1.3164 I0.0232 J-0.0093
N14865 G3 X-1.158 Y1.3333 I-0.0612 J0.6353
N14870 G1 X-1.1494 Y1.3356 Z-0.2438
N14875 G3 X-1.1203 Y1.3442 Z-0.25 I-0.1668 J0.6161
N14880 G2 X-1.0602 Y1.3645 I0.2686 J-0.6947
N14885 G1 X-1.052 Y1.3661
N14890 X-1.0438 Y1.3673
N14895 X-1.0356 Y1.3682
N14900 X-1.016 Y1.3715
N14905 X-0.9933 Y1.3768
N14910 X-0.9635 Y1.3861
N14915 X-0.9298 Y1.3992
N14920 X-0.8968 Y1.4142
N14925 G2 X-0.6686 Y1.5238 I2.3402 J-4.5792
N14930 X-0.4989 Y1.5864 I0.7882 J-1.8758
N14935 X0.8606 Y1.4228 I0.4983 J-1.589
N14940 G1 X0.8913 Y1.4037
N14945 X0.9175 Y1.3865
N14950 X0.9294 Y1.3802
N14955 X0.9424 Y1.3763
N14960 X0.9558 Y1.375
N14965 X0.9616
N14970 X0.9698 Y1.3749
N14975 G2 X1.0602 Y1.3646 I-0.0563 J-0.901
N14980 G1 X1.0684 Y1.3622
N14985 X1.0767 Y1.3595
N14990 X1.0931 Y1.3538
N14995 G3 X1.1032 Y1.3524 Z-0.2479 I0.0083 J0.0236
N15000 G2 X1.1145 Y1.3507 Z-0.2456 I0.0019 J-0.0249
N15005 G1 X1.1224 Y1.3475 Z-0.2438
N15010 X1.1307 Y1.3442 Z-0.242
N15015 X1.3008 Y1.2758
N15020 G2 X1.3164 Y1.255 I-0.0093 J-0.0232
N15025 G3 X1.3333 Y1.158 I0.6353 J0.0612
N15030 G1 X1.3356 Y1.1494 Z-0.2438
N15035 G3 X1.3442 Y1.1203 Z-0.25 I0.6161 J0.1668
N15040 G2 X1.3645 Y1.0602 I-0.6947 J-0.2686
N15045 G1 X1.3661 Y1.052
N15050 X1.3673 Y1.0438
N15055 X1.3682 Y1.0356
N15060 X1.3715 Y1.016
N15065 X1.3768 Y0.9933
N15070 X1.3861 Y0.9635
N15075 X1.3992 Y0.9298
N15080 X1.4142 Y0.8968
N15085 G2 X1.5238 Y0.6686 I-4.5791 J-2.3401
N15090 X1.5864 Y0.4989 I-1.8759 J-0.7882
N15095 X1.4228 Y-0.8606 I-1.589 J-0.4983
N15100 G1 X1.4037 Y-0.8914
N15105 X1.3865 Y-0.9175
N15110 X1.3802 Y-0.9294
N15115 X1.3763 Y-0.9424
N15120 X1.375 Y-0.9558
N15125 Y-0.9616
N15130 X1.3749 Y-0.9698
N15135 G2 X1.3646 Y-1.0602 I-0.9014 J0.0563
N15140 G1 X1.3622 Y-1.0684
N15145 X1.3595 Y-1.0767
N15150 X1.3538 Y-1.0931
N15155 G3 X1.3524 Y-1.1032 Z-0.2479 I0.0236 J-0.0083
N15160 G2 X1.3507 Y-1.1145 Z-0.2456 I-0.0249 J-0.0019
N15165 G1 X1.3475 Y-1.1224 Z-0.2438
N15170 X1.3442 Y-1.1307 Z-0.242
N15175 X1.2758 Y-1.3008
N15180 G2 X1.255 Y-1.3164 I-0.0232 J0.0093
N15185 G3 X1.158 Y-1.3333 I0.0612 J-0.6353
N15190 G1 X1.1494 Y-1.3356 Z-0.2438
N15195 G3 X1.1203 Y-1.3442 Z-0.25 I0.1668 J-0.6161
N15200 G2 X1.0602 Y-1.3645 I-0.2686 J0.6947
N15205 G1 X1.052 Y-1.3661
N15210 X1.0438 Y-1.3673
N15215 X1.0356 Y-1.3682
N15220 X1.016 Y-1.3715
N15225 X0.9933 Y-1.3768
N15230 X0.9635 Y-1.3861
N15235 X0.9298 Y-1.3992
N15240 X0.8968 Y-1.4142
N15245 G2 X0.6686 Y-1.5238 I-2.3401 J4.5791
N15250 X0.4989 Y-1.5864 I-0.7882 J1.8759
N15255 X-0.8606 Y-1.4228 I-0.4983 J1.589
N15260 G1 X-0.8914 Y-1.4037
N15265 X-0.9175 Y-1.3865
N15270 X-0.9294 Y-1.3802
N15275 X-0.9424 Y-1.3763
N15280 X-0.9558 Y-1.375
N15285 X-0.9616
N15290 X-0.9698 Y-1.3749
N15295 G2 X-1.0602 Y-1.3646 I0.0563 J0.9014
N15300 G1 X-1.0684 Y-1.3622
N15305 X-1.0767 Y-1.3595
N15310 X-1.0931 Y-1.3538
N15315 G3 X-1.1206 Y-1.3628 I-0.0074 J-0.0239
N15320 G1 X-1.123 Y-1.3659 Z-0.2497
N15325 X-1.1252 Y-1.369 Z-0.2488
N15330 X-1.1274 Y-1.3719 Z-0.2473
N15335 X-1.1294 Y-1.3746 Z-0.2452
N15340 X-1.1311 Y-1.377 Z-0.2427
N15345 X-1.1327 Y-1.3791 Z-0.2397
N15350 X-1.1339 Y-1.3807 Z-0.2363
N15355 X-1.1348 Y-1.3819 Z-0.2327
N15360 X-1.1353 Y-1.3827 Z-0.2289
N15365 X-1.1355 Y-1.3829 Z-0.225
N15370 G0 Z0.2
N15375 G1 X-1.3838 Y-1.0888 F300.
N15380 G0 Z-0.2
N15385 G1 Z-0.225 F20.4
N15390 X-1.3837 Y-1.0886 Z-0.2289
N15395 X-1.3833 Y-1.0877 Z-0.2327
N15400 X-1.3827 Y-1.0863 Z-0.2363
N15405 X-1.3818 Y-1.0845 Z-0.2397
N15410 X-1.3808 Y-1.0822 Z-0.2427
N15415 X-1.3796 Y-1.0794 Z-0.2452
N15420 X-1.3782 Y-1.0764 Z-0.2473
N15425 X-1.3767 Y-1.0731 Z-0.2488
N15430 X-1.3751 Y-1.0696 Z-0.2497
N15435 X-1.3735 Y-1.066 Z-0.25
N15440 G3 X-1.3682 Y-1.0356 I-0.0568 J0.0256
N15445 G1 X-1.3729 Y-0.9945
N15450 X-1.3749 Y-0.9698
N15455 X-1.375 Y-0.9616
N15460 Y-0.8958
N15465 X-1.3763 Y-0.8697
N15470 X-1.3788 Y-0.8487
N15475 X-1.3841 Y-0.8211
N15480 X-1.3933 Y-0.7861
N15485 G3 X-1.4558 Y-0.6164 I-2.6997 J-0.8989
N15490 G2 X-1.5539 Y-0.2687 I1.759 J0.6836
N15495 X-1.3838 Y0.7555 I1.5593 J0.2673
N15500 G1 X-1.3789 Y0.7661
N15505 X-1.376 Y0.7775
N15510 X-1.375 Y0.7892
N15515 Y0.9558
N15520 G3 X-1.3926 Y0.9788 I-0.025 J-0.0009
N15525 G1 X-1.3964 Y0.98 Z-0.2497
N15530 X-1.4 Y0.9811 Z-0.2488
N15535 X-1.4035 Y0.9822 Z-0.2473
N15540 X-1.4067 Y0.9832 Z-0.2452
N15545 X-1.4095 Y0.984 Z-0.2427
N15550 X-1.4119 Y0.9848 Z-0.2397
N15555 X-1.4139 Y0.9854 Z-0.2363
N15560 X-1.4153 Y0.9858 Z-0.2327
N15565 X-1.4162 Y0.9861 Z-0.2289
N15570 X-1.4165 Y0.9862 Z-0.225
N15575 G0 Z0.2
N15580 G1 X-1.0888 Y1.3838 F300.
N15585 G0 Z-0.2
N15590 G1 Z-0.225 F20.4
N15595 X-1.0886 Y1.3837 Z-0.2289
N15600 X-1.0877 Y1.3833 Z-0.2327
N15605 X-1.0863 Y1.3827 Z-0.2363
N15610 X-1.0845 Y1.3818 Z-0.2397
N15615 X-1.0822 Y1.3808 Z-0.2427
N15620 X-1.0794 Y1.3796 Z-0.2452
N15625 X-1.0764 Y1.3782 Z-0.2473
N15630 X-1.0731 Y1.3767 Z-0.2488
N15635 X-1.0696 Y1.3751 Z-0.2497
N15640 X-1.066 Y1.3735 Z-0.25
N15645 G3 X-1.0356 Y1.3682 I0.0256 J0.0568
N15650 G1 X-0.9945 Y1.3729
N15655 X-0.9698 Y1.3749
N15660 X-0.9616 Y1.375
N15665 X-0.8958
N15670 X-0.8697 Y1.3763
N15675 X-0.8487 Y1.3788
N15680 X-0.8211 Y1.3841
N15685 X-0.7861 Y1.3933
N15690 G3 X-0.6164 Y1.4558 I-0.8989 J2.6997
N15695 G2 X-0.2687 Y1.5539 I0.6836 J-1.759
N15700 X0.7555 Y1.3838 I0.2673 J-1.5593
N15705 G1 X0.7661 Y1.3789
N15710 X0.7775 Y1.376
N15715 X0.7892 Y1.375
N15720 X0.9558
N15725 G3 X0.9788 Y1.3926 I-0.0009 J0.025
N15730 G1 X0.98 Y1.3964 Z-0.2497
N15735 X0.9811 Y1.4 Z-0.2488
N15740 X0.9822 Y1.4035 Z-0.2473
N15745 X0.9832 Y1.4067 Z-0.2452
N15750 X0.984 Y1.4095 Z-0.2427
N15755 X0.9848 Y1.4119 Z-0.2397
N15760 X0.9854 Y1.4139 Z-0.2363
N15765 X0.9858 Y1.4153 Z-0.2327
N15770 X0.9861 Y1.4162 Z-0.2289
N15775 X0.9862 Y1.4165 Z-0.225
N15780 G0 Z0.2
N15785 G1 X1.3838 Y1.0888 F300.
N15790 G0 Z-0.2
N15795 G1 Z-0.225 F20.4
N15800 X1.3837 Y1.0886 Z-0.2289
N15805 X1.3833 Y1.0877 Z-0.2327
N15810 X1.3827 Y1.0863 Z-0.2363
N15815 X1.3818 Y1.0845 Z-0.2397
N15820 X1.3808 Y1.0822 Z-0.2427
N15825 X1.3796 Y1.0794 Z-0.2452
N15830 X1.3782 Y1.0764 Z-0.2473
N15835 X1.3767 Y1.0731 Z-0.2488
N15840 X1.3751 Y1.0696 Z-0.2497
N15845 X1.3735 Y1.066 Z-0.25
N15850 G3 X1.3682 Y1.0356 I0.0568 J-0.0256
N15855 G1 X1.3729 Y0.9945
N15860 X1.3749 Y0.9698
N15865 X1.375 Y0.9616
N15870 Y0.8958
N15875 X1.3763 Y0.8697
N15880 X1.3788 Y0.8487
N15885 X1.3841 Y0.8211
N15890 X1.3933 Y0.7861
N15895 G3 X1.4558 Y0.6164 I2.6998 J0.8989
N15900 G2 X1.5539 Y0.2687 I-1.759 J-0.6836
N15905 X1.3838 Y-0.7555 I-1.5593 J-0.2673
N15910 G1 X1.3789 Y-0.7661
N15915 X1.376 Y-0.7775
N15920 X1.375 Y-0.7892
N15925 Y-0.9558
N15930 G3 X1.3926 Y-0.9788 I0.025 J0.0009
N15935 G1 X1.3964 Y-0.98 Z-0.2497
N15940 X1.4 Y-0.9811 Z-0.2488
N15945 X1.4035 Y-0.9822 Z-0.2473
N15950 X1.4067 Y-0.9832 Z-0.2452
N15955 X1.4095 Y-0.984 Z-0.2427
N15960 X1.4119 Y-0.9848 Z-0.2397
N15965 X1.4139 Y-0.9854 Z-0.2363
N15970 X1.4153 Y-0.9858 Z-0.2327
N15975 X1.4162 Y-0.9861 Z-0.2289
N15980 X1.4165 Y-0.9862 Z-0.225
N15985 G0 Z0.2
N15990 G1 X1.0888 Y-1.3838 F300.
N15995 G0 Z-0.2
N16000 G1 Z-0.225 F20.4
N16005 X1.0886 Y-1.3837 Z-0.2289
N16010 X1.0877 Y-1.3833 Z-0.2327
N16015 X1.0863 Y-1.3827 Z-0.2363
N16020 X1.0845 Y-1.3818 Z-0.2397
N16025 X1.0822 Y-1.3808 Z-0.2427
N16030 X1.0794 Y-1.3796 Z-0.2452
N16035 X1.0764 Y-1.3782 Z-0.2473
N16040 X1.0731 Y-1.3767 Z-0.2488
N16045 X1.0696 Y-1.3751 Z-0.2497
N16050 X1.066 Y-1.3735 Z-0.25
N16055 G3 X1.0356 Y-1.3682 I-0.0256 J-0.0568
N16060 G1 X0.9945 Y-1.3729
N16065 X0.9698 Y-1.3749
N16070 X0.9616 Y-1.375
N16075 X0.8958
N16080 X0.8697 Y-1.3763
N16085 X0.8487 Y-1.3788
N16090 X0.8211 Y-1.3841
N16095 X0.7861 Y-1.3933
N16100 G3 X0.6164 Y-1.4558 I0.8989 J-2.6998
N16105 G2 X0.2687 Y-1.5539 I-0.6836 J1.759
N16110 X-0.7555 Y-1.3838 I-0.2673 J1.5593
N16115 G1 X-0.7661 Y-1.3789
N16120 X-0.7775 Y-1.376
N16125 X-0.7892 Y-1.375
N16130 X-0.9558
N16135 G3 X-0.9788 Y-1.3926 I0.0009 J-0.025
N16140 G1 X-0.98 Y-1.3964 Z-0.2497
N16145 X-0.9811 Y-1.4 Z-0.2488
N16150 X-0.9822 Y-1.4035 Z-0.2473
N16155 X-0.9832 Y-1.4067 Z-0.2452
N16160 X-0.984 Y-1.4095 Z-0.2427
N16165 X-0.9848 Y-1.4119 Z-0.2397
N16170 X-0.9854 Y-1.4139 Z-0.2363
N16175 X-0.9858 Y-1.4153 Z-0.2327
N16180 X-0.9861 Y-1.4162 Z-0.2289
N16185 X-0.9862 Y-1.4165 Z-0.225
N16190 G0 Z0.2
N16195 G1 X-1.3965 Y-0.947 F300.
N16200 G0 Z-0.2
N16205 G1 Z-0.225 F20.4
N16210 X-1.3963 Y-0.9467 Z-0.2289
N16215 X-1.3959 Y-0.946 Z-0.2327
N16220 X-1.3951 Y-0.9447 Z-0.2363
N16225 X-1.394 Y-0.9429 Z-0.2397
N16230 X-1.3927 Y-0.9407 Z-0.2427
N16235 X-1.3912 Y-0.9381 Z-0.2452
N16240 X-1.3895 Y-0.9353 Z-0.2473
N16245 X-1.3877 Y-0.9322 Z-0.2488
N16250 X-1.3857 Y-0.9289 Z-0.2497
N16255 X-1.3837 Y-0.9255 Z-0.25
N16260 G3 X-1.375 Y-0.8958 I-0.0536 J0.0318
N16265 G1 Y-0.6986
N16270 X-1.3766 Y-0.6671
N16275 X-1.3806 Y-0.6339
N16280 X-1.3873 Y-0.5983
N16285 G3 X-1.433 Y-0.4233 I-4.6593 J-1.1235
N16290 G2 X-1.487 Y-0.1026 I1.7324 J0.4565
N16295 X-1.3769 Y0.5704 I1.5008 J0.0999
N16300 G1 X-1.3756 Y0.5793
N16305 X-1.375 Y0.5881
N16310 Y0.7892
N16315 G3 X-1.3926 Y0.8122 I-0.025 J-0.0009
N16320 G1 X-1.3964 Y0.8134 Z-0.2497
N16325 X-1.4 Y0.8145 Z-0.2488
N16330 X-1.4035 Y0.8156 Z-0.2473
N16335 X-1.4067 Y0.8165 Z-0.2452
N16340 X-1.4095 Y0.8174 Z-0.2427
N16345 X-1.4119 Y0.8182 Z-0.2397
N16350 X-1.4139 Y0.8188 Z-0.2363
N16355 X-1.4153 Y0.8192 Z-0.2327
N16360 X-1.4162 Y0.8195 Z-0.2289
N16365 X-1.4165 Y0.8196 Z-0.225
N16370 G0 Z0.2
N16375 G1 X-0.947 Y1.3965 F300.
N16380 G0 Z-0.2
N16385 G1 Z-0.225 F20.4
N16390 X-0.9467 Y1.3963 Z-0.2289
N16395 X-0.946 Y1.3959 Z-0.2327
N16400 X-0.9447 Y1.3951 Z-0.2363
N16405 X-0.9429 Y1.394 Z-0.2397
N16410 X-0.9407 Y1.3927 Z-0.2427
N16415 X-0.9381 Y1.3912 Z-0.2452
N16420 X-0.9353 Y1.3895 Z-0.2473
N16425 X-0.9322 Y1.3877 Z-0.2488
N16430 X-0.9289 Y1.3857 Z-0.2497
N16435 X-0.9255 Y1.3837 Z-0.25
N16440 G3 X-0.8958 Y1.375 I0.0318 J0.0536
N16445 G1 X-0.6986
N16450 X-0.6671 Y1.3766
N16455 X-0.6339 Y1.3806
N16460 X-0.5983 Y1.3873
N16465 G3 X-0.4233 Y1.433 I-1.1235 J4.6593
N16470 G2 X-0.1026 Y1.487 I0.4565 J-1.7324
N16475 X0.5704 Y1.3769 I0.0999 J-1.5008
N16480 G1 X0.5793 Y1.3756
N16485 X0.5881 Y1.375
N16490 X0.7892
N16495 G3 X0.8122 Y1.3926 I-0.0009 J0.025
N16500 G1 X0.8134 Y1.3964 Z-0.2497
N16505 X0.8145 Y1.4 Z-0.2488
N16510 X0.8156 Y1.4035 Z-0.2473
N16515 X0.8165 Y1.4067 Z-0.2452
N16520 X0.8174 Y1.4095 Z-0.2427
N16525 X0.8182 Y1.4119 Z-0.2397
N16530 X0.8188 Y1.4139 Z-0.2363
N16535 X0.8192 Y1.4153 Z-0.2327
N16540 X0.8195 Y1.4162 Z-0.2289
N16545 X0.8196 Y1.4165 Z-0.225
N16550 G0 Z0.2
N16555 G1 X1.3965 Y0.947 F300.
N16560 G0 Z-0.2
N16565 G1 Z-0.225 F20.4
N16570 X1.3963 Y0.9467 Z-0.2289
N16575 X1.3959 Y0.946 Z-0.2327
N16580 X1.3951 Y0.9447 Z-0.2363
N16585 X1.394 Y0.9429 Z-0.2397
N16590 X1.3927 Y0.9407 Z-0.2427
N16595 X1.3912 Y0.9381 Z-0.2452
N16600 X1.3895 Y0.9353 Z-0.2473
N16605 X1.3877 Y0.9322 Z-0.2488
N16610 X1.3857 Y0.9289 Z-0.2497
N16615 X1.3837 Y0.9255 Z-0.25
N16620 G3 X1.375 Y0.8958 I0.0536 J-0.0318
N16625 G1 Y0.6986
N16630 X1.3766 Y0.6671
N16635 X1.3806 Y0.6339
N16640 X1.3873 Y0.5983
N16645 G3 X1.433 Y0.4233 I4.6593 J1.1235
N16650 G2 X1.487 Y0.1026 I-1.7324 J-0.4565
N16655 X1.3769 Y-0.5704 I-1.5008 J-0.0999
N16660 G1 X1.3756 Y-0.5793
N16665 X1.375 Y-0.5881
N16670 Y-0.7892
N16675 G3 X1.3926 Y-0.8122 I0.025 J0.0009
N16680 G1 X1.3964 Y-0.8134 Z-0.2497
N16685 X1.4 Y-0.8145 Z-0.2488
N16690 X1.4035 Y-0.8156 Z-0.2473
N16695 X1.4067 Y-0.8165 Z-0.2452
N16700 X1.4095 Y-0.8174 Z-0.2427
N16705 X1.4119 Y-0.8182 Z-0.2397
N16710 X1.4139 Y-0.8188 Z-0.2363
N16715 X1.4153 Y-0.8192 Z-0.2327
N16720 X1.4162 Y-0.8195 Z-0.2289
N16725 X1.4165 Y-0.8196 Z-0.225
N16730 G0 Z0.2
N16735 G1 X0.947 Y-1.3965 F300.
N16740 G0 Z-0.2
N16745 G1 Z-0.225 F20.4
N16750 X0.9467 Y-1.3963 Z-0.2289
N16755 X0.946 Y-1.3959 Z-0.2327
N16760 X0.9447 Y-1.3951 Z-0.2363
N16765 X0.9429 Y-1.394 Z-0.2397
N16770 X0.9407 Y-1.3927 Z-0.2427
N16775 X0.9381 Y-1.3912 Z-0.2452
N16780 X0.9353 Y-1.3895 Z-0.2473
N16785 X0.9322 Y-1.3877 Z-0.2488
N16790 X0.9289 Y-1.3857 Z-0.2497
N16795 X0.9255 Y-1.3837 Z-0.25
N16800 G3 X0.8958 Y-1.375 I-0.0318 J-0.0536
N16805 G1 X0.6986
N16810 X0.6671 Y-1.3766
N16815 X0.6339 Y-1.3806
N16820 X0.5983 Y-1.3873
N16825 G3 X0.4233 Y-1.433 I1.1235 J-4.6593
N16830 G2 X0.1026 Y-1.487 I-0.4565 J1.7324
N16835 X-0.5704 Y-1.3769 I-0.0999 J1.5008
N16840 G1 X-0.5793 Y-1.3756
N16845 X-0.5881 Y-1.375
N16850 X-0.7892
N16855 G3 X-0.8122 Y-1.3926 I0.0009 J-0.025
N16860 G1 X-0.8134 Y-1.3964 Z-0.2497
N16865 X-0.8145 Y-1.4 Z-0.2488
N16870 X-0.8156 Y-1.4035 Z-0.2473
N16875 X-0.8165 Y-1.4067 Z-0.2452
N16880 X-0.8174 Y-1.4095 Z-0.2427
N16885 X-0.8182 Y-1.4119 Z-0.2397
N16890 X-0.8188 Y-1.4139 Z-0.2363
N16895 X-0.8192 Y-1.4153 Z-0.2327
N16900 X-0.8195 Y-1.4162 Z-0.2289
N16905 X-0.8196 Y-1.4165 Z-0.225
N16910 G0 Z0.2
N16915 G1 X-1.3965 Y-0.7498 F300.
N16920 G0 Z-0.2
N16925 G1 Z-0.225 F20.4
N16930 X-1.3963 Y-0.7495 Z-0.2289
N16935 X-1.3959 Y-0.7487 Z-0.2327
N16940 X-1.3951 Y-0.7474 Z-0.2363
N16945 X-1.394 Y-0.7457 Z-0.2397
N16950 X-1.3927 Y-0.7435 Z-0.2427
N16955 X-1.3912 Y-0.7409 Z-0.2452
N16960 X-1.3895 Y-0.738 Z-0.2473
N16965 X-1.3877 Y-0.7349 Z-0.2488
N16970 X-1.3857 Y-0.7316 Z-0.2497
N16975 X-1.3837 Y-0.7283 Z-0.25
N16980 G3 X-1.375 Y-0.6986 I-0.0536 J0.0318
N16985 G1 Y-0.4849
N16990 G3 X-1.3932 Y-0.3617 I-0.464 J-0.0054
N16995 G1 X-1.4102 Y-0.2877
N17000 X-1.412 Y-0.2794
N17005 X-1.417 Y-0.2548
N17010 X-1.4319 Y-0.1479
N17015 X-1.4343 Y-0.1233
N17020 X-1.4348 Y-0.1151
N17025 X-1.4394 Y-0.0164
N17030 X-1.4395 Y-0.0082
N17035 Y0.0082
N17040 X-1.4394 Y0.0164
N17045 X-1.4348 Y0.1151
N17050 X-1.4343 Y0.1233
N17055 X-1.4319 Y0.1479
N17060 X-1.417 Y0.2548
N17065 X-1.412 Y0.2794
N17070 G3 X-1.3801 Y0.4191 I-4.9406 J1.2026
N17075 X-1.375 Y0.4931 I-0.4797 J0.0706
N17080 G1 Y0.5881
N17085 G3 X-1.3926 Y0.6111 I-0.025 J-0.0009
N17090 G1 X-1.3964 Y0.6122 Z-0.2497
N17095 X-1.4 Y0.6134 Z-0.2488
N17100 X-1.4035 Y0.6144 Z-0.2473
N17105 X-1.4067 Y0.6154 Z-0.2452
N17110 X-1.4095 Y0.6163 Z-0.2427
N17115 X-1.4119 Y0.617 Z-0.2397
N17120 X-1.4139 Y0.6176 Z-0.2363
N17125 X-1.4153 Y0.6181 Z-0.2327
N17130 X-1.4162 Y0.6184 Z-0.2289
N17135 X-1.4165 Z-0.225
N17140 G0 Z0.2
N17145 G1 X-0.7498 Y1.3965 F300.
N17150 G0 Z-0.2
N17155 G1 Z-0.225 F20.4
N17160 X-0.7495 Y1.3963 Z-0.2289
N17165 X-0.7487 Y1.3959 Z-0.2327
N17170 X-0.7474 Y1.3951 Z-0.2363
N17175 X-0.7457 Y1.394 Z-0.2397
N17180 X-0.7435 Y1.3927 Z-0.2427
N17185 X-0.7409 Y1.3912 Z-0.2452
N17190 X-0.738 Y1.3895 Z-0.2473
N17195 X-0.7349 Y1.3877 Z-0.2488
N17200 X-0.7316 Y1.3857 Z-0.2497
N17205 X-0.7283 Y1.3837 Z-0.25
N17210 G3 X-0.6986 Y1.375 I0.0318 J0.0536
N17215 G1 X-0.4849
N17220 G3 X-0.3617 Y1.3932 I-0.0054 J0.464
N17225 G1 X-0.2877 Y1.4102
N17230 X-0.2794 Y1.412
N17235 X-0.2548 Y1.417
N17240 X-0.1479 Y1.4319
N17245 X-0.1233 Y1.4343
N17250 X-0.1151 Y1.4348
N17255 X-0.0164 Y1.4394
N17260 X-0.0082 Y1.4395
N17265 X0.0082
N17270 X0.0164 Y1.4394
N17275 X0.1151 Y1.4348
N17280 X0.1233 Y1.4343
N17285 X0.1479 Y1.4319
N17290 X0.2548 Y1.417
N17295 X0.2794 Y1.412
N17300 G3 X0.4191 Y1.3801 I1.2026 J4.9405
N17305 X0.4931 Y1.375 I0.0706 J0.4797
N17310 G1 X0.5881
N17315 G3 X0.6111 Y1.3926 I-0.0009 J0.025
N17320 G1 X0.6122 Y1.3964 Z-0.2497
N17325 X0.6134 Y1.4 Z-0.2488
N17330 X0.6144 Y1.4035 Z-0.2473
N17335 X0.6154 Y1.4067 Z-0.2452
N17340 X0.6163 Y1.4095 Z-0.2427
N17345 X0.617 Y1.4119 Z-0.2397
N17350 X0.6176 Y1.4139 Z-0.2363
N17355 X0.6181 Y1.4153 Z-0.2327
N17360 X0.6184 Y1.4162 Z-0.2289
N17365 Y1.4165 Z-0.225
N17370 G0 Z0.2
N17375 G1 X1.3965 Y0.7498 F300.
N17380 G0 Z-0.2
N17385 G1 Z-0.225 F20.4
N17390 X1.3963 Y0.7495 Z-0.2289
N17395 X1.3959 Y0.7487 Z-0.2327
N17400 X1.3951 Y0.7474 Z-0.2363
N17405 X1.394 Y0.7457 Z-0.2397
