%
O01013
(Using high feed G1 F300. instead of G0.)
(T2 D=0.1875 CR=0. TAPER=118deg - ZMIN=-0.055 - center drill)
(T4 D=0.201 CR=0. TAPER=118deg - ZMIN=-0.4054 - drill)
(T9 D=0.25 CR=0. - ZMIN=-0.295 - flat end mill)
N10 G90 G94 G17
N15 G20
N20 G53 G0 Z0.

(Face3)
N25 T9 M6
N30 S4000 M3
N35 G17 G90 G94
N40 G54
N45 M8
N50 G1 X0.673 Y-1.6635 F300.
N55 G0 G43 Z0.6 H9
N60 G0 Z0.1
N65 G1 Z0.01 F3.
N70 G18 G3 X0.648 Z-0.015 I-0.025 K0. F20.4
N75 G1 X-0.648
N80 X-0.8532
N85 G17 G2 Y-1.5778 I0. J0.0428
N90 G1 X0.8532
N95 X1.0033
N100 G3 Y-1.4922 I0. J0.0428
N105 G1 X-1.0033
N110 X-1.1242
N115 G2 Y-1.4066 I0. J0.0428
N120 G1 X1.1242
N125 X1.2254
N130 G3 Y-1.3209 I0. J0.0428
N135 G1 X-1.2254
N140 X-1.3117
N145 G2 Y-1.2353 I0. J0.0428
N150 G1 X1.3117
N155 X1.3865
N160 G3 Y-1.1496 I0. J0.0428
N165 G1 X-1.3865
N170 X-1.4517
N175 G2 Y-1.064 I0. J0.0428
N180 G1 X1.4517
N185 X1.5083
N190 G3 Y-0.9783 I0. J0.0428
N195 G1 X-1.5083
N200 X-1.5576
N205 G2 Y-0.8927 I0. J0.0428
N210 G1 X1.5576
N215 X1.6003
N220 G3 Y-0.807 I0. J0.0428
N225 G1 X-1.6003
N230 X-1.6369
N235 G2 Y-0.7214 I0. J0.0428
N240 G1 X1.6369
N245 X1.6679
N250 G3 Y-0.6357 I0. J0.0428
N255 G1 X-1.6679
N260 X-1.6936
N265 G2 Y-0.5501 I0. J0.0428
N270 G1 X1.6936
N275 X1.7144
N280 G3 Y-0.4645 I0. J0.0428
N285 G1 X-1.7144
N290 X-1.7304
N295 G2 Y-0.3788 I0. J0.0428
N300 G1 X1.7304
N305 X1.7415
N310 G3 Y-0.2932 I0. J0.0428
N315 G1 X-1.7415
N320 X-1.7481
N325 G2 Y-0.2075 I0. J0.0428
N330 G1 X1.7481
N335 X1.7504
N340 G3 Y-0.1219 I0. J0.0428
N345 G1 X-1.7504
N350 G2 Y-0.0362 I0. J0.0428
N355 G1 X1.7504
N360 G3 Y0.0494 I0. J0.0428
N365 G1 X-1.7504
N370 G2 Y0.1351 I0. J0.0428
N375 G1 X-1.7502
N380 X1.7502
N385 G3 Y0.2207 I0. J0.0428
N390 G1 X1.7475
N395 X-1.7475
N400 G2 Y0.3064 I0. J0.0428
N405 G1 X-1.7401
N410 X1.7401
N415 G3 Y0.392 I0. J0.0428
N420 G1 X1.7281
N425 X-1.7281
N430 G2 Y0.4776 I0. J0.0428
N435 G1 X-1.7116
N440 X1.7116
N445 G3 Y0.5633 I0. J0.0428
N450 G1 X1.6901
N455 X-1.6901
N460 G2 Y0.6489 I0. J0.0428
N465 G1 X-1.6634
N470 X1.6634
N475 G3 Y0.7346 I0. J0.0428
N480 G1 X1.6315
N485 X-1.6315
N490 G2 Y0.8202 I0. J0.0428
N495 G1 X-1.594
N500 X1.594
N505 G3 Y0.9059 I0. J0.0428
N510 G1 X1.5503
N515 X-1.5503
N520 G2 Y0.9915 I0. J0.0428
N525 G1 X-1.4999
N530 X1.4999
N535 G3 Y1.0772 I0. J0.0428
N540 G1 X1.442
N545 X-1.442
N550 G2 Y1.1628 I0. J0.0428
N555 G1 X-1.3756
N560 X1.3756
N565 G3 Y1.2485 I0. J0.0428
N570 G1 X1.2993
N575 X-1.2993
N580 G2 Y1.3341 I0. J0.0428
N585 G1 X-1.2109
N590 X1.2109
N595 G3 Y1.4197 I0. J0.0428
N600 G1 X1.1073
N605 X-1.1073
N610 G2 Y1.5054 I0. J0.0428
N615 G1 X-0.9827
N620 X0.9827
N625 G18 G2 X1.0077 Z0.01 I0. K0.025
N630 G0 Z0.6
N635 M9
N640 M5
N645 G53 G0 Z0.

(Drill3)
N650 M1
N655 T2 M6
N660 S4000 M3
N665 G17 G90 G94
N670 G54
N675 G1 X0. Y-0.8661 F300.
N680 G0 G43 Z0.6 H2
N685 G0 Z0.2
N690 G98 G81 X0. Y-0.8661 Z-0.055 R0.185 F4.
N695 Y0.8661
N700 G80
N705 G0 Z0.6
N710 M5
N715 G53 G0 Z0.

(Drill4)
N720 M1
N725 T4 M6
N730 S4000 M3
N735 G17 G90 G94
N740 G54
N745 M8
N750 G1 X0. Y-0.8661 F300.
N755 G0 G43 Z0.6 H4
N760 G0 Z0.2
N765 G98 G73 X0. Y-0.8661 Z-0.4054 R0.185 Q0.0503 F10.
N770 Y0.8661
N775 G80
N780 G0 Z0.6
N785 M9
N790 M5
N795 G53 G0 Z0.

(2D Adaptive2)
N800 M1
N805 T9 M6
N810 S4000 M3
N815 G17 G90 G94
N820 G54
N825 M8
N830 G1 X-1.6508 Y-0.8094 F300.
N835 G0 G43 Z0.6 H9
N840 G0 Z0.2
N845 Z-0.005
N850 G1 Z-0.03 F20.4
N855 X-1.6507 Y-0.8091 Z-0.0339
N860 X-1.6505 Y-0.8082 Z-0.0377
N865 X-1.6501 Y-0.8068 Z-0.0413
N870 X-1.6496 Y-0.8048 Z-0.0447
N875 X-1.649 Y-0.8023 Z-0.0477
N880 X-1.6482 Y-0.7994 Z-0.0502
N885 X-1.6474 Y-0.7962 Z-0.0523
N890 X-1.6465 Y-0.7927 Z-0.0538
N895 X-1.6455 Y-0.789 Z-0.0547
N900 X-1.6446 Y-0.7852 Z-0.055
N905 G3 X-1.625 Y-0.6491 I-0.6183 J0.1584
N910 G1 Y-0.64
N915 X-1.6202 Y-0.6042
N920 X-1.6186 Y-0.5999
N925 X-1.616 Y-0.5916
N930 X-1.6135 Y-0.5812
N935 X-1.6106 Y-0.5644
N940 X-1.6086 Y-0.543
N945 X-1.6079 Y-0.5147
N950 X-1.6096 Y-0.4785
N955 X-1.6136 Y-0.4426
N960 X-1.6247 Y-0.371
N965 X-1.6301 Y-0.3353
N970 X-1.6409 Y-0.2637
N975 X-1.6457 Y-0.2279
N980 X-1.6497 Y-0.1919
N985 X-1.6529 Y-0.1559
N990 X-1.6557 Y-0.1198
N995 X-1.6582 Y-0.0837
N1000 X-1.6594 Y-0.0475
N1005 X-1.6597 Y-0.0113
N1010 X-1.6594 Y0.0248
N1015 X-1.6587 Y0.061
N1020 X-1.6571 Y0.0972
N1025 X-1.6544 Y0.1332
N1030 X-1.6509 Y0.1692
N1035 X-1.6468 Y0.2052
N1040 X-1.6424 Y0.2411
N1045 X-1.6366 Y0.2768
N1050 X-1.6299 Y0.3124
N1055 X-1.6226 Y0.3478
N1060 X-1.6149 Y0.3832
N1065 X-1.6063 Y0.4183
N1070 X-1.5966 Y0.4532
N1075 X-1.5862 Y0.4878
N1080 X-1.5752 Y0.5223
N1085 X-1.5638 Y0.5567
N1090 X-1.5512 Y0.5906
N1095 X-1.5378 Y0.6242
N1100 X-1.5237 Y0.6575
N1105 X-1.5092 Y0.6906
N1110 X-1.4939 Y0.7234
N1115 X-1.4776 Y0.7557
N1120 X-1.4606 Y0.7877
N1125 X-1.4431 Y0.8194
N1130 X-1.4253 Y0.8508
N1135 X-1.4063 Y0.8817
N1140 X-1.3866 Y0.912
N1145 X-1.3663 Y0.9419
N1150 X-1.3456 Y0.9716
N1155 X-1.3242 Y1.0008
N1160 X-1.3019 Y1.0293
N1165 X-1.279 Y1.0573
N1170 X-1.2557 Y1.085
N1175 X-1.2321 Y1.1124
N1180 X-1.2075 Y1.1389
N1185 X-1.1822 Y1.1648
N1190 X-1.1564 Y1.1902
N1195 X-1.1304 Y1.2153
N1200 X-1.1037 Y1.2397
N1205 X-1.0763 Y1.2634
N1210 X-1.0484 Y1.2864
N1215 X-1.0201 Y1.309
N1220 X-0.9916 Y1.3312
N1225 X-0.9623 Y1.3524
N1230 X-0.9324 Y1.3729
N1235 X-0.9022 Y1.3928
N1240 X-0.8718 Y1.4123
N1245 X-0.8408 Y1.4311
N1250 X-0.8094 Y1.4489
N1255 X-0.7775 Y1.4661
N1260 X-0.7454 Y1.4827
N1265 X-0.7131 Y1.499
N1270 X-0.6802 Y1.5141
N1275 X-0.6469 Y1.5283
N1280 X-0.6134 Y1.542
N1285 X-0.5797 Y1.5552
N1290 X-0.5457 Y1.5676
N1295 X-0.5114 Y1.5789
N1300 X-0.4768 Y1.5895
N1305 X-0.442 Y1.5996
N1310 X-0.4071 Y1.6092
N1315 X-0.3719 Y1.6176
N1320 X-0.3365 Y1.6251
N1325 X-0.301 Y1.632
N1330 X-0.2654 Y1.6383
N1335 X-0.2296 Y1.6439
N1340 X-0.1937 Y1.6483
N1345 X-0.1577 Y1.652
N1350 X-0.1217 Y1.6551
N1355 X-0.0856 Y1.6577
N1360 X-0.0495 Y1.6591
N1365 X-0.0133 Y1.6596
N1370 X0.0229 Y1.6593
N1375 X0.0591 Y1.6586
N1380 X0.0952 Y1.6571
N1385 X0.1313 Y1.6545
N1390 X0.1673 Y1.651
N1395 X0.2033 Y1.647
N1400 X0.2392 Y1.6426
N1405 X0.2749 Y1.6369
N1410 X0.3105 Y1.6303
N1415 X0.346 Y1.623
N1420 X0.3813 Y1.6153
N1425 X0.4165 Y1.6068
N1430 X0.4513 Y1.5971
N1435 X0.486 Y1.5867
N1440 X0.5205 Y1.5758
N1445 X0.5548 Y1.5645
N1450 X0.5888 Y1.5519
N1455 X0.6224 Y1.5385
N1460 X0.6557 Y1.5245
N1465 X0.6889 Y1.51
N1470 X0.7217 Y1.4947
N1475 X0.754 Y1.4785
N1480 X0.786 Y1.4615
N1485 X0.8177 Y1.4441
N1490 X0.8492 Y1.4263
N1495 X0.88 Y1.4074
N1500 X0.9104 Y1.3876
N1505 X0.9403 Y1.3674
N1510 X0.97 Y1.3467
N1515 X0.9993 Y1.3254
N1520 X1.0278 Y1.3031
N1525 X1.0558 Y1.2803
N1530 X1.0835 Y1.257
N1535 X1.1109 Y1.2334
N1540 X1.1375 Y1.2088
N1545 X1.1634 Y1.1835
N1550 X1.1889 Y1.1578
N1555 X1.214 Y1.1318
N1560 X1.2385 Y1.1051
N1565 X1.2621 Y1.0778
N1570 X1.2852 Y1.0499
N1575 X1.3078 Y1.0216
N1580 X1.3301 Y0.9931
N1585 X1.3513 Y0.9639
N1590 X1.3718 Y0.934
N1595 X1.3918 Y0.9038
N1600 X1.4113 Y0.8734
N1605 X1.4301 Y0.8425
N1610 X1.448 Y0.811
N1615 X1.4652 Y0.7792
N1620 X1.4818 Y0.7471
N1625 X1.4981 Y0.7148
N1630 X1.5133 Y0.6819
N1635 X1.5276 Y0.6487
N1640 X1.5413 Y0.6152
N1645 X1.5545 Y0.5815
N1650 X1.567 Y0.5475
N1655 X1.5784 Y0.5132
N1660 X1.589 Y0.4786
N1665 X1.5991 Y0.4439
N1670 X1.6087 Y0.409
N1675 X1.6172 Y0.3738
N1680 X1.6247 Y0.3384
N1685 X1.6316 Y0.3029
N1690 X1.638 Y0.2673
N1695 X1.6436 Y0.2315
N1700 X1.6481 Y0.1956
N1705 X1.6518 Y0.1596
N1710 X1.6549 Y0.1236
N1715 X1.6576 Y0.0875
N1720 X1.6591 Y0.0514
N1725 X1.6595 Y0.0152
N1730 X1.6594 Y-0.021
N1735 X1.6587 Y-0.0572
N1740 X1.6572 Y-0.0933
N1745 X1.6546 Y-0.1294
N1750 X1.6512 Y-0.1654
N1755 X1.6472 Y-0.2014
N1760 X1.6429 Y-0.2373
N1765 X1.6372 Y-0.2731
N1770 X1.6307 Y-0.3086
N1775 X1.6234 Y-0.3441
N1780 X1.6157 Y-0.3794
N1785 X1.6072 Y-0.4146
N1790 X1.5977 Y-0.4495
N1795 X1.5873 Y-0.4842
N1800 X1.5764 Y-0.5187
N1805 X1.5651 Y-0.553
N1810 X1.5526 Y-0.587
N1815 X1.5392 Y-0.6206
N1820 X1.5252 Y-0.654
N1825 X1.5107 Y-0.6871
N1830 X1.4956 Y-0.72
N1835 X1.4794 Y-0.7523
N1840 X1.4625 Y-0.7843
N1845 X1.445 Y-0.816
N1850 X1.4272 Y-0.8475
N1855 X1.4084 Y-0.8784
N1860 X1.3887 Y-0.9088
N1865 X1.3684 Y-0.9388
N1870 X1.3478 Y-0.9685
N1875 X1.3265 Y-0.9977
N1880 X1.3043 Y-1.0263
N1885 X1.2815 Y-1.0544
N1890 X1.2582 Y-1.0821
N1895 X1.2346 Y-1.1095
N1900 X1.2101 Y-1.1361
N1905 X1.1849 Y-1.1621
N1910 X1.1592 Y-1.1875
N1915 X1.1331 Y-1.2126
N1920 X1.1066 Y-1.2372
N1925 X1.0792 Y-1.2609
N1930 X1.0514 Y-1.284
N1935 X1.0231 Y-1.3066
N1940 X0.9946 Y-1.3289
N1945 X0.9654 Y-1.3502
N1950 X0.9356 Y-1.3708
N1955 X0.9054 Y-1.3907
N1960 X0.875 Y-1.4103
N1965 X0.8441 Y-1.4292
N1970 X0.8127 Y-1.4471
N1975 X0.7809 Y-1.4643
N1980 X0.7488 Y-1.481
N1985 X0.7165 Y-1.4973
N1990 X0.6836 Y-1.5125
N1995 X0.6504 Y-1.5268
N2000 X0.6169 Y-1.5405
N2005 X0.5833 Y-1.5538
N2010 X0.5493 Y-1.5663
N2015 X0.515 Y-1.5778
N2020 X0.4804 Y-1.5884
N2025 X0.4457 Y-1.5985
N2030 X0.4108 Y-1.6082
N2035 X0.3757 Y-1.6168
N2040 X0.3403 Y-1.6244
N2045 X0.3048 Y-1.6313
N2050 X0.2692 Y-1.6377
N2055 X0.2334 Y-1.6434
N2060 X0.1975 Y-1.6479
N2065 X0.1615 Y-1.6516
N2070 X0.1255 Y-1.6547
N2075 X0.0894 Y-1.6575
N2080 X0.0533 Y-1.659
N2085 X0.0171 Y-1.6595
N2090 X-0.0191 Y-1.6594
N2095 X-0.0553 Y-1.6587
N2100 X-0.0914 Y-1.6573
N2105 X-0.1275 Y-1.6548
N2110 X-0.1635 Y-1.6514
N2115 X-0.1995 Y-1.6475
N2120 X-0.2354 Y-1.6431
N2125 X-0.2712 Y-1.6375
N2130 X-0.3068 Y-1.631
N2135 X-0.3422 Y-1.6238
N2140 X-0.3776 Y-1.6161
N2145 X-0.4128 Y-1.6077
N2150 X-0.4477 Y-1.5982
N2155 X-0.4824 Y-1.5879
N2160 X-0.5169 Y-1.577
N2165 X-0.5512 Y-1.5657
N2170 X-0.5852 Y-1.5533
N2175 X-0.6188 Y-1.5399
N2180 X-0.6522 Y-1.5259
N2185 X-0.6854 Y-1.5115
N2190 X-0.7183 Y-1.4964
N2195 X-0.7507 Y-1.4802
N2200 X-0.7827 Y-1.4634
N2205 X-0.8144 Y-1.4459
N2210 X-0.8459 Y-1.4282
N2215 X-0.8768 Y-1.4094
N2220 X-0.9072 Y-1.3897
N2225 X-0.9372 Y-1.3695
N2230 X-0.9669 Y-1.3489
N2235 X-0.9962 Y-1.3277
N2240 X-1.0248 Y-1.3055
N2245 X-1.0529 Y-1.2827
N2250 X-1.0806 Y-1.2594
N2255 X-1.1081 Y-1.2359
N2260 X-1.1347 Y-1.2114
N2265 X-1.1607 Y-1.1862
N2270 X-1.1862 Y-1.1605
N2275 X-1.2113 Y-1.1345
N2280 X-1.2359 Y-1.108
N2285 X-1.2597 Y-1.0807
N2290 X-1.2828 Y-1.0528
N2295 X-1.3054 Y-1.0246
N2300 X-1.3277 Y-0.9961
N2305 X-1.3491 Y-0.9669
N2310 X-1.3697 Y-0.9372
N2315 X-1.3897 Y-0.907
N2320 X-1.4093 Y-0.8766
N2325 X-1.4282 Y-0.8458
N2330 X-1.4462 Y-0.8144
N2335 X-1.4634 Y-0.7825
N2340 X-1.4801 Y-0.7504
N2345 X-1.4957 Y-0.7178
N2350 X-1.505 Y-0.6828
N2355 X-1.5105 Y-0.6471
N2360 X-1.514 Y-0.611
N2365 X-1.5194 Y-0.5389
N2370 X-1.5226 Y-0.5028
N2375 X-1.5265 Y-0.4669
N2380 X-1.5309 Y-0.431
N2385 X-1.5357 Y-0.3951
N2390 X-1.5406 Y-0.3593
N2395 X-1.5456 Y-0.3234
N2400 X-1.5505 Y-0.2876
N2405 X-1.555 Y-0.2517
N2410 X-1.5591 Y-0.2157
N2415 X-1.5627 Y-0.1797
N2420 X-1.5658 Y-0.1437
N2425 X-1.5682 Y-0.1076
N2430 X-1.5698 Y-0.0714
N2435 X-1.5707 Y-0.0352
N2440 X-1.571 Y0.0009
N2445 X-1.5704 Y0.0371
N2450 X-1.569 Y0.0733
N2455 X-1.5668 Y0.1094
N2460 X-1.5639 Y0.1454
N2465 X-1.5601 Y0.1814
N2470 X-1.5554 Y0.2173
N2475 X-1.5499 Y0.2531
N2480 X-1.5437 Y0.2887
N2485 X-1.5366 Y0.3242
N2490 X-1.5287 Y0.3595
N2495 X-1.52 Y0.3946
N2500 X-1.5105 Y0.4295
N2505 X-1.5003 Y0.4642
N2510 X-1.4892 Y0.4987
N2515 X-1.4772 Y0.5328
N2520 X-1.4645 Y0.5667
N2525 X-1.4512 Y0.6003
N2530 X-1.4369 Y0.6336
N2535 X-1.4219 Y0.6665
N2540 X-1.4062 Y0.6991
N2545 X-1.3898 Y0.7313
N2550 X-1.3726 Y0.7632
N2555 X-1.3546 Y0.7946
N2560 X-1.3359 Y0.8256
N2565 X-1.3165 Y0.8561
N2570 X-1.2965 Y0.8862
N2575 X-1.2757 Y0.9158
N2580 X-1.2542 Y0.945
N2585 X-1.2321 Y0.9736
N2590 X-1.2094 Y1.0018
N2595 X-1.186 Y1.0294
N2600 X-1.1619 Y1.0564
N2605 X-1.1373 Y1.0829
N2610 X-1.1121 Y1.1088
N2615 X-1.0862 Y1.1342
N2620 X-1.0598 Y1.1588
N2625 X-1.0328 Y1.1829
N2630 X-1.0053 Y1.2065
N2635 X-0.9773 Y1.2294
N2640 X-0.9487 Y1.2515
N2645 X-0.9196 Y1.273
N2650 X-0.89 Y1.2939
N2655 X-0.86 Y1.3141
N2660 X-0.8295 Y1.3335
N2665 X-0.7985 Y1.3522
N2670 X-0.7671 Y1.3702
N2675 X-0.7354 Y1.3876
N2680 X-0.7032 Y1.4042
N2685 X-0.6707 Y1.42
N2690 X-0.6378 Y1.435
N2695 X-0.6046 Y1.4494
N2700 X-0.571 Y1.4629
N2705 X-0.5371 Y1.4757
N2710 X-0.503 Y1.4876
N2715 X-0.4686 Y1.4989
N2720 X-0.434 Y1.5094
N2725 X-0.3991 Y1.5189
N2730 X-0.364 Y1.5276
N2735 X-0.3287 Y1.5356
N2740 X-0.2932 Y1.5428
N2745 X-0.2576 Y1.5491
N2750 X-0.2218 Y1.5546
N2755 X-0.186 Y1.5593
N2760 X-0.15 Y1.5633
N2765 X-0.1139 Y1.5663
N2770 X-0.0778 Y1.5685
N2775 X-0.0417 Y1.5698
N2780 X-0.0055 Y1.5704
N2785 X0.0307 Y1.5701
N2790 X0.0669 Y1.5689
N2795 X0.103 Y1.567
N2800 X0.1391 Y1.5643
N2805 X0.1751 Y1.5607
N2810 X0.211 Y1.5562
N2815 X0.2468 Y1.5509
N2820 X0.2824 Y1.5448
N2825 X0.318 Y1.5379
N2830 X0.3533 Y1.5302
N2835 X0.3884 Y1.5216
N2840 X0.4234 Y1.5122
N2845 X0.4581 Y1.5021
N2850 X0.4926 Y1.4912
N2855 X0.5268 Y1.4794
N2860 X0.5608 Y1.4668
N2865 X0.5944 Y1.4536
N2870 X0.6278 Y1.4395
N2875 X0.6607 Y1.4246
N2880 X0.6934 Y1.409
N2885 X0.7257 Y1.3927
N2890 X0.7576 Y1.3757
N2895 X0.7891 Y1.3578
N2900 X0.8201 Y1.3392
N2905 X0.8508 Y1.32
N2910 X0.881 Y1.3001
N2915 X0.9107 Y1.2794
N2920 X0.9399 Y1.2581
N2925 X0.9686 Y1.2361
N2930 X0.9969 Y1.2135
N2935 X1.0246 Y1.1902
N2940 X1.0517 Y1.1662
N2945 X1.0782 Y1.1417
N2950 X1.1043 Y1.1166
N2955 X1.1297 Y1.0908
N2960 X1.1545 Y1.0645
N2965 X1.1787 Y1.0376
N2970 X1.2024 Y1.0102
N2975 X1.2254 Y0.9823
N2980 X1.2477 Y0.9538
N2985 X1.2693 Y0.9247
N2990 X1.2902 Y0.8953
N2995 X1.3106 Y0.8653
N3000 X1.3301 Y0.8349
N3005 X1.349 Y0.804
N3010 X1.3671 Y0.7727
N3015 X1.3846 Y0.741
N3020 X1.4013 Y0.7089
N3025 X1.4172 Y0.6764
N3030 X1.4324 Y0.6436
N3035 X1.4469 Y0.6104
N3040 X1.4606 Y0.5769
N3045 X1.4735 Y0.5431
N3050 X1.4855 Y0.509
N3055 X1.4969 Y0.4747
N3060 X1.5075 Y0.4401
N3065 X1.5173 Y0.4052
N3070 X1.5261 Y0.3702
N3075 X1.5343 Y0.3349
N3080 X1.5416 Y0.2995
N3085 X1.5481 Y0.2639
N3090 X1.5537 Y0.2281
N3095 X1.5585 Y0.1923
N3100 X1.5626 Y0.1563
N3105 X1.5658 Y0.1203
N3110 X1.5681 Y0.0842
N3115 X1.5696 Y0.048
N3120 X1.5703 Y0.0119
N3125 X1.5702 Y-0.0243
N3130 X1.5692 Y-0.0605
N3135 X1.5673 Y-0.0966
N3140 X1.5648 Y-0.1327
N3145 X1.5614 Y-0.1687
N3150 X1.557 Y-0.2047
N3155 X1.5519 Y-0.2405
N3160 X1.5459 Y-0.2762
N3165 X1.5392 Y-0.3117
N3170 X1.5316 Y-0.3471
N3175 X1.5231 Y-0.3823
N3180 X1.5139 Y-0.4173
N3185 X1.504 Y-0.452
N3190 X1.4932 Y-0.4866
N3195 X1.4815 Y-0.5208
N3200 X1.4691 Y-0.5548
N3205 X1.4559 Y-0.5885
N3210 X1.442 Y-0.6219
N3215 X1.4273 Y-0.655
N3220 X1.4118 Y-0.6876
N3225 X1.3956 Y-0.72
N3230 X1.3787 Y-0.752
N3235 X1.361 Y-0.7836
N3240 X1.3425 Y-0.8147
N3245 X1.3234 Y-0.8454
N3250 X1.3036 Y-0.8757
N3255 X1.2831 Y-0.9055
N3260 X1.2619 Y-0.9348
N3265 X1.24 Y-0.9636
N3270 X1.2175 Y-0.9919
N3275 X1.1943 Y-1.0197
N3280 X1.1705 Y-1.0469
N3285 X1.146 Y-1.0736
N3290 X1.121 Y-1.0997
N3295 X1.0954 Y-1.1253
N3300 X1.0692 Y-1.1502
N3305 X1.0423 Y-1.1745
N3310 X1.015 Y-1.1982
N3315 X0.9872 Y-1.2214
N3320 X0.9588 Y-1.2438
N3325 X0.9299 Y-1.2655
N3330 X0.9005 Y-1.2866
N3335 X0.8706 Y-1.307
N3340 X0.8403 Y-1.3268
N3345 X0.8095 Y-1.3457
N3350 X0.7782 Y-1.364
N3355 X0.7466 Y-1.3816
N3360 X0.7146 Y-1.3985
N3365 X0.6822 Y-1.4145
N3370 X0.6494 Y-1.4298
N3375 X0.6163 Y-1.4444
N3380 X0.5829 Y-1.4582
N3385 X0.5491 Y-1.4712
N3390 X0.515 Y-1.4835
N3395 X0.4807 Y-1.495
N3400 X0.4462 Y-1.5057
N3405 X0.4114 Y-1.5156
N3410 X0.3763 Y-1.5246
N3415 X0.3411 Y-1.5329
N3420 X0.3057 Y-1.5404
N3425 X0.2701 Y-1.547
N3430 X0.2344 Y-1.5528
N3435 X0.1986 Y-1.5578
N3440 X0.1627 Y-1.562
N3445 X0.1266 Y-1.5653
N3450 X0.0905 Y-1.5678
N3455 X0.0544 Y-1.5694
N3460 X0.0182 Y-1.5703
N3465 X-0.018
N3470 X-0.0541 Y-1.5694
N3475 X-0.0903 Y-1.5677
N3480 X-0.1264 Y-1.5653
N3485 X-0.1624 Y-1.562
N3490 X-0.1984 Y-1.5578
N3495 X-0.2342 Y-1.5528
N3500 X-0.2699 Y-1.547
N3505 X-0.3055 Y-1.5404
N3510 X-0.3409 Y-1.533
N3515 X-0.3761 Y-1.5247
N3520 X-0.4111 Y-1.5156
N3525 X-0.446 Y-1.5058
N3530 X-0.4805 Y-1.4951
N3535 X-0.5148 Y-1.4836
N3540 X-0.5489 Y-1.4713
N3545 X-0.5826 Y-1.4583
N3550 X-0.6161 Y-1.4445
N3555 X-0.6492 Y-1.4299
N3560 X-0.6819 Y-1.4145
N3565 X-0.7143 Y-1.3985
N3570 X-0.7464 Y-1.3817
N3575 X-0.778 Y-1.3641
N3580 X-0.8092 Y-1.3458
N3585 X-0.84 Y-1.3268
N3590 X-0.8704 Y-1.3071
N3595 X-0.9003 Y-1.2868
N3600 X-0.9297 Y-1.2656
N3605 X-0.9586 Y-1.2439
N3610 X-0.987 Y-1.2215
N3615 X-1.0149 Y-1.1985
N3620 X-1.0422 Y-1.1747
N3625 X-1.069 Y-1.1504
N3630 X-1.0952 Y-1.1254
N3635 X-1.1209 Y-1.0999
N3640 X-1.1459 Y-1.0738
N3645 X-1.1703 Y-1.0471
N3650 X-1.1941 Y-1.0199
N3655 X-1.2173 Y-0.9921
N3660 X-1.2399 Y-0.9638
N3665 X-1.2617 Y-0.935
N3670 X-1.2829 Y-0.9056
N3675 X-1.3035 Y-0.8759
N3680 X-1.3233 Y-0.8456
N3685 X-1.3424 Y-0.8149
N3690 X-1.3608 Y-0.7837
N3695 X-1.3776 Y-0.7517
N3700 X-1.3914 Y-0.7183
N3705 X-1.4023 Y-0.6837
N3710 X-1.4109 Y-0.6486
N3715 X-1.4178 Y-0.6131
N3720 X-1.4235 Y-0.5774
N3725 X-1.4288 Y-0.5415
N3730 X-1.4338 Y-0.5057
N3735 X-1.4436 Y-0.434
N3740 X-1.4534 Y-0.3623
N3745 X-1.4582 Y-0.3265
N3750 X-1.4628 Y-0.2906
N3755 X-1.4671 Y-0.2547
N3760 X-1.4711 Y-0.2187
N3765 X-1.4745 Y-0.1827
N3770 X-1.4774 Y-0.1466
N3775 X-1.4796 Y-0.1105
N3780 X-1.4812 Y-0.0743
N3785 X-1.482 Y-0.0382
N3790 X-1.4821 Y-0.002
N3795 X-1.4814 Y0.0342
N3800 X-1.4799 Y0.0703
N3805 X-1.4776 Y0.1064
N3810 X-1.4744 Y0.1425
N3815 X-1.4704 Y0.1784
N3820 X-1.4656 Y0.2143
N3825 X-1.4598 Y0.25
N3830 X-1.4532 Y0.2856
N3835 X-1.4458 Y0.321
N3840 X-1.4375 Y0.3562
N3845 X-1.4284 Y0.3912
N3850 X-1.4184 Y0.426
N3855 X-1.4075 Y0.4605
N3860 X-1.3959 Y0.4948
N3865 X-1.3833 Y0.5287
N3870 X-1.37 Y0.5624
N3875 X-1.3558 Y0.5957
N3880 X-1.3409 Y0.6286
N3885 X-1.3252 Y0.6612
N3890 X-1.3086 Y0.6934
N3895 X-1.2913 Y0.7251
N3900 X-1.2732 Y0.7565
N3905 X-1.2543 Y0.7873
N3910 X-1.2347 Y0.8177
N3915 X-1.2143 Y0.8476
N3920 X-1.1933 Y0.8771
N3925 X-1.1715 Y0.906
N3930 X-1.149 Y0.9343
N3935 X-1.1259 Y0.9621
N3940 X-1.102 Y0.9893
N3945 X-1.0775 Y1.0159
N3950 X-1.0524 Y1.0419
N3955 X-1.0266 Y1.0673
N3960 X-1.0002 Y1.0921
N3965 X-0.9732 Y1.1162
N3970 X-0.9457 Y1.1397
N3975 X-0.9176 Y1.1624
N3980 X-0.8889 Y1.1845
N3985 X-0.8597 Y1.2059
N3990 X-0.83 Y1.2265
N3995 X-0.7998 Y1.2464
N4000 X-0.7691 Y1.2656
N4005 X-0.7379 Y1.284
N4010 X-0.7063 Y1.3017
N4015 X-0.6743 Y1.3185
N4020 X-0.6419 Y1.3346
N4025 X-0.6091 Y1.3499
N4030 X-0.576 Y1.3643
N4035 X-0.5424 Y1.378
N4040 X-0.5086 Y1.3908
N4045 X-0.4745 Y1.4029
N4050 X-0.4401 Y1.414
N4055 X-0.4054 Y1.4244
N4060 X-0.3705 Y1.4338
N4065 X-0.3354 Y1.4425
N4070 X-0.3 Y1.4502
N4075 X-0.2645 Y1.4571
N4080 X-0.2288 Y1.4632
N4085 X-0.193 Y1.4683
N4090 X-0.1571 Y1.4726
N4095 X-0.1211 Y1.476
N4100 X-0.085 Y1.4785
N4105 X-0.0488 Y1.4801
N4110 X-0.0126 Y1.4809
N4115 X0.0235 Y1.4807
N4120 X0.0597 Y1.4797
N4125 X0.0958 Y1.4778
N4130 X0.1319 Y1.4751
N4135 X0.1679 Y1.4714
N4140 X0.2038 Y1.4668
N4145 X0.2396 Y1.4614
N4150 X0.2752 Y1.4551
N4155 X0.3107 Y1.448
N4160 X0.346 Y1.44
N4165 X0.381 Y1.4311
N4170 X0.4159 Y1.4214
N4175 X0.4505 Y1.4108
N4180 X0.4848 Y1.3993
N4185 X0.5189 Y1.3871
N4190 X0.5526 Y1.374
N4195 X0.586 Y1.3601
N4200 X0.619 Y1.3453
N4205 X0.6517 Y1.3298
N4210 X0.684 Y1.3135
N4215 X0.7159 Y1.2964
N4220 X0.7474 Y1.2785
N4225 X0.7784 Y1.2599
N4230 X0.8089 Y1.2405
N4235 X0.839 Y1.2204
N4240 X0.8685 Y1.1995
N4245 X0.8976 Y1.1779
N4250 X0.9261 Y1.1557
N4255 X0.9541 Y1.1327
N4260 X0.9814 Y1.109
N4265 X1.0082 Y1.0847
N4270 X1.0344 Y1.0598
N4275 X1.06 Y1.0342
N4280 X1.085 Y1.008
N4285 X1.1093 Y0.9812
N4290 X1.1329 Y0.9538
N4295 X1.1559 Y0.9258
N4300 X1.1781 Y0.8973
N4305 X1.1997 Y0.8683
N4310 X1.2206 Y0.8387
N4315 X1.2407 Y0.8086
N4320 X1.2601 Y0.7781
N4325 X1.2787 Y0.7471
N4330 X1.2966 Y0.7156
N4335 X1.3137 Y0.6837
N4340 X1.33 Y0.6514
N4345 X1.3455 Y0.6187
N4350 X1.3602 Y0.5857
N4355 X1.3741 Y0.5523
N4360 X1.3872 Y0.5185
N4365 X1.3994 Y0.4845
N4370 X1.4109 Y0.4501
N4375 X1.4214 Y0.4155
N4380 X1.4312 Y0.3807
N4385 X1.44 Y0.3456
N4390 X1.448 Y0.3103
N4395 X1.4552 Y0.2749
N4400 X1.4615 Y0.2392
N4405 X1.4669 Y0.2035
N4410 X1.4714 Y0.1676
N4415 X1.4751 Y0.1316
N4420 X1.4779 Y0.0955
N4425 X1.4798 Y0.0594
N4430 X1.4808 Y0.0232
N4435 X1.4809 Y-0.013
N4440 X1.4801 Y-0.0492
N4445 X1.4785 Y-0.0853
N4450 X1.4759 Y-0.1214
N4455 X1.4725 Y-0.1574
N4460 X1.4682 Y-0.1934
N4465 X1.4631 Y-0.2292
N4470 X1.4571 Y-0.2648
N4475 X1.4501 Y-0.3004
N4480 X1.4424 Y-0.3357
N4485 X1.4338 Y-0.3708
N4490 X1.4243 Y-0.4058
N4495 X1.4139 Y-0.4404
N4500 X1.4028 Y-0.4748
N4505 X1.3907 Y-0.509
N4510 X1.3779 Y-0.5428
N4515 X1.3642 Y-0.5763
N4520 X1.3497 Y-0.6094
N4525 X1.3344 Y-0.6422
N4530 X1.3183 Y-0.6746
N4535 X1.3014 Y-0.7066
N4540 X1.2838 Y-0.7382
N4545 X1.2654 Y-0.7694
N4550 X1.2462 Y-0.8001
N4555 X1.2263 Y-0.8303
N4560 X1.2056 Y-0.86
N4565 X1.1843 Y-0.8892
N4570 X1.1622 Y-0.9178
N4575 X1.1394 Y-0.946
N4580 X1.116 Y-0.9735
N4585 X1.0919 Y-1.0005
N4590 X1.0671 Y-1.0269
N4595 X1.0417 Y-1.0526
N4600 X1.0157 Y-1.0778
N4605 X0.989 Y-1.1022
N4610 X0.9618 Y-1.1261
N4615 X0.934 Y-1.1492
N4620 X0.9057 Y-1.1717
N4625 X0.8768 Y-1.1935
N4630 X0.8473 Y-1.2146
N4635 X0.8174 Y-1.2349
N4640 X0.787 Y-1.2545
N4645 X0.7561 Y-1.2734
N4650 X0.7248 Y-1.2914
N4655 X0.693 Y-1.3088
N4660 X0.6609 Y-1.3253
N4665 X0.6283 Y-1.3411
N4670 X0.5953 Y-1.356
N4675 X0.562 Y-1.3701
N4680 X0.5284 Y-1.3835
N4685 X0.4944 Y-1.396
N4690 X0.4602 Y-1.4076
N4695 X0.4256 Y-1.4184
N4700 X0.3909 Y-1.4284
N4705 X0.3559 Y-1.4375
N4710 X0.3206 Y-1.4458
N4715 X0.2852 Y-1.4532
N4720 X0.2496 Y-1.4597
N4725 X0.2139 Y-1.4654
N4730 X0.178 Y-1.4702
N4735 X0.1421 Y-1.4741
N4740 X0.106 Y-1.4771
N4745 X0.0699 Y-1.4793
N4750 X0.0337 Y-1.4806
N4755 X-0.0025 Y-1.4809
N4760 X-0.0386 Y-1.4804
N4765 X-0.0748 Y-1.479
N4770 X-0.1109 Y-1.4768
N4775 X-0.1469 Y-1.4736
N4780 X-0.1829 Y-1.4696
N4785 X-0.2187 Y-1.4647
N4790 X-0.2545 Y-1.4589
N4795 X-0.29 Y-1.4522
N4800 X-0.3254 Y-1.4447
N4805 X-0.3606 Y-1.4363
N4810 X-0.3956 Y-1.4271
N4815 X-0.4304 Y-1.417
N4820 X-0.4648 Y-1.4061
N4825 X-0.4991 Y-1.3943
N4830 X-0.533 Y-1.3817
N4835 X-0.5666 Y-1.3683
N4840 X-0.5998 Y-1.354
N4845 X-0.6327 Y-1.339
N4850 X-0.6652 Y-1.3231
N4855 X-0.6974 Y-1.3064
N4860 X-0.7291 Y-1.289
N4865 X-0.7603 Y-1.2708
N4870 X-0.7912 Y-1.2519
N4875 X-0.8215 Y-1.2322
N4880 X-0.8514 Y-1.2117
N4885 X-0.8807 Y-1.1906
N4890 X-0.9095 Y-1.1687
N4895 X-0.9378 Y-1.1461
N4900 X-0.9655 Y-1.1229
N4905 X-0.9927 Y-1.099
N4910 X-1.0193 Y-1.0744
N4915 X-1.0452 Y-1.0492
N4920 X-1.0705 Y-1.0233
N4925 X-1.0952 Y-0.9969
N4930 X-1.1192 Y-0.9698
N4935 X-1.1426 Y-0.9422
N4940 X-1.1652 Y-0.914
N4945 X-1.1872 Y-0.8852
N4950 X-1.2085 Y-0.856
N4955 X-1.229 Y-0.8262
N4960 X-1.2487 Y-0.7958
N4965 X-1.2668 Y-0.7645
N4970 X-1.2828 Y-0.732
N4975 X-1.2964 Y-0.6985
N4980 X-1.308 Y-0.6642
N4985 X-1.3179 Y-0.6294
N4990 X-1.3263 Y-0.5942
N4995 X-1.3337 Y-0.5588
N5000 X-1.3404 Y-0.5233
N5005 X-1.3465 Y-0.4876
N5010 X-1.3523 Y-0.4519
N5015 X-1.3578 Y-0.4161
N5020 X-1.3631 Y-0.3803
N5025 X-1.3681 Y-0.3445
N5030 X-1.3728 Y-0.3086
N5035 X-1.3773 Y-0.2727
N5040 X-1.3813 Y-0.2368
N5045 X-1.3848 Y-0.2007
N5050 X-1.3878 Y-0.1647
N5055 X-1.3903 Y-0.1286
N5060 X-1.392 Y-0.0925
N5065 X-1.3931 Y-0.0563
N5070 X-1.3934 Y-0.0201
N5075 X-1.3929 Y0.0161
N5080 X-1.3916 Y0.0522
N5085 X-1.3895 Y0.0883
N5090 X-1.3865 Y0.1244
N5095 X-1.3826 Y0.1604
N5100 X-1.3778 Y0.1962
N5105 X-1.3721 Y0.232
N5110 X-1.3655 Y0.2676
N5115 X-1.358 Y0.303
N5120 X-1.3496 Y0.3381
N5125 X-1.3404 Y0.3731
N5130 X-1.3302 Y0.4078
N5135 X-1.3191 Y0.4423
N5140 X-1.3071 Y0.4764
N5145 X-1.2943 Y0.5103
N5150 X-1.2806 Y0.5438
N5155 X-1.266 Y0.5769
N5160 X-1.2506 Y0.6096
N5165 X-1.2343 Y0.6419
N5170 X-1.2172 Y0.6738
N5175 X-1.1993 Y0.7052
N5180 X-1.1805 Y0.7361
N5185 X-1.161 Y0.7666
N5190 X-1.1406 Y0.7965
N5195 X-1.1195 Y0.8259
N5200 X-1.0977 Y0.8547
N5205 X-1.0751 Y0.883
N5210 X-1.0518 Y0.9107
N5215 X-1.0277 Y0.9377
N5220 X-1.003 Y0.9641
N5225 X-0.9776 Y0.9899
N5230 X-0.9515 Y1.015
N5235 X-0.9248 Y1.0394
N5240 X-0.8975 Y1.0631
N5245 X-0.8695 Y1.0861
N5250 X-0.841 Y1.1083
N5255 X-0.8119 Y1.1298
N5260 X-0.7822 Y1.1505
N5265 X-0.752 Y1.1705
N5270 X-0.7213 Y1.1896
N5275 X-0.6902 Y1.208
N5280 X-0.6585 Y1.2255
N5285 X-0.6264 Y1.2422
N5290 X-0.5939 Y1.2581
N5295 X-0.561 Y1.2731
N5300 X-0.5277 Y1.2873
N5305 X-0.494 Y1.3006
N5310 X-0.4601 Y1.313
N5315 X-0.4258 Y1.3245
N5320 X-0.3912 Y1.3351
N5325 X-0.3563 Y1.3448
N5330 X-0.3212 Y1.3536
N5335 X-0.2859 Y1.3615
N5340 X-0.2504 Y1.3685
N5345 X-0.2147 Y1.3746
N5350 X-0.1789 Y1.3797
N5355 X-0.143 Y1.3839
N5360 X-0.1069 Y1.3871
N5365 X-0.0708 Y1.3894
N5370 X-0.0347 Y1.3908
N5375 X0.0015 Y1.3912
N5380 X0.0377 Y1.3907
N5385 X0.0738 Y1.3893
N5390 X0.1099 Y1.3869
N5395 X0.146 Y1.3836
N5400 X0.1819 Y1.3793
N5405 X0.2177 Y1.3741
N5410 X0.2534 Y1.368
N5415 X0.2888 Y1.3609
N5420 X0.3241 Y1.3529
N5425 X0.3592 Y1.3441
N5430 X0.394 Y1.3343
N5435 X0.4286 Y1.3236
N5440 X0.4629 Y1.312
N5445 X0.4968 Y1.2995
N5450 X0.5305 Y1.2861
N5455 X0.5637 Y1.2719
N5460 X0.5966 Y1.2568
N5465 X0.6291 Y1.2409
N5470 X0.6612 Y1.2241
N5475 X0.6928 Y1.2065
N5480 X0.7239 Y1.1881
N5485 X0.7546 Y1.1688
N5490 X0.7847 Y1.1488
N5495 X0.8143 Y1.128
N5500 X0.8434 Y1.1065
N5505 X0.8718 Y1.0842
N5510 X0.8997 Y1.0611
N5515 X0.927 Y1.0373
N5520 X0.9537 Y1.0129
N5525 X0.9797 Y0.9878
N5530 X1.0051 Y0.9619
N5535 X1.0298 Y0.9355
N5540 X1.0538 Y0.9084
N5545 X1.077 Y0.8807
N5550 X1.0996 Y0.8524
N5555 X1.1213 Y0.8235
N5560 X1.1424 Y0.7941
N5565 X1.1626 Y0.7641
N5570 X1.1821 Y0.7336
N5575 X1.2008 Y0.7026
N5580 X1.2186 Y0.6711
N5585 X1.2357 Y0.6392
N5590 X1.2519 Y0.6069
N5595 X1.2672 Y0.5741
N5600 X1.2817 Y0.541
N5605 X1.2954 Y0.5074
N5610 X1.3082 Y0.4736
N5615 X1.32 Y0.4394
N5620 X1.331 Y0.4049
N5625 X1.3411 Y0.3702
N5630 X1.3503 Y0.3352
N5635 X1.3585 Y0.3
N5640 X1.3659 Y0.2645
N5645 X1.3723 Y0.2289
N5650 X1.3777 Y0.1932
N5655 X1.3823 Y0.1573
N5660 X1.3859 Y0.1213
N5665 X1.3886 Y0.0852
N5670 X1.3903 Y0.049
N5675 X1.3912 Y0.0129
N5680 X1.391 Y-0.0233
N5685 X1.39 Y-0.0595
N5690 X1.388 Y-0.0956
N5695 X1.385 Y-0.1317
N5700 X1.3811 Y-0.1676
N5705 X1.3763 Y-0.2035
N5710 X1.3705 Y-0.2392
N5715 X1.3638 Y-0.2748
N5720 X1.3562 Y-0.3102
N5725 X1.3477 Y-0.3453
N5730 X1.3382 Y-0.3802
N5735 X1.3279 Y-0.4149
N5740 X1.3167 Y-0.4493
N5745 X1.3045 Y-0.4834
N5750 X1.2915 Y-0.5172
N5755 X1.2776 Y-0.5506
N5760 X1.2629 Y-0.5836
N5765 X1.2473 Y-0.6163
N5770 X1.2309 Y-0.6485
N5775 X1.2136 Y-0.6803
N5780 X1.1955 Y-0.7116
N5785 X1.1766 Y-0.7425
N5790 X1.1569 Y-0.7728
N5795 X1.1364 Y-0.8026
N5800 X1.1151 Y-0.8319
N5805 X1.0931 Y-0.8606
N5810 X1.0703 Y-0.8887
N5815 X1.0469 Y-0.9163
N5820 X1.0227 Y-0.9432
N5825 X0.9978 Y-0.9695
N5830 X0.9723 Y-0.9951
N5835 X0.9461 Y-1.02
N5840 X0.9192 Y-1.0443
N5845 X0.8918 Y-1.0679
N5850 X0.8637 Y-1.0907
N5855 X0.835 Y-1.1128
N5860 X0.8058 Y-1.1341
N5865 X0.776 Y-1.1547
N5870 X0.7458 Y-1.1745
N5875 X0.715 Y-1.1935
N5880 X0.6837 Y-1.2116
N5885 X0.6519 Y-1.229
N5890 X0.6198 Y-1.2455
N5895 X0.5871 Y-1.2612
N5900 X0.5542 Y-1.2761
N5905 X0.5208 Y-1.2901
N5910 X0.4871 Y-1.3032
N5915 X0.453 Y-1.3154
N5920 X0.4186 Y-1.3267
N5925 X0.384 Y-1.3372
N5930 X0.3491 Y-1.3467
N5935 X0.314 Y-1.3554
N5940 X0.2786 Y-1.3631
N5945 X0.2431 Y-1.3698
N5950 X0.2074 Y-1.3757
N5955 X0.1715 Y-1.3806
N5960 X0.1356 Y-1.3846
N5965 X0.0995 Y-1.3876
N5970 X0.0634 Y-1.3898
N5975 X0.0272 Y-1.3909
N5980 X-0.009 Y-1.3912
N5985 X-0.0451 Y-1.3905
N5990 X-0.0813 Y-1.3888
N5995 X-0.1174 Y-1.3863
N6000 X-0.1534 Y-1.3828
N6005 X-0.1893 Y-1.3783
N6010 X-0.2251 Y-1.3729
N6015 X-0.2607 Y-1.3666
N6020 X-0.2961 Y-1.3594
N6025 X-0.3314 Y-1.3512
N6030 X-0.3664 Y-1.3421
N6035 X-0.4012 Y-1.3321
N6040 X-0.4357 Y-1.3212
N6045 X-0.4699 Y-1.3094
N6050 X-0.5038 Y-1.2968
N6055 X-0.5374 Y-1.2832
N6060 X-0.5705 Y-1.2688
N6065 X-0.6033 Y-1.2536
N6070 X-0.6357 Y-1.2375
N6075 X-0.6677 Y-1.2205
N6080 X-0.6992 Y-1.2028
N6085 X-0.7303 Y-1.1842
N6090 X-0.7608 Y-1.1648
N6095 X-0.7909 Y-1.1446
N6100 X-0.8203 Y-1.1236
N6105 X-0.8493 Y-1.1019
N6110 X-0.8776 Y-1.0795
N6115 X-0.9054 Y-1.0563
N6120 X-0.9326 Y-1.0324
N6125 X-0.9591 Y-1.0078
N6130 X-0.985 Y-0.9825
N6135 X-1.0102 Y-0.9565
N6140 X-1.0347 Y-0.9299
N6145 X-1.0586 Y-0.9027
N6150 X-1.0817 Y-0.8749
N6155 X-1.1041 Y-0.8465
N6160 X-1.1257 Y-0.8174
N6165 X-1.1461 Y-0.7875
N6170 X-1.165 Y-0.7567
N6175 X-1.182 Y-0.7248
N6180 X-1.1971 Y-0.6919
N6185 X-1.2103 Y-0.6582
N6190 X-1.2219 Y-0.6239
N6195 X-1.232 Y-0.5892
N6200 X-1.241 Y-0.5541
N6205 X-1.249 Y-0.5188
N6210 X-1.2563 Y-0.4834
N6215 X-1.2629 Y-0.4478
N6220 X-1.2691 Y-0.4122
N6225 X-1.2748 Y-0.3765
N6230 X-1.2801 Y-0.3407
N6235 X-1.285 Y-0.3048
N6240 X-1.2895 Y-0.2689
N6245 X-1.2935 Y-0.2329
N6250 X-1.2969 Y-0.1969
N6255 X-1.2998 Y-0.1609
N6260 X-1.302 Y-0.1248
N6265 X-1.3036 Y-0.0886
N6270 X-1.3044 Y-0.0524
N6275 X-1.3045 Y-0.0163
N6280 X-1.3037 Y0.0199
N6285 X-1.3021 Y0.0561
N6290 X-1.2995 Y0.0922
N6295 X-1.2961 Y0.1282
N6300 X-1.2918 Y0.1641
N6305 X-1.2866 Y0.1999
N6310 X-1.2803 Y0.2355
N6315 X-1.2732 Y0.271
N6320 X-1.265 Y0.3063
N6325 X-1.256 Y0.3413
N6330 X-1.2459 Y0.3761
N6335 X-1.2349 Y0.4105
N6340 X-1.223 Y0.4447
N6345 X-1.2102 Y0.4785
N6350 X-1.1964 Y0.512
N6355 X-1.1817 Y0.545
N6360 X-1.1661 Y0.5777
N6365 X-1.1495 Y0.6099
N6370 X-1.1321 Y0.6416
N6375 X-1.1139 Y0.6728
N6380 X-1.0947 Y0.7035
N6385 X-1.0748 Y0.7337
N6390 X-1.0539 Y0.7633
N6395 X-1.0323 Y0.7923
N6400 X-1.0099 Y0.8207
N6405 X-0.9866 Y0.8484
N6410 X-0.9627 Y0.8755
N6415 X-0.938 Y0.9019
N6420 X-0.9125 Y0.9277
N6425 X-0.8864 Y0.9527
N6430 X-0.8596 Y0.977
N6435 X-0.8321 Y1.0005
N6440 X-0.8039 Y1.0232
N6445 X-0.7752 Y1.0452
N6450 X-0.7458 Y1.0664
N6455 X-0.7159 Y1.0867
N6460 X-0.6854 Y1.1062
N6465 X-0.6544 Y1.1248
N6470 X-0.6228 Y1.1425
N6475 X-0.5908 Y1.1594
N6480 X-0.5584 Y1.1754
N6485 X-0.5255 Y1.1904
N6490 X-0.4922 Y1.2046
N6495 X-0.4585 Y1.2178
N6500 X-0.4245 Y1.2301
N6505 X-0.3901 Y1.2414
N6510 X-0.3554 Y1.2518
N6515 X-0.3205 Y1.2612
N6520 X-0.2853 Y1.2696
N6525 X-0.2499 Y1.2771
N6530 X-0.2143 Y1.2835
N6535 X-0.1785 Y1.289
N6540 X-0.1426 Y1.2934
N6545 X-0.1066 Y1.2969
N6550 X-0.0705 Y1.2993
N6555 X-0.0344 Y1.3008
N6560 X0.0018 Y1.3013
N6565 X0.038 Y1.3007
N6570 X0.0741 Y1.2991
N6575 X0.1102 Y1.2966
N6580 X0.1462 Y1.293
N6585 X0.1821 Y1.2885
N6590 X0.2179 Y1.2829
N6595 X0.2535 Y1.2764
N6600 X0.2889 Y1.2688
N6605 X0.324 Y1.2603
N6610 X0.3589 Y1.2508
N6615 X0.3936 Y1.2403
N6620 X0.4279 Y1.2289
N6625 X0.4619 Y1.2165
N6630 X0.4955 Y1.2032
N6635 X0.5288 Y1.189
N6640 X0.5617 Y1.1738
N6645 X0.5941 Y1.1577
N6650 X0.626 Y1.1408
N6655 X0.6575 Y1.1229
N6660 X0.6885 Y1.1042
N6665 X0.7189 Y1.0847
N6670 X0.7488 Y1.0643
N6675 X0.7781 Y1.043
N6680 X0.8068 Y1.021
N6685 X0.8349 Y0.9982
N6690 X0.8623 Y0.9746
N6695 X0.889 Y0.9502
N6700 X0.9151 Y0.9251
N6705 X0.9405 Y0.8993
N6710 X0.9651 Y0.8728
N6715 X0.989 Y0.8457
N6720 X1.0121 Y0.8178
N6725 X1.0345 Y0.7894
N6730 X1.056 Y0.7603
N6735 X1.0768 Y0.7307
N6740 X1.0967 Y0.7005
N6745 X1.1157 Y0.6697
N6750 X1.1339 Y0.6384
N6755 X1.1512 Y0.6066
N6760 X1.1676 Y0.5744
N6765 X1.1831 Y0.5417
N6770 X1.1977 Y0.5086
N6775 X1.2114 Y0.4751
N6780 X1.2242 Y0.4412
N6785 X1.236 Y0.407
N6790 X1.2468 Y0.3725
N6795 X1.2567 Y0.3377
N6800 X1.2656 Y0.3026
N6805 X1.2735 Y0.2673
N6810 X1.2805 Y0.2318
N6815 X1.2864 Y0.1961
N6820 X1.2914 Y0.1603
N6825 X1.2953 Y0.1243
N6830 X1.2983 Y0.0883
N6835 X1.3002 Y0.0521
N6840 X1.3012 Y0.016
N6845 X1.3011 Y-0.0202
N6850 X1.3 Y-0.0564
N6855 X1.298 Y-0.0925
N6860 X1.2949 Y-0.1286
N6865 X1.2908 Y-0.1645
N6870 X1.2857 Y-0.2003
N6875 X1.2797 Y-0.236
N6880 X1.2726 Y-0.2715
N6885 X1.2646 Y-0.3068
N6890 X1.2556 Y-0.3418
N6895 X1.2456 Y-0.3766
N6900 X1.2346 Y-0.4111
N6905 X1.2227 Y-0.4452
N6910 X1.2099 Y-0.4791
N6915 X1.1961 Y-0.5125
N6920 X1.1814 Y-0.5456
N6925 X1.1657 Y-0.5782
N6930 X1.1492 Y-0.6104
N6935 X1.1318 Y-0.6421
N6940 X1.1135 Y-0.6733
N6945 X1.0944 Y-0.704
N6950 X1.0744 Y-0.7342
N6955 X1.0536 Y-0.7638
N6960 X1.0319 Y-0.7928
N6965 X1.0095 Y-0.8212
N6970 X0.9862 Y-0.8489
N6975 X0.9623 Y-0.876
N6980 X0.9375 Y-0.9024
N6985 X0.9121 Y-0.9281
N6990 X0.8859 Y-0.9531
N6995 X0.8591 Y-0.9774
N7000 X0.8316 Y-1.0009
N7005 X0.8034 Y-1.0236
N7010 X0.7747 Y-1.0456
N7015 X0.7453 Y-1.0667
N7020 X0.7153 Y-1.087
N7025 X0.6849 Y-1.1065
N7030 X0.6538 Y-1.1251
N7035 X0.6223 Y-1.1428
N7040 X0.5903 Y-1.1597
N7045 X0.5578 Y-1.1756
N7050 X0.5249 Y-1.1907
N7055 X0.4916 Y-1.2048
N7060 X0.4579 Y-1.218
N7065 X0.4239 Y-1.2303
N7070 X0.3895 Y-1.2416
N7075 X0.3548 Y-1.2519
N7080 X0.3199 Y-1.2613
N7085 X0.2847 Y-1.2697
N7090 X0.2493 Y-1.2772
N7095 X0.2137 Y-1.2836
N7100 X0.1779 Y-1.2891
N7105 X0.142 Y-1.2935
N7110 X0.106 Y-1.297
N7115 X0.0699 Y-1.2994
N7120 X0.0337 Y-1.3008
N7125 X-0.0025 Y-1.3012
N7130 X-0.0386 Y-1.3007
N7135 X-0.0748 Y-1.2991
N7140 X-0.1109 Y-1.2965
N7145 X-0.1469 Y-1.2929
N7150 X-0.1828 Y-1.2883
N7155 X-0.2185 Y-1.2828
N7160 X-0.2541 Y-1.2762
N7165 X-0.2895 Y-1.2687
N7170 X-0.3246 Y-1.2601
N7175 X-0.3596 Y-1.2506
N7180 X-0.3942 Y-1.2401
N7185 X-0.4285 Y-1.2287
N7190 X-0.4625 Y-1.2163
N7195 X-0.4961 Y-1.203
N7200 X-0.5294 Y-1.1887
N7205 X-0.5622 Y-1.1735
N7210 X-0.5946 Y-1.1574
N7215 X-0.6266 Y-1.1404
N7220 X-0.6581 Y-1.1226
N7225 X-0.689 Y-1.1039
N7230 X-0.7194 Y-1.0843
N7235 X-0.7493 Y-1.0639
N7240 X-0.7786 Y-1.0426
N7245 X-0.8073 Y-1.0206
N7250 X-0.8354 Y-0.9978
N7255 X-0.8628 Y-0.9741
N7260 X-0.8895 Y-0.9498
N7265 X-0.9156 Y-0.9247
N7270 X-0.9409 Y-0.8988
N7275 X-0.9655 Y-0.8723
N7280 X-0.9894 Y-0.8451
N7285 X-1.0124 Y-0.8172
N7290 X-1.0344 Y-0.7885
N7295 X-1.0551 Y-0.7588
N7300 X-1.0741 Y-0.728
N7305 X-1.0913 Y-0.6962
N7310 X-1.1068 Y-0.6635
N7315 X-1.1205 Y-0.63
N7320 X-1.1328 Y-0.596
N7325 X-1.1436 Y-0.5614
N7330 X-1.1533 Y-0.5266
N7335 X-1.162 Y-0.4915
N7340 X-1.1699 Y-0.4561
N7345 X-1.177 Y-0.4207
N7350 X-1.1835 Y-0.3851
N7355 X-1.1894 Y-0.3494
N7360 X-1.1948 Y-0.3136
N7365 X-1.1996 Y-0.2777
N7370 X-1.2038 Y-0.2418
N7375 X-1.2075 Y-0.2058
N7380 X-1.2106 Y-0.1698
N7385 X-1.2129 Y-0.1337
N7390 X-1.2146 Y-0.0975
N7395 X-1.2155 Y-0.0613
N7400 Y-0.0252
N7405 X-1.2147 Y0.011
N7410 X-1.2131 Y0.0472
N7415 X-1.2105 Y0.0833
N7420 X-1.2069 Y0.1193
N7425 X-1.2024 Y0.1552
N7430 X-1.197 Y0.1909
N7435 X-1.1905 Y0.2265
N7440 X-1.183 Y0.2619
N7445 X-1.1745 Y0.2971
N7450 X-1.165 Y0.332
N7455 X-1.1545 Y0.3666
N7460 X-1.143 Y0.4009
N7465 X-1.1304 Y0.4349
N7470 X-1.1169 Y0.4684
N7475 X-1.1024 Y0.5016
N7480 X-1.0869 Y0.5342
N7485 X-1.0704 Y0.5665
N7490 X-1.053 Y0.5982
N7495 X-1.0346 Y0.6294
N7500 X-1.0154 Y0.66
N7505 X-0.9952 Y0.69
N7510 X-0.9741 Y0.7195
N7515 X-0.9522 Y0.7482
N7520 X-0.9294 Y0.7764
N7525 X-0.9058 Y0.8038
N7530 X-0.8814 Y0.8305
N7535 X-0.8562 Y0.8564
N7540 X-0.8302 Y0.8816
N7545 X-0.8035 Y0.906
N7550 X-0.7761 Y0.9296
N7555 X-0.748 Y0.9524
N7560 X-0.7192 Y0.9743
N7565 X-0.6898 Y0.9954
N7570 X-0.6597 Y1.0155
N7575 X-0.6291 Y1.0348
N7580 X-0.5979 Y1.0531
N7585 X-0.5662 Y1.0705
N7590 X-0.5339 Y1.087
N7595 X-0.5012 Y1.1024
N7600 X-0.4681 Y1.1169
N7605 X-0.4345 Y1.1304
N7610 X-0.4005 Y1.1428
N7615 X-0.3662 Y1.1543
N7620 X-0.3316 Y1.1647
N7625 X-0.3069 Y1.1714
N7630 X-0.2979 Y1.1745
N7635 X-0.2894 Y1.1788
N7640 X-0.2816 Y1.1843
N7645 X-0.2523 Y1.2082
N7650 X-0.2466 Y1.2129
N7655 X-0.2421 Y1.2164
N7660 X-0.2383 Y1.2193
N7665 X-0.2306 Y1.2246
N7670 X-0.2219 Y1.2299
N7675 X-0.2164 Y1.2328
N7680 X-0.1726 Y1.2543
N7685 X-0.1661 Y1.2575
N7690 X-0.1477 Y1.2657
N7695 X-0.1397 Y1.2689
N7700 X-0.1315 Y1.2712
N7705 X-0.1233 Y1.2734
N7710 X-0.0658 Y1.2867
N7715 X-0.0575 Y1.2883
N7720 X-0.0493 Y1.2897
N7725 X-0.0411 Y1.2904
N7730 X-0.0329 Y1.2906
N7735 X-0.0082 Y1.2907
N7740 X0.0164
N7745 X0.0329 Y1.2906
N7750 X0.0411 Y1.2904
N7755 X0.0493 Y1.2897
N7760 X0.0575 Y1.2883
N7765 X0.0658 Y1.2867
N7770 X0.1233 Y1.2734
N7775 X0.1315 Y1.2712
N7780 X0.1397 Y1.2689
N7785 X0.1479 Y1.2656
N7790 X0.1661 Y1.2575
N7795 X0.1808 Y1.2503
N7800 X0.2164 Y1.2328
N7805 X0.2219 Y1.2299
N7810 X0.2301 Y1.2249
N7815 X0.2619 Y1.2076
N7820 X0.2947 Y1.1923
N7825 X0.328 Y1.1782
N7830 X0.3951 Y1.151
N7835 X0.4285 Y1.1371
N7840 X0.4617 Y1.1227
N7845 X0.4946 Y1.1076
N7850 X0.5271 Y1.0918
N7855 X0.5593 Y1.0752
N7860 X0.591 Y1.0578
N7865 X0.6222 Y1.0395
N7870 X0.6529 Y1.0204
N7875 X0.683 Y1.0003
N7880 X0.7126 Y0.9794
N7885 X0.7415 Y0.9577
N7890 X0.7697 Y0.935
N7895 X0.7973 Y0.9116
N7900 X0.8241 Y0.8874
N7905 X0.8502 Y0.8623
N7910 X0.8756 Y0.8365
N7915 X0.9002 Y0.81
N7920 X0.924 Y0.7827
N7925 X0.947 Y0.7548
N7930 X0.9691 Y0.7262
N7935 X0.9904 Y0.6969
N7940 X1.0108 Y0.667
N7945 X1.0303 Y0.6365
N7950 X1.0488 Y0.6055
N7955 X1.0664 Y0.5739
N7960 X1.0831 Y0.5417
N7965 X1.0988 Y0.5091
N7970 X1.1135 Y0.4761
N7975 X1.1272 Y0.4426
N7980 X1.1399 Y0.4087
N7985 X1.1516 Y0.3745
N7990 X1.1623 Y0.3399
N7995 X1.1719 Y0.305
N8000 X1.1806 Y0.2699
N8005 X1.1881 Y0.2345
N8010 X1.1946 Y0.1989
N8015 X1.2 Y0.1631
N8020 X1.2043 Y0.1272
N8025 X1.2076 Y0.0912
N8030 X1.2097 Y0.0551
N8035 X1.2108 Y0.0189
N8040 Y-0.0173
N8045 X1.2098 Y-0.0534
N8050 X1.2076 Y-0.0896
N8055 X1.2044 Y-0.1256
N8060 X1.2002 Y-0.1615
N8065 X1.1948 Y-0.1973
N8070 X1.1884 Y-0.2329
N8075 X1.1809 Y-0.2683
N8080 X1.1724 Y-0.3035
N8085 X1.1628 Y-0.3384
N8090 X1.1521 Y-0.373
N8095 X1.1405 Y-0.4072
N8100 X1.1278 Y-0.4411
N8105 X1.1141 Y-0.4746
N8110 X1.0994 Y-0.5077
N8115 X1.0838 Y-0.5403
N8120 X1.0671 Y-0.5724
N8125 X1.0496 Y-0.604
N8130 X1.0311 Y-0.6351
N8135 X1.0117 Y-0.6657
N8140 X0.9913 Y-0.6956
N8145 X0.9701 Y-0.7249
N8150 X0.948 Y-0.7536
N8155 X0.9251 Y-0.7815
N8160 X0.9013 Y-0.8088
N8165 X0.8767 Y-0.8354
N8170 X0.8514 Y-0.8612
N8175 X0.8253 Y-0.8862
N8180 X0.7984 Y-0.9105
N8185 X0.7709 Y-0.9339
N8190 X0.7426 Y-0.9565
N8195 X0.7137 Y-0.9783
N8200 X0.6842 Y-0.9992
N8205 X0.654 Y-1.0192
N8210 X0.6233 Y-1.0383
N8215 X0.592 Y-1.0565
N8220 X0.5602 Y-1.0737
N8225 X0.5278 Y-1.0899
N8230 X0.495 Y-1.1052
N8235 X0.4618 Y-1.1195
N8240 X0.4281 Y-1.1328
N8245 X0.3941 Y-1.145
N8250 X0.3597 Y-1.1563
N8255 X0.325 Y-1.1665
N8260 X0.3073 Y-1.1712
N8265 X0.2982 Y-1.1743
N8270 X0.2896 Y-1.1787
N8275 X0.2817 Y-1.1842
N8280 X0.2548 Y-1.2062
N8285 X0.2466 Y-1.2129
N8290 X0.2421 Y-1.2164
N8295 X0.2383 Y-1.2193
N8300 X0.2306 Y-1.2246
N8305 X0.2219 Y-1.2299
N8310 X0.2164 Y-1.2328
N8315 X0.1726 Y-1.2543
N8320 X0.1661 Y-1.2575
N8325 X0.1477 Y-1.2657
N8330 X0.1397 Y-1.2689
N8335 X0.1315 Y-1.2712
N8340 X0.1233 Y-1.2734
N8345 X0.0658 Y-1.2867
N8350 X0.0575 Y-1.2883
N8355 X0.0493 Y-1.2897
N8360 X0.0411 Y-1.2904
N8365 X0.0329 Y-1.2906
N8370 X0.0082 Y-1.2907
N8375 X-0.0164
N8380 X-0.0329 Y-1.2906
N8385 X-0.0411 Y-1.2904
N8390 X-0.0493 Y-1.2897
N8395 X-0.0575 Y-1.2883
N8400 X-0.0658 Y-1.2867
N8405 X-0.1233 Y-1.2734
N8410 X-0.1315 Y-1.2712
N8415 X-0.1397 Y-1.2689
N8420 X-0.1479 Y-1.2656
N8425 X-0.1661 Y-1.2575
N8430 X-0.1808 Y-1.2503
N8435 X-0.2164 Y-1.2328
N8440 X-0.2219 Y-1.2299
N8445 X-0.2301 Y-1.2249
N8450 X-0.2619 Y-1.2076
N8455 X-0.2947 Y-1.1923
N8460 X-0.328 Y-1.1782
N8465 X-0.3951 Y-1.151
N8470 X-0.4285 Y-1.1371
N8475 X-0.4617 Y-1.1226
N8480 X-0.4946 Y-1.1076
N8485 X-0.5271 Y-1.0918
N8490 X-0.5593 Y-1.0752
N8495 X-0.591 Y-1.0578
N8500 X-0.6222 Y-1.0395
N8505 X-0.6529 Y-1.0203
N8510 X-0.683 Y-1.0003
N8515 X-0.7126 Y-0.9794
N8520 X-0.7415 Y-0.9577
N8525 X-0.7697 Y-0.935
N8530 X-0.7973 Y-0.9116
N8535 X-0.8241 Y-0.8874
N8540 X-0.8502 Y-0.8623
N8545 X-0.8756 Y-0.8365
N8550 X-0.9001 Y-0.8099
N8555 X-0.9236 Y-0.7824
N8560 X-0.9459 Y-0.7539
N8565 X-0.9667 Y-0.7243
N8570 X-0.9859 Y-0.6936
N8575 X-1.0033 Y-0.6619
N8580 X-1.0191 Y-0.6293
N8585 X-1.0332 Y-0.596
N8590 X-1.0459 Y-0.5621
N8595 X-1.0572 Y-0.5278
N8600 X-1.0674 Y-0.493
N8605 X-1.0765 Y-0.458
N8610 X-1.0846 Y-0.4228
N8615 X-1.092 Y-0.3874
N8620 X-1.0986 Y-0.3518
N8625 X-1.1045 Y-0.3161
N8630 X-1.1098 Y-0.2803
N8635 X-1.1144 Y-0.2444
N8640 X-1.1182 Y-0.2084
N8645 X-1.1214 Y-0.1724
N8650 X-1.1238 Y-0.1363
N8655 X-1.1255 Y-0.1001
N8660 X-1.1263 Y-0.064
N8665 Y-0.0278
N8670 X-1.1253 Y0.0084
N8675 X-1.1235 Y0.0445
N8680 X-1.1206 Y0.0806
N8685 X-1.1168 Y0.1166
N8690 X-1.1119 Y0.1524
N8695 X-1.106 Y0.1881
N8700 X-1.0991 Y0.2236
N8705 X-1.091 Y0.2589
N8710 X-1.0819 Y0.2939
N8715 X-1.0717 Y0.3286
N8720 X-1.0604 Y0.363
N8725 X-1.048 Y0.397
N8730 X-1.0346 Y0.4306
N8735 X-1.0201 Y0.4637
N8740 X-1.0045 Y0.4964
N8745 X-0.9879 Y0.5286
N8750 X-0.9703 Y0.5602
N8755 X-0.9517 Y0.5912
N8760 X-0.9322 Y0.6216
N8765 X-0.9116 Y0.6514
N8770 X-0.8901 Y0.6805
N8775 X-0.8677 Y0.7089
N8780 X-0.8443 Y0.7365
N8785 X-0.8201 Y0.7634
N8790 X-0.795 Y0.7895
N8795 X-0.7691 Y0.8147
N8800 X-0.7423 Y0.8391
N8805 X-0.7149 Y0.8626
N8810 X-0.6866 Y0.8853
N8815 X-0.6577 Y0.907
N8820 X-0.6281 Y0.9278
N8825 X-0.5978 Y0.9476
N8830 X-0.5669 Y0.9664
N8835 X-0.5354 Y0.9842
N8840 X-0.5033 Y1.001
N8845 X-0.4708 Y1.0167
N8850 X-0.4377 Y1.0313
N8855 X-0.4067 Y1.0439
N8860 X-0.3971 Y1.0487
N8865 X-0.3884 Y1.055
N8870 X-0.3808 Y1.0625
N8875 X-0.3744 Y1.0712
N8880 X-0.3616 Y1.0921
N8885 X-0.3485 Y1.1095
N8890 X-0.3205 Y1.1456
N8895 X-0.3123 Y1.1559
N8900 X-0.3098 Y1.1589
N8905 X-0.3019 Y1.1671
N8910 X-0.2959 Y1.1726
N8915 X-0.2816 Y1.1843
N8920 X-0.2712 Y1.1928 Z-0.0523
N8925 X-0.2581 Y1.2035 Z-0.0488
N8930 X-0.2512 Y1.2091 Z-0.047
N8935 X-0.2466 Y1.2129
N8940 X-0.2421 Y1.2164
N8945 X-0.2383 Y1.2193
N8950 X-0.2306 Y1.2246
N8955 X-0.2219 Y1.2299
N8960 X-0.2164 Y1.2328
N8965 X-0.189 Y1.2463
N8970 X-0.1726 Y1.2543
N8975 X-0.1661 Y1.2575
N8980 X-0.1477 Y1.2657
N8985 X-0.1397 Y1.2689
N8990 X-0.1315 Y1.2712
N8995 X-0.1233 Y1.2734
N9000 X-0.0658 Y1.2867
N9005 X-0.0575 Y1.2883
N9010 X-0.0493 Y1.2897
N9015 X-0.0411 Y1.2904
N9020 X-0.0329 Y1.2906
N9025 X-0.0164 Y1.2907
N9030 X-0.0082
N9035 X0.0082
N9040 X0.0164
N9045 X0.0329 Y1.2906
N9050 X0.0411 Y1.2904
N9055 X0.0493 Y1.2897
N9060 X0.0575 Y1.2883
N9065 X0.0658 Y1.2867
N9070 X0.1233 Y1.2734
N9075 X0.1315 Y1.2712
N9080 X0.1397 Y1.2689
N9085 X0.1477 Y1.2657
N9090 X0.1661 Y1.2575
N9095 X0.1726 Y1.2543
N9100 X0.1954 Y1.2432
N9105 X0.1973 Y1.2423 Z-0.0474
N9110 X0.2035 Y1.2392 Z-0.0488
N9115 X0.2164 Y1.2328 Z-0.0518
N9120 X0.2219 Y1.2299 Z-0.053
N9125 X0.2301 Y1.2249 Z-0.055
N9130 X0.2306 Y1.2246
N9135 X0.2383 Y1.2193
N9140 X0.2421 Y1.2164
N9145 X0.2466 Y1.2129
N9150 X0.2794 Y1.1861
N9155 X0.2959 Y1.1726
N9160 X0.3019 Y1.1671
N9165 X0.3098 Y1.1589
N9170 X0.3123 Y1.1559
N9175 X0.3205 Y1.1456
N9180 X0.335 Y1.1288
N9185 X0.3483 Y1.1153
N9190 X0.3681 Y1.0981
N9195 X0.397 Y1.0763
N9200 X0.4271 Y1.0563
N9205 X0.458 Y1.0374
N9210 X0.52 Y1.0002
N9215 X0.5509 Y0.9813
N9220 X0.5814 Y0.9619
N9225 X0.6115 Y0.9418
N9230 X0.6411 Y0.921
N9235 X0.6702 Y0.8995
N9240 X0.6986 Y0.8771
N9245 X0.7264 Y0.8539
N9250 X0.7534 Y0.8298
N9255 X0.7797 Y0.805
N9260 X0.8052 Y0.7793
N9265 X0.8299 Y0.7529
N9270 X0.8537 Y0.7256
N9275 X0.8767 Y0.6977
N9280 X0.8988 Y0.669
N9285 X0.9199 Y0.6396
N9290 X0.9401 Y0.6096
N9295 X0.9593 Y0.5789
N9300 X0.9775 Y0.5477
N9305 X0.9946 Y0.5158
N9310 X1.0107 Y0.4834
N9315 X1.0258 Y0.4505
N9320 X1.0398 Y0.4171
N9325 X1.0527 Y0.3833
N9330 X1.0646 Y0.3492
N9335 X1.0753 Y0.3146
N9340 X1.0849 Y0.2797
N9345 X1.0934 Y0.2445
N9350 X1.1007 Y0.2091
N9355 X1.1069 Y0.1735
N9360 X1.1119 Y0.1376
N9365 X1.1158 Y0.1017
N9370 X1.1185 Y0.0656
N9375 X1.12 Y0.0294
N9380 X1.1203 Y-0.0068
N9385 X1.1195 Y-0.0429
N9390 X1.1175 Y-0.0791
N9395 X1.1144 Y-0.1151
N9400 X1.1101 Y-0.151
N9405 X1.1047 Y-0.1868
N9410 X1.0981 Y-0.2224
N9415 X1.0903 Y-0.2577
N9420 X1.0815 Y-0.2928
N9425 X1.0715 Y-0.3276
N9430 X1.0603 Y-0.362
N9435 X1.0481 Y-0.396
N9440 X1.0347 Y-0.4297
N9445 X1.0203 Y-0.4628
N9450 X1.0048 Y-0.4955
N9455 X0.9883 Y-0.5277
N9460 X0.9707 Y-0.5594
N9465 X0.9522 Y-0.5904
N9470 X0.9326 Y-0.6209
N9475 X0.9121 Y-0.6507
N9480 X0.8906 Y-0.6798
N9485 X0.8682 Y-0.7082
N9490 X0.8449 Y-0.7359
N9495 X0.8207 Y-0.7627
N9500 X0.7956 Y-0.7888
N9505 X0.7697 Y-0.8141
N9510 X0.743 Y-0.8385
N9515 X0.7155 Y-0.8621
N9520 X0.6873 Y-0.8847
N9525 X0.6584 Y-0.9065
N9530 X0.6288 Y-0.9273
N9535 X0.5985 Y-0.9471
N9540 X0.5676 Y-0.9659
N9545 X0.5362 Y-0.9838
N9550 X0.5041 Y-1.0006
N9555 X0.4715 Y-1.0163
N9560 X0.4385 Y-1.031
N9565 X0.4067 Y-1.0439
N9570 X0.3971 Y-1.0487
N9575 X0.3884 Y-1.055
N9580 X0.3807 Y-1.0626
N9585 X0.3744 Y-1.0712
N9590 X0.3616 Y-1.0921
N9595 X0.3485 Y-1.1095
N9600 X0.3205 Y-1.1456
N9605 X0.3123 Y-1.1559
N9610 X0.3098 Y-1.1589
N9615 X0.3019 Y-1.1671
N9620 X0.2959 Y-1.1726
N9625 X0.2817 Y-1.1842
N9630 X0.2712 Y-1.1928 Z-0.0522
N9635 X0.2582 Y-1.2034 Z-0.0488
N9640 X0.2512 Y-1.209 Z-0.047
N9645 X0.2466 Y-1.2129
N9650 X0.2421 Y-1.2164
N9655 X0.2383 Y-1.2193
N9660 X0.2306 Y-1.2246
N9665 X0.2219 Y-1.2299
N9670 X0.2164 Y-1.2328
N9675 X0.189 Y-1.2463
N9680 X0.1726 Y-1.2543
N9685 X0.1661 Y-1.2575
N9690 X0.1477 Y-1.2657
N9695 X0.1397 Y-1.2689
N9700 X0.1315 Y-1.2712
N9705 X0.1233 Y-1.2734
N9710 X0.0658 Y-1.2867
N9715 X0.0575 Y-1.2883
N9720 X0.0493 Y-1.2897
N9725 X0.0411 Y-1.2904
N9730 X0.0329 Y-1.2906
N9735 X0.0164 Y-1.2907
N9740 X0.0082
N9745 X-0.0082
N9750 X-0.0164
N9755 X-0.0329 Y-1.2906
N9760 X-0.0411 Y-1.2904
N9765 X-0.0493 Y-1.2897
N9770 X-0.0575 Y-1.2883
N9775 X-0.0658 Y-1.2867
N9780 X-0.1233 Y-1.2734
N9785 X-0.1315 Y-1.2712
N9790 X-0.1397 Y-1.2689
N9795 X-0.1477 Y-1.2657
N9800 X-0.1661 Y-1.2575
N9805 X-0.1726 Y-1.2543
N9810 X-0.1954 Y-1.2432
N9815 X-0.1973 Y-1.2423 Z-0.0474
N9820 X-0.2035 Y-1.2392 Z-0.0488
N9825 X-0.2164 Y-1.2328 Z-0.0518
N9830 X-0.2219 Y-1.2299 Z-0.053
N9835 X-0.2301 Y-1.2249 Z-0.055
N9840 X-0.2306 Y-1.2246
N9845 X-0.2383 Y-1.2193
N9850 X-0.2421 Y-1.2164
N9855 X-0.2466 Y-1.2129
N9860 X-0.2794 Y-1.1861
N9865 X-0.2959 Y-1.1726
N9870 X-0.3019 Y-1.1671
N9875 X-0.3098 Y-1.1589
N9880 X-0.3123 Y-1.1559
N9885 X-0.3205 Y-1.1456
N9890 X-0.335 Y-1.1288
N9895 X-0.3484 Y-1.1153
N9900 X-0.3681 Y-1.0981
N9905 X-0.397 Y-1.0763
N9910 X-0.4272 Y-1.0563
N9915 X-0.458 Y-1.0373
N9920 X-0.52 Y-1.0001
N9925 X-0.5509 Y-0.9812
N9930 X-0.5814 Y-0.9618
N9935 X-0.6115 Y-0.9418
N9940 X-0.6412 Y-0.921
N9945 X-0.6702 Y-0.8994
N9950 X-0.6987 Y-0.8771
N9955 X-0.7264 Y-0.8539
N9960 X-0.7534 Y-0.8298
N9965 X-0.7797 Y-0.8049
N9970 X-0.805 Y-0.7791
N9975 X-0.8293 Y-0.7522
N9980 X-0.8523 Y-0.7243
N9985 X-0.8738 Y-0.6952
N9990 X-0.8937 Y-0.665
N9995 X-0.9119 Y-0.6337
N10000 X-0.9284 Y-0.6015
N10005 X-0.9433 Y-0.5686
N10010 X-0.9567 Y-0.5349
N10015 X-0.9687 Y-0.5008
N10020 X-0.9794 Y-0.4663
N10025 X-0.9891 Y-0.4314
N10030 X-0.9977 Y-0.3962
N10035 X-1.0053 Y-0.3609
N10040 X-1.0121 Y-0.3253
N10045 X-1.0181 Y-0.2896
N10050 X-1.0232 Y-0.2538
N10055 X-1.0276 Y-0.2179
N10060 X-1.0312 Y-0.1819
N10065 X-1.0339 Y-0.1458
N10070 X-1.0358 Y-0.1097
N10075 X-1.0368 Y-0.0735
N10080 X-1.0369 Y-0.0373
N10085 X-1.036 Y-0.0012
N10090 X-1.0341 Y0.035
N10095 X-1.0311 Y0.071
N10100 X-1.0272 Y0.107
N10105 X-1.0221 Y0.1428
N10110 X-1.0159 Y0.1785
N10115 X-1.0086 Y0.2139
N10120 X-1.0001 Y0.2491
N10125 X-0.9905 Y0.2839
N10130 X-0.9797 Y0.3185
N10135 X-0.9677 Y0.3526
N10140 X-0.9546 Y0.3863
N10145 X-0.9403 Y0.4196
N10150 X-0.9249 Y0.4523
N10155 X-0.9084 Y0.4845
N10160 X-0.8907 Y0.5161
N10165 X-0.872 Y0.5471
N10170 X-0.8523 Y0.5774
N10175 X-0.8314 Y0.607
N10180 X-0.8096 Y0.6358
N10185 X-0.7867 Y0.6639
N10190 X-0.7629 Y0.6911
N10195 X-0.7381 Y0.7174
N10200 X-0.7124 Y0.7429
N10205 X-0.6859 Y0.7675
N10210 X-0.6585 Y0.7911
N10215 X-0.6303 Y0.8138
N10220 X-0.6013 Y0.8354
N10225 X-0.5716 Y0.8561
N10230 X-0.5411 Y0.8756
N10235 X-0.51 Y0.8941
N10240 X-0.4841 Y0.9083
N10245 X-0.4743 Y0.9149
N10250 X-0.4658 Y0.923
N10255 X-0.4588 Y0.9325
N10260 X-0.3744 Y1.0712
N10265 X-0.3712 Y1.0849 Z-0.0521
N10270 X-0.3748 Y1.1008 Z-0.0488
N10275 X-0.3768 Y1.1095 Z-0.047
N10280 X-0.3974 Y1.1999
N10285 G2 X-0.3508 Y1.3068 I0.096 J0.0217
N10290 G1 X-0.2137 Y1.3799
N10295 X-0.1479 Y1.4015
N10300 X-0.0554 Y1.4195
N10305 X0.0658 Y1.4188
N10310 X0.1808 Y1.3925
N10315 X0.2117 Y1.3808
N10320 G2 X0.2695 Y1.315 I-0.0373 J-0.0911
N10325 G1 X0.308 Y1.1825
N10330 X0.3105 Y1.1739 Z-0.0488
N10335 X0.3172 Y1.1506 Z-0.0538
N10340 X0.3205 Y1.1456 Z-0.055
N10345 X0.3485 Y1.1095
N10350 X0.3616 Y1.0921
N10355 X0.3761 Y1.0684
N10360 X0.4011 Y1.0274
N10365 X0.4125 Y1.0106
N10370 X0.4252 Y0.9944
N10375 X0.4442 Y0.9736
N10380 X0.4704 Y0.9486
N10385 X0.498 Y0.9252
N10390 X0.5263 Y0.9026
N10395 X0.5548 Y0.8804
N10400 X0.5833 Y0.8581
N10405 X0.6115 Y0.8354
N10410 X0.6393 Y0.8122
N10415 X0.6665 Y0.7884
N10420 X0.6932 Y0.7639
N10425 X0.7191 Y0.7387
N10430 X0.7443 Y0.7127
N10435 X0.7686 Y0.6859
N10440 X0.792 Y0.6584
N10445 X0.8146 Y0.63
N10450 X0.8361 Y0.601
N10455 X0.8566 Y0.5712
N10460 X0.8761 Y0.5407
N10465 X0.8945 Y0.5095
N10470 X0.9118 Y0.4778
N10475 X0.928 Y0.4454
N10480 X0.9431 Y0.4125
N10485 X0.957 Y0.3791
N10490 X0.9697 Y0.3452
N10495 X0.9812 Y0.3109
N10500 X0.9916 Y0.2763
N10505 X1.0007 Y0.2412
N10510 X1.0086 Y0.2059
N10515 X1.0152 Y0.1704
N10520 X1.0205 Y0.1346
N10525 X1.0246 Y0.0986
N10530 X1.0274 Y0.0625
N10535 X1.029 Y0.0264
N10540 X1.0292 Y-0.0098
N10545 X1.0283 Y-0.046
N10550 X1.026 Y-0.0821
N10555 X1.0225 Y-0.1181
N10560 X1.0178 Y-0.1539
N10565 X1.0117 Y-0.1896
N10570 X1.0045 Y-0.2251
N10575 X0.9959 Y-0.2602
N10580 X0.9861 Y-0.2951
N10585 X0.9751 Y-0.3295
N10590 X0.9629 Y-0.3636
N10595 X0.9496 Y-0.3972
N10600 X0.935 Y-0.4303
N10605 X0.9193 Y-0.4629
N10610 X0.9025 Y-0.495
N10615 X0.8846 Y-0.5264
N10620 X0.8655 Y-0.5572
N10625 X0.8454 Y-0.5872
N10630 X0.8242 Y-0.6166
N10635 X0.8021 Y-0.6452
N10640 X0.7789 Y-0.6729
N10645 X0.7547 Y-0.6999
N10650 X0.7297 Y-0.726
N10655 X0.7037 Y-0.7512
N10660 X0.6769 Y-0.7754
N10665 X0.6492 Y-0.7988
N10670 X0.6207 Y-0.8211
N10675 X0.5915 Y-0.8424
N10680 X0.5615 Y-0.8627
N10685 X0.5309 Y-0.8819
N10690 X0.4995 Y-0.9
N10695 X0.485 Y-0.9078
N10700 X0.4748 Y-0.9143
N10705 X0.4661 Y-0.9226
N10710 X0.4589 Y-0.9323
N10715 X0.3744 Y-1.0712
N10720 X0.3712 Y-1.0849 Z-0.0521
N10725 X0.3748 Y-1.1008 Z-0.0488
N10730 X0.3768 Y-1.1095 Z-0.047
N10735 X0.3974 Y-1.1999
N10740 G2 X0.3508 Y-1.3068 I-0.096 J-0.0217
N10745 G1 X0.2137 Y-1.3799
N10750 X0.1479 Y-1.4015
N10755 X0.0554 Y-1.4195
N10760 X-0.0658 Y-1.4188
N10765 X-0.1808 Y-1.3925
N10770 X-0.2117 Y-1.3808
N10775 G2 X-0.2695 Y-1.315 I0.0373 J0.0911
N10780 G1 X-0.308 Y-1.1825
N10785 X-0.3105 Y-1.1739 Z-0.0488
N10790 X-0.3172 Y-1.1506 Z-0.0538
N10795 X-0.3205 Y-1.1456 Z-0.055
N10800 X-0.3485 Y-1.1095
N10805 X-0.3616 Y-1.0921
N10810 X-0.3761 Y-1.0684
N10815 X-0.4011 Y-1.0274
N10820 X-0.4125 Y-1.0106
N10825 X-0.4253 Y-0.9944
N10830 X-0.4443 Y-0.9735
N10835 X-0.4704 Y-0.9486
N10840 X-0.498 Y-0.9252
N10845 X-0.5263 Y-0.9026
N10850 X-0.5549 Y-0.8803
N10855 X-0.5833 Y-0.858
N10860 X-0.6115 Y-0.8354
N10865 X-0.6393 Y-0.8122
N10870 X-0.6665 Y-0.7883
N10875 X-0.693 Y-0.7637
N10880 X-0.7187 Y-0.7382
N10885 X-0.7432 Y-0.7116
N10890 X-0.7665 Y-0.6839
N10895 X-0.7882 Y-0.6549
N10900 X-0.8082 Y-0.6248
N10905 X-0.8266 Y-0.5936
N10910 X-0.8433 Y-0.5616
N10915 X-0.8585 Y-0.5287
N10920 X-0.8721 Y-0.4952
N10925 X-0.8842 Y-0.4611
N10930 X-0.8951 Y-0.4266
N10935 X-0.9048 Y-0.3917
N10940 X-0.9134 Y-0.3566
N10945 X-0.9209 Y-0.3212
N10950 X-0.9275 Y-0.2856
N10955 X-0.9331 Y-0.2498
N10960 X-0.9377 Y-0.214
N10965 X-0.9415 Y-0.178
N10970 X-0.9443 Y-0.1419
N10975 X-0.9462 Y-0.1058
N10980 X-0.947 Y-0.0696
N10985 X-0.9469 Y-0.0334
N10990 X-0.9457 Y0.0027
N10995 X-0.9434 Y0.0389
N11000 X-0.94 Y0.0749
N11005 X-0.9354 Y0.1108
N11010 X-0.9296 Y0.1465
N11015 X-0.9227 Y0.182
N11020 X-0.9144 Y0.2172
N11025 X-0.9049 Y0.2521
N11030 X-0.8942 Y0.2867
N11035 X-0.8822 Y0.3208
N11040 X-0.869 Y0.3545
N11045 X-0.8545 Y0.3877
N11050 X-0.8388 Y0.4203
N11055 X-0.8219 Y0.4523
N11060 X-0.8038 Y0.4836
N11065 X-0.7845 Y0.5142
N11070 X-0.7641 Y0.544
N11075 X-0.7425 Y0.5731
N11080 X-0.7198 Y0.6012
N11085 X-0.696 Y0.6285
N11090 X-0.6712 Y0.6549
N11095 X-0.6455 Y0.6803
N11100 X-0.6187 Y0.7047
N11105 X-0.5911 Y0.7281
N11110 X-0.5856 Y0.7323
N11115 X-0.5795 Y0.7377
N11120 X-0.5741 Y0.7438
N11125 X-0.5695 Y0.7505
N11130 X-0.4588 Y0.9325
N11135 X-0.4556 Y0.9452 Z-0.0523
N11140 X-0.4619 Y0.9612 Z-0.0488
N11145 X-0.4652 Y0.9696 Z-0.047
N11150 X-0.4976 Y1.052
N11155 G2 X-0.4831 Y1.1506 I0.0912 J0.037
N11160 G1 X-0.3945 Y1.2582
N11165 X-0.3868 Y1.2657
N11170 G2 X-0.3781 Y1.2739 I0.072 J-0.0671
N11175 G1 X-0.2959 Y1.3376
N11180 X-0.1915 Y1.389
N11185 X-0.074 Y1.4179
N11190 X0.0493 Y1.42
N11195 X0.1562 Y1.3995
N11200 X0.2137 Y1.3799
N11205 X0.3047 Y1.3314
N11210 X0.3725 Y1.2786
N11215 X0.3781 Y1.274
N11220 X0.3945 Y1.2584
N11225 G2 X0.4192 Y1.2246 I-0.0654 J-0.0736
N11230 G1 X0.4274 Y1.1914
N11235 X0.4241 Y1.1589
N11240 X0.3961 Y1.0767
N11245 G3 X0.3936 Y1.0652 I0.0594 J-0.0188
N11250 X0.4011 Y1.0274 Z-0.055 I0.0619 J-0.0074
N11255 G1 X0.5061 Y0.8548
N11260 X0.5264 Y0.8249
N11265 X0.5488 Y0.7965
N11270 X0.5727 Y0.7693
N11275 X0.5973 Y0.7428
N11280 X0.6222 Y0.7165
N11285 X0.6469 Y0.6901
N11290 X0.6712 Y0.6633
N11295 X0.695 Y0.636
N11300 X0.718 Y0.6081
N11305 X0.7401 Y0.5795
N11310 X0.7614 Y0.5502
N11315 X0.7816 Y0.5202
N11320 X0.8008 Y0.4896
N11325 X0.8189 Y0.4582
N11330 X0.8358 Y0.4262
N11335 X0.8515 Y0.3936
N11340 X0.866 Y0.3605
N11345 X0.8792 Y0.3268
N11350 X0.8911 Y0.2926
N11355 X0.9017 Y0.258
N11360 X0.9109 Y0.223
N11365 X0.9188 Y0.1877
N11370 X0.9254 Y0.1521
N11375 X0.9305 Y0.1163
N11380 X0.9343 Y0.0803
N11385 X0.9367 Y0.0442
N11390 X0.9378 Y0.0081
N11395 X0.9374 Y-0.0281
N11400 X0.9356 Y-0.0642
N11405 X0.9324 Y-0.1003
N11410 X0.9278 Y-0.1362
N11415 X0.9219 Y-0.1719
N11420 X0.9145 Y-0.2073
N11425 X0.9059 Y-0.2424
N11430 X0.8958 Y-0.2772
N11435 X0.8845 Y-0.3115
N11440 X0.8718 Y-0.3454
N11445 X0.8579 Y-0.3788
N11450 X0.8426 Y-0.4116
N11455 X0.8261 Y-0.4438
N11460 X0.8084 Y-0.4754
N11465 X0.7894 Y-0.5062
N11470 X0.7693 Y-0.5362
N11475 X0.748 Y-0.5655
N11480 X0.7257 Y-0.594
N11485 X0.7022 Y-0.6215
N11490 X0.6777 Y-0.6482
N11495 X0.6522 Y-0.6738
N11500 X0.6257 Y-0.6985
N11505 X0.5983 Y-0.7221
N11510 X0.5853 Y-0.7325
N11515 X0.5794 Y-0.7378
N11520 X0.5741 Y-0.7437
N11525 X0.5696 Y-0.7503
N11530 X0.4589 Y-0.9323
N11535 X0.4557 Y-0.9452 Z-0.0523
N11540 X0.462 Y-0.9611 Z-0.0488
N11545 X0.4652 Y-0.9694 Z-0.047
N11550 X0.4976 Y-1.052
N11555 G2 X0.4831 Y-1.1506 I-0.0912 J-0.037
N11560 G1 X0.3945 Y-1.2582
N11565 X0.3868 Y-1.2657
N11570 G2 X0.3781 Y-1.2739 I-0.072 J0.0671
N11575 G1 X0.2959 Y-1.3376
N11580 X0.1915 Y-1.389
N11585 X0.074 Y-1.4179
N11590 X-0.0493 Y-1.42
N11595 X-0.1562 Y-1.3995
N11600 X-0.2137 Y-1.3799
N11605 X-0.3047 Y-1.3314
N11610 X-0.3725 Y-1.2786
N11615 X-0.3781 Y-1.274
N11620 X-0.3945 Y-1.2584
N11625 G2 X-0.4192 Y-1.2246 I0.0654 J0.0736
N11630 G1 X-0.4274 Y-1.1914
N11635 X-0.4241 Y-1.1589
N11640 X-0.3941 Y-1.0684
N11645 X-0.3942 Y-1.0654
N11650 X-0.3944 Y-1.0565 Z-0.0488
N11655 X-0.3948 Y-1.0438 Z-0.0514
N11660 X-0.4011 Y-1.0274 Z-0.055
N11665 X-0.5061 Y-0.8548
N11670 X-0.5264 Y-0.8248
N11675 X-0.5488 Y-0.7964
N11680 X-0.5727 Y-0.7692
N11685 X-0.5972 Y-0.7426
N11690 X-0.6218 Y-0.7161
N11695 X-0.6459 Y-0.6891
N11700 X-0.6692 Y-0.6614
N11705 X-0.6913 Y-0.6328
N11710 X-0.7121 Y-0.6032
N11715 X-0.7314 Y-0.5726
N11720 X-0.7491 Y-0.541
N11725 X-0.7652 Y-0.5086
N11730 X-0.7797 Y-0.4755
N11735 X-0.7928 Y-0.4417
N11740 X-0.8044 Y-0.4075
N11745 X-0.8147 Y-0.3728
N11750 X-0.8238 Y-0.3378
N11755 X-0.8317 Y-0.3025
N11760 X-0.8385 Y-0.2669
N11765 X-0.8428 Y-0.2405
N11770 X-0.8433 Y-0.2377
N11775 X-0.8439 Y-0.2349
N11780 X-0.8447 Y-0.2321
N11785 X-0.8465 Y-0.2257
N11790 X-0.863 Y-0.1466
N11795 X-0.8675 Y-0.1233
N11800 X-0.8686 Y-0.1151
N11805 X-0.87 Y-0.0986
N11810 X-0.8706 Y-0.0904
N11815 X-0.8757 Y-0.0164
N11820 X-0.8759 Y-0.0082
N11825 Y0.0082
N11830 X-0.8757 Y0.0164
N11835 X-0.8706 Y0.0904
N11840 X-0.87 Y0.0986
N11845 X-0.8686 Y0.1151
N11850 X-0.8675 Y0.1233
N11855 X-0.863 Y0.1466
N11860 X-0.8465 Y0.2257
N11865 X-0.8428 Y0.2383
N11870 X-0.8404 Y0.2466
N11875 X-0.8383 Y0.2533
N11880 X-0.8115 Y0.3288
N11885 X-0.8084 Y0.337
N11890 X-0.8016 Y0.3534
N11895 X-0.7978 Y0.3616
N11900 X-0.7595 Y0.4356
N11905 X-0.7561 Y0.442
N11910 X-0.7458 Y0.4603
N11915 X-0.741 Y0.4685
N11920 X-0.5695 Y0.7505
N11925 X-0.5671 Y0.7691 Z-0.0512
N11930 X-0.5714 Y0.7798 Z-0.0488
N11935 X-0.5747 Y0.7881 Z-0.047
N11940 X-0.6077 Y0.8712
N11945 G2 X-0.6 Y0.9599 I0.0913 J0.0367
N11950 G1 X-0.452 Y1.1895
N11955 X-0.3945 Y1.2583
N11960 X-0.3863 Y1.2662
N11965 G2 X-0.3781 Y1.2739 I0.0715 J-0.0677
N11970 G1 X-0.2959 Y1.3376
N11975 X-0.1973 Y1.3865
N11980 X-0.1068 Y1.4106
N11985 X-0.0555 Y1.4195
N11990 X0.0658 Y1.4188
N11995 X0.1808 Y1.3925
N12000 X0.2548 Y1.3594
N12005 X0.3175 Y1.3232
N12010 X0.3725 Y1.2786
N12015 X0.3781 Y1.274
N12020 X0.4192 Y1.2301
N12025 X0.4685 Y1.167
N12030 G2 X0.4874 Y1.1178 I-0.0791 J-0.0586
N12035 G1 X0.5004 Y1.0109
N12040 X0.4998 Y0.8928
N12045 Y0.8839 Z-0.0488
N12050 X0.4997 Y0.8712 Z-0.0514
N12055 X0.5061 Y0.8548 Z-0.055
N12060 X0.741 Y0.4685
N12065 X0.7458 Y0.4603
N12070 X0.7561 Y0.442
N12075 X0.7808 Y0.3945
N12080 X0.7978 Y0.3616
N12085 X0.8016 Y0.3534
N12090 X0.8084 Y0.337
N12095 X0.8115 Y0.3288
N12100 X0.8383 Y0.2533
N12105 X0.8404 Y0.2466
N12110 X0.8453 Y0.2301
N12115 X0.8465 Y0.2257
N12120 X0.863 Y0.1466
N12125 X0.8675 Y0.1233
N12130 X0.8686 Y0.1151
N12135 X0.87 Y0.0986
N12140 X0.8706 Y0.0904
N12145 X0.8757 Y0.0164
N12150 X0.8759 Y0.0082
N12155 Y-0.0082
N12160 X0.8757 Y-0.0164
N12165 X0.8706 Y-0.0904
N12170 X0.87 Y-0.0986
N12175 X0.8686 Y-0.1151
N12180 X0.8675 Y-0.1233
N12185 X0.863 Y-0.1466
N12190 X0.8465 Y-0.2257
N12195 X0.8428 Y-0.2383
N12200 X0.8404 Y-0.2466
N12205 X0.8383 Y-0.2533
N12210 X0.8115 Y-0.3288
N12215 X0.8084 Y-0.337
N12220 X0.8016 Y-0.3534
N12225 X0.7978 Y-0.3616
N12230 X0.7595 Y-0.4356
N12235 X0.7561 Y-0.442
N12240 X0.7458 Y-0.4603
N12245 X0.741 Y-0.4685
N12250 X0.5696 Y-0.7503
N12255 X0.5671 Y-0.7683 Z-0.0513
N12260 X0.5715 Y-0.7795 Z-0.0488
N12265 X0.5748 Y-0.7879 Z-0.047
N12270 X0.6077 Y-0.8712
N12275 G2 X0.6 Y-0.9598 I-0.0913 J-0.0367
N12280 G1 X0.452 Y-1.1895
N12285 X0.3945 Y-1.2583
N12290 X0.3863 Y-1.2662
N12295 G2 X0.3781 Y-1.2739 I-0.0715 J0.0677
N12300 G1 X0.2959 Y-1.3376
N12305 X0.1973 Y-1.3865
N12310 X0.1068 Y-1.4106
N12315 X0.0555 Y-1.4195
N12320 X-0.0658 Y-1.4188
N12325 X-0.1808 Y-1.3925
N12330 X-0.2548 Y-1.3594
N12335 X-0.3175 Y-1.3232
N12340 X-0.3725 Y-1.2786
N12345 X-0.3781 Y-1.274
N12350 X-0.4192 Y-1.2301
N12355 X-0.4685 Y-1.167
N12360 G2 X-0.4874 Y-1.1178 I0.0791 J0.0586
N12365 G1 X-0.5004 Y-1.0109
N12370 X-0.4998 Y-0.8928
N12375 Y-0.8839 Z-0.0488
N12380 X-0.4997 Y-0.8712 Z-0.0514
N12385 X-0.5061 Y-0.8548 Z-0.055
N12390 X-0.741 Y-0.4685
N12395 X-0.7458 Y-0.4603
N12400 X-0.7561 Y-0.442
N12405 X-0.7808 Y-0.3945
N12410 X-0.7978 Y-0.3616
N12415 X-0.8016 Y-0.3534
N12420 X-0.8084 Y-0.337
N12425 X-0.8115 Y-0.3288
N12430 X-0.8383 Y-0.2533
N12435 X-0.8404 Y-0.2466
N12440 X-0.8447 Y-0.2321
N12445 G3 X-0.8763 Y-0.2163 Z-0.047 I-0.0237 J-0.0079
N12450 X-0.8857 Y-0.2219 I0.0079 J-0.0237
N12455 G1 X-1.4589 Y-0.7233
N12460 G2 X-1.5944 Y-0.7174 I-0.0647 J0.0742
N12465 X-1.6188 Y-0.6739 Z-0.0861 I0.0709 J0.0683
N12470 G1 X-1.6191 Y-0.6728 Z-0.0872
N12475 X-1.625 Y-0.6491 Z-0.095
N12480 Y-0.64
N12485 X-1.6202 Y-0.6042
N12490 X-1.6186 Y-0.5999
N12495 X-1.616 Y-0.5916
N12500 X-1.6135 Y-0.5812
N12505 X-1.6106 Y-0.5644
N12510 X-1.6086 Y-0.543
N12515 X-1.6079 Y-0.5147
N12520 X-1.6096 Y-0.4785
N12525 X-1.6136 Y-0.4426
N12530 X-1.6247 Y-0.371
N12535 X-1.6301 Y-0.3353
N12540 X-1.6409 Y-0.2637
N12545 X-1.6457 Y-0.2279
N12550 X-1.6497 Y-0.1919
N12555 X-1.6529 Y-0.1559
N12560 X-1.6557 Y-0.1198
N12565 X-1.6582 Y-0.0837
N12570 X-1.6594 Y-0.0475
N12575 X-1.6597 Y-0.0113
N12580 X-1.6594 Y0.0248
N12585 X-1.6587 Y0.061
N12590 X-1.6571 Y0.0972
N12595 X-1.6544 Y0.1332
N12600 X-1.6509 Y0.1692
N12605 X-1.6468 Y0.2052
N12610 X-1.6424 Y0.2411
N12615 X-1.6366 Y0.2768
N12620 X-1.6299 Y0.3124
N12625 X-1.6226 Y0.3478
N12630 X-1.6149 Y0.3832
N12635 X-1.6063 Y0.4183
N12640 X-1.5966 Y0.4532
N12645 X-1.5862 Y0.4878
N12650 X-1.5752 Y0.5223
N12655 X-1.5638 Y0.5567
N12660 X-1.5512 Y0.5906
N12665 X-1.5378 Y0.6242
N12670 X-1.5237 Y0.6575
N12675 X-1.5092 Y0.6906
N12680 X-1.4939 Y0.7234
N12685 X-1.4776 Y0.7557
N12690 X-1.4606 Y0.7877
N12695 X-1.4431 Y0.8194
N12700 X-1.4253 Y0.8508
N12705 X-1.4063 Y0.8817
N12710 X-1.3866 Y0.912
N12715 X-1.3663 Y0.9419
N12720 X-1.3456 Y0.9716
N12725 X-1.3242 Y1.0008
N12730 X-1.3019 Y1.0293
N12735 X-1.279 Y1.0573
N12740 X-1.2557 Y1.085
N12745 X-1.2321 Y1.1124
N12750 X-1.2075 Y1.1389
N12755 X-1.1822 Y1.1648
N12760 X-1.1564 Y1.1902
N12765 X-1.1304 Y1.2153
N12770 X-1.1037 Y1.2397
N12775 X-1.0763 Y1.2634
N12780 X-1.0484 Y1.2864
N12785 X-1.0201 Y1.309
N12790 X-0.9916 Y1.3312
N12795 X-0.9623 Y1.3524
N12800 X-0.9324 Y1.3729
N12805 X-0.9022 Y1.3928
N12810 X-0.8718 Y1.4123
N12815 X-0.8408 Y1.4311
N12820 X-0.8094 Y1.4489
N12825 X-0.7775 Y1.4661
N12830 X-0.7454 Y1.4827
N12835 X-0.7131 Y1.499
N12840 X-0.6802 Y1.5141
N12845 X-0.6469 Y1.5283
N12850 X-0.6134 Y1.542
N12855 X-0.5797 Y1.5552
N12860 X-0.5457 Y1.5676
N12865 X-0.5114 Y1.5789
N12870 X-0.4768 Y1.5895
N12875 X-0.442 Y1.5996
N12880 X-0.4071 Y1.6092
N12885 X-0.3719 Y1.6176
N12890 X-0.3365 Y1.6251
N12895 X-0.301 Y1.632
N12900 X-0.2654 Y1.6383
N12905 X-0.2296 Y1.6439
N12910 X-0.1937 Y1.6483
N12915 X-0.1577 Y1.652
N12920 X-0.1217 Y1.6551
N12925 X-0.0856 Y1.6577
N12930 X-0.0495 Y1.6591
N12935 X-0.0133 Y1.6596
N12940 X0.0229 Y1.6593
N12945 X0.0591 Y1.6586
N12950 X0.0952 Y1.6571
N12955 X0.1313 Y1.6545
N12960 X0.1673 Y1.651
N12965 X0.2033 Y1.647
N12970 X0.2392 Y1.6426
N12975 X0.2749 Y1.6369
N12980 X0.3105 Y1.6303
N12985 X0.346 Y1.623
N12990 X0.3813 Y1.6153
N12995 X0.4165 Y1.6068
N13000 X0.4513 Y1.5971
N13005 X0.486 Y1.5867
N13010 X0.5205 Y1.5758
N13015 X0.5548 Y1.5645
N13020 X0.5888 Y1.5519
N13025 X0.6224 Y1.5385
N13030 X0.6557 Y1.5245
N13035 X0.6889 Y1.51
N13040 X0.7217 Y1.4947
N13045 X0.754 Y1.4785
N13050 X0.786 Y1.4615
N13055 X0.8177 Y1.4441
N13060 X0.8492 Y1.4263
N13065 X0.88 Y1.4074
N13070 X0.9104 Y1.3876
N13075 X0.9403 Y1.3674
N13080 X0.97 Y1.3467
N13085 X0.9993 Y1.3254
N13090 X1.0278 Y1.3031
N13095 X1.0558 Y1.2803
N13100 X1.0835 Y1.257
N13105 X1.1109 Y1.2334
N13110 X1.1375 Y1.2088
N13115 X1.1634 Y1.1835
N13120 X1.1889 Y1.1578
N13125 X1.214 Y1.1318
N13130 X1.2385 Y1.1051
N13135 X1.2621 Y1.0778
N13140 X1.2852 Y1.0499
N13145 X1.3078 Y1.0216
N13150 X1.3301 Y0.9931
N13155 X1.3513 Y0.9639
N13160 X1.3718 Y0.934
N13165 X1.3918 Y0.9038
N13170 X1.4113 Y0.8734
N13175 X1.4301 Y0.8425
N13180 X1.448 Y0.811
N13185 X1.4652 Y0.7792
N13190 X1.4818 Y0.7471
N13195 X1.4981 Y0.7148
N13200 X1.5133 Y0.6819
N13205 X1.5276 Y0.6487
N13210 X1.5413 Y0.6152
N13215 X1.5545 Y0.5815
N13220 X1.567 Y0.5475
N13225 X1.5784 Y0.5132
N13230 X1.589 Y0.4786
N13235 X1.5991 Y0.4439
N13240 X1.6087 Y0.409
N13245 X1.6172 Y0.3738
N13250 X1.6247 Y0.3384
N13255 X1.6316 Y0.3029
N13260 X1.638 Y0.2673
N13265 X1.6436 Y0.2315
N13270 X1.6481 Y0.1956
N13275 X1.6518 Y0.1596
N13280 X1.6549 Y0.1236
N13285 X1.6576 Y0.0875
N13290 X1.6591 Y0.0514
N13295 X1.6595 Y0.0152
N13300 X1.6594 Y-0.021
N13305 X1.6587 Y-0.0572
N13310 X1.6572 Y-0.0933
N13315 X1.6546 Y-0.1294
N13320 X1.6512 Y-0.1654
N13325 X1.6472 Y-0.2014
N13330 X1.6429 Y-0.2373
N13335 X1.6372 Y-0.2731
N13340 X1.6307 Y-0.3086
N13345 X1.6234 Y-0.3441
N13350 X1.6157 Y-0.3794
N13355 X1.6072 Y-0.4146
N13360 X1.5977 Y-0.4495
N13365 X1.5873 Y-0.4842
N13370 X1.5764 Y-0.5187
N13375 X1.5651 Y-0.553
N13380 X1.5526 Y-0.587
N13385 X1.5392 Y-0.6206
N13390 X1.5252 Y-0.654
N13395 X1.5107 Y-0.6871
N13400 X1.4956 Y-0.72
N13405 X1.4794 Y-0.7523
N13410 X1.4625 Y-0.7843
N13415 X1.445 Y-0.816
N13420 X1.4272 Y-0.8475
N13425 X1.4084 Y-0.8784
N13430 X1.3887 Y-0.9088
N13435 X1.3684 Y-0.9388
N13440 X1.3478 Y-0.9685
N13445 X1.3265 Y-0.9977
N13450 X1.3043 Y-1.0263
N13455 X1.2815 Y-1.0544
N13460 X1.2582 Y-1.0821
N13465 X1.2346 Y-1.1095
N13470 X1.2101 Y-1.1361
N13475 X1.1849 Y-1.1621
N13480 X1.1592 Y-1.1875
N13485 X1.1331 Y-1.2126
N13490 X1.1066 Y-1.2372
N13495 X1.0792 Y-1.2609
N13500 X1.0514 Y-1.284
N13505 X1.0231 Y-1.3066
N13510 X0.9946 Y-1.3289
N13515 X0.9654 Y-1.3502
N13520 X0.9356 Y-1.3708
N13525 X0.9054 Y-1.3907
N13530 X0.875 Y-1.4103
N13535 X0.8441 Y-1.4292
N13540 X0.8127 Y-1.4471
N13545 X0.7809 Y-1.4643
N13550 X0.7488 Y-1.481
N13555 X0.7165 Y-1.4973
N13560 X0.6836 Y-1.5125
N13565 X0.6504 Y-1.5268
N13570 X0.6169 Y-1.5405
N13575 X0.5833 Y-1.5538
N13580 X0.5493 Y-1.5663
N13585 X0.515 Y-1.5778
N13590 X0.4804 Y-1.5884
N13595 X0.4457 Y-1.5985
N13600 X0.4108 Y-1.6082
N13605 X0.3757 Y-1.6168
N13610 X0.3403 Y-1.6244
N13615 X0.3048 Y-1.6313
N13620 X0.2692 Y-1.6377
N13625 X0.2334 Y-1.6434
N13630 X0.1975 Y-1.6479
N13635 X0.1615 Y-1.6516
N13640 X0.1255 Y-1.6547
N13645 X0.0894 Y-1.6575
N13650 X0.0533 Y-1.659
N13655 X0.0171 Y-1.6595
N13660 X-0.0191 Y-1.6594
N13665 X-0.0553 Y-1.6587
N13670 X-0.0914 Y-1.6573
N13675 X-0.1275 Y-1.6548
N13680 X-0.1635 Y-1.6514
N13685 X-0.1995 Y-1.6475
N13690 X-0.2354 Y-1.6431
N13695 X-0.2712 Y-1.6375
N13700 X-0.3068 Y-1.631
N13705 X-0.3422 Y-1.6238
N13710 X-0.3776 Y-1.6161
N13715 X-0.4128 Y-1.6077
N13720 X-0.4477 Y-1.5982
N13725 X-0.4824 Y-1.5879
N13730 X-0.5169 Y-1.577
N13735 X-0.5512 Y-1.5657
N13740 X-0.5852 Y-1.5533
N13745 X-0.6188 Y-1.5399
N13750 X-0.6522 Y-1.5259
N13755 X-0.6854 Y-1.5115
N13760 X-0.7183 Y-1.4964
N13765 X-0.7507 Y-1.4802
N13770 X-0.7827 Y-1.4634
N13775 X-0.8144 Y-1.4459
N13780 X-0.8459 Y-1.4282
N13785 X-0.8768 Y-1.4094
N13790 X-0.9072 Y-1.3897
N13795 X-0.9372 Y-1.3695
N13800 X-0.9669 Y-1.3489
N13805 X-0.9962 Y-1.3277
N13810 X-1.0248 Y-1.3055
N13815 X-1.0529 Y-1.2827
N13820 X-1.0806 Y-1.2594
N13825 X-1.1081 Y-1.2359
N13830 X-1.1347 Y-1.2114
N13835 X-1.1607 Y-1.1862
N13840 X-1.1862 Y-1.1605
N13845 X-1.2113 Y-1.1345
N13850 X-1.2359 Y-1.108
N13855 X-1.2597 Y-1.0807
N13860 X-1.2828 Y-1.0528
N13865 X-1.3054 Y-1.0246
N13870 X-1.3277 Y-0.9961
N13875 X-1.3491 Y-0.9669
N13880 X-1.3697 Y-0.9372
N13885 X-1.3897 Y-0.907
N13890 X-1.4093 Y-0.8766
N13895 X-1.4282 Y-0.8458
N13900 X-1.4462 Y-0.8144
N13905 X-1.4634 Y-0.7825
N13910 X-1.4801 Y-0.7504
N13915 X-1.4957 Y-0.7178
N13920 X-1.505 Y-0.6828
N13925 X-1.5105 Y-0.6471
N13930 X-1.514 Y-0.611
N13935 X-1.5194 Y-0.5389
N13940 X-1.5226 Y-0.5028
N13945 X-1.5265 Y-0.4669
N13950 X-1.5309 Y-0.431
N13955 X-1.5357 Y-0.3951
N13960 X-1.5406 Y-0.3593
N13965 X-1.5456 Y-0.3234
N13970 X-1.5505 Y-0.2876
N13975 X-1.555 Y-0.2517
N13980 X-1.5591 Y-0.2157
N13985 X-1.5627 Y-0.1797
N13990 X-1.5658 Y-0.1437
N13995 X-1.5682 Y-0.1076
N14000 X-1.5698 Y-0.0714
N14005 X-1.5707 Y-0.0352
N14010 X-1.571 Y0.0009
N14015 X-1.5704 Y0.0371
N14020 X-1.569 Y0.0733
N14025 X-1.5668 Y0.1094
N14030 X-1.5639 Y0.1454
N14035 X-1.5601 Y0.1814
N14040 X-1.5554 Y0.2173
N14045 X-1.5499 Y0.2531
N14050 X-1.5437 Y0.2887
N14055 X-1.5366 Y0.3242
N14060 X-1.5287 Y0.3595
N14065 X-1.52 Y0.3946
N14070 X-1.5105 Y0.4295
N14075 X-1.5003 Y0.4642
N14080 X-1.4892 Y0.4987
N14085 X-1.4772 Y0.5328
N14090 X-1.4645 Y0.5667
N14095 X-1.4512 Y0.6003
N14100 X-1.4369 Y0.6336
N14105 X-1.4219 Y0.6665
N14110 X-1.4062 Y0.6991
N14115 X-1.3898 Y0.7313
N14120 X-1.3726 Y0.7632
N14125 X-1.3546 Y0.7946
N14130 X-1.3359 Y0.8256
N14135 X-1.3165 Y0.8561
N14140 X-1.2965 Y0.8862
N14145 X-1.2757 Y0.9158
N14150 X-1.2542 Y0.945
N14155 X-1.2321 Y0.9736
N14160 X-1.2094 Y1.0018
N14165 X-1.186 Y1.0294
N14170 X-1.1619 Y1.0564
N14175 X-1.1373 Y1.0829
N14180 X-1.1121 Y1.1088
N14185 X-1.0862 Y1.1342
N14190 X-1.0598 Y1.1588
N14195 X-1.0328 Y1.1829
N14200 X-1.0053 Y1.2065
N14205 X-0.9773 Y1.2294
N14210 X-0.9487 Y1.2515
N14215 X-0.9196 Y1.273
N14220 X-0.89 Y1.2939
N14225 X-0.86 Y1.3141
N14230 X-0.8295 Y1.3335
N14235 X-0.7985 Y1.3522
N14240 X-0.7671 Y1.3702
N14245 X-0.7354 Y1.3876
N14250 X-0.7032 Y1.4042
N14255 X-0.6707 Y1.42
N14260 X-0.6378 Y1.435
N14265 X-0.6046 Y1.4494
N14270 X-0.571 Y1.4629
N14275 X-0.5371 Y1.4757
N14280 X-0.503 Y1.4876
N14285 X-0.4686 Y1.4989
N14290 X-0.434 Y1.5094
N14295 X-0.3991 Y1.5189
N14300 X-0.364 Y1.5276
N14305 X-0.3287 Y1.5356
N14310 X-0.2932 Y1.5428
N14315 X-0.2576 Y1.5491
N14320 X-0.2218 Y1.5546
N14325 X-0.186 Y1.5593
N14330 X-0.15 Y1.5633
N14335 X-0.1139 Y1.5663
N14340 X-0.0778 Y1.5685
N14345 X-0.0417 Y1.5698
N14350 X-0.0055 Y1.5704
N14355 X0.0307 Y1.5701
N14360 X0.0669 Y1.5689
N14365 X0.103 Y1.567
N14370 X0.1391 Y1.5643
N14375 X0.1751 Y1.5607
N14380 X0.211 Y1.5562
N14385 X0.2468 Y1.5509
N14390 X0.2824 Y1.5448
N14395 X0.318 Y1.5379
N14400 X0.3533 Y1.5302
N14405 X0.3884 Y1.5216
N14410 X0.4234 Y1.5122
N14415 X0.4581 Y1.5021
N14420 X0.4926 Y1.4912
N14425 X0.5268 Y1.4794
N14430 X0.5608 Y1.4668
N14435 X0.5944 Y1.4536
N14440 X0.6278 Y1.4395
N14445 X0.6607 Y1.4246
N14450 X0.6934 Y1.409
N14455 X0.7257 Y1.3927
N14460 X0.7576 Y1.3757
N14465 X0.7891 Y1.3578
N14470 X0.8201 Y1.3392
N14475 X0.8508 Y1.32
N14480 X0.881 Y1.3001
N14485 X0.9107 Y1.2794
N14490 X0.9399 Y1.2581
N14495 X0.9686 Y1.2361
N14500 X0.9969 Y1.2135
N14505 X1.0246 Y1.1902
N14510 X1.0517 Y1.1662
N14515 X1.0782 Y1.1417
N14520 X1.1043 Y1.1166
N14525 X1.1297 Y1.0908
N14530 X1.1545 Y1.0645
N14535 X1.1787 Y1.0376
N14540 X1.2024 Y1.0102
N14545 X1.2254 Y0.9823
N14550 X1.2477 Y0.9538
N14555 X1.2693 Y0.9247
N14560 X1.2902 Y0.8953
N14565 X1.3106 Y0.8653
N14570 X1.3301 Y0.8349
N14575 X1.349 Y0.804
N14580 X1.3671 Y0.7727
N14585 X1.3846 Y0.741
N14590 X1.4013 Y0.7089
N14595 X1.4172 Y0.6764
N14600 X1.4324 Y0.6436
N14605 X1.4469 Y0.6104
N14610 X1.4606 Y0.5769
N14615 X1.4735 Y0.5431
N14620 X1.4855 Y0.509
N14625 X1.4969 Y0.4747
N14630 X1.5075 Y0.4401
N14635 X1.5173 Y0.4052
N14640 X1.5261 Y0.3702
N14645 X1.5343 Y0.3349
N14650 X1.5416 Y0.2995
N14655 X1.5481 Y0.2639
N14660 X1.5537 Y0.2281
N14665 X1.5585 Y0.1923
N14670 X1.5626 Y0.1563
N14675 X1.5658 Y0.1203
N14680 X1.5681 Y0.0842
N14685 X1.5696 Y0.048
N14690 X1.5703 Y0.0119
N14695 X1.5702 Y-0.0243
N14700 X1.5692 Y-0.0605
N14705 X1.5673 Y-0.0966
N14710 X1.5648 Y-0.1327
N14715 X1.5614 Y-0.1687
N14720 X1.557 Y-0.2047
N14725 X1.5519 Y-0.2405
N14730 X1.5459 Y-0.2762
N14735 X1.5392 Y-0.3117
N14740 X1.5316 Y-0.3471
N14745 X1.5231 Y-0.3823
N14750 X1.5139 Y-0.4173
N14755 X1.504 Y-0.452
N14760 X1.4932 Y-0.4866
N14765 X1.4815 Y-0.5208
N14770 X1.4691 Y-0.5548
N14775 X1.4559 Y-0.5885
N14780 X1.442 Y-0.6219
N14785 X1.4273 Y-0.655
N14790 X1.4118 Y-0.6876
N14795 X1.3956 Y-0.72
N14800 X1.3787 Y-0.752
N14805 X1.361 Y-0.7836
N14810 X1.3425 Y-0.8147
N14815 X1.3234 Y-0.8454
N14820 X1.3036 Y-0.8757
N14825 X1.2831 Y-0.9055
N14830 X1.2619 Y-0.9348
N14835 X1.24 Y-0.9636
N14840 X1.2175 Y-0.9919
N14845 X1.1943 Y-1.0197
N14850 X1.1705 Y-1.0469
N14855 X1.146 Y-1.0736
N14860 X1.121 Y-1.0997
N14865 X1.0954 Y-1.1253
N14870 X1.0692 Y-1.1502
N14875 X1.0423 Y-1.1745
N14880 X1.015 Y-1.1982
N14885 X0.9872 Y-1.2214
N14890 X0.9588 Y-1.2438
N14895 X0.9299 Y-1.2655
N14900 X0.9005 Y-1.2866
N14905 X0.8706 Y-1.307
N14910 X0.8403 Y-1.3268
N14915 X0.8095 Y-1.3457
N14920 X0.7782 Y-1.364
N14925 X0.7466 Y-1.3816
N14930 X0.7146 Y-1.3985
N14935 X0.6822 Y-1.4145
N14940 X0.6494 Y-1.4298
N14945 X0.6163 Y-1.4444
N14950 X0.5829 Y-1.4582
N14955 X0.5491 Y-1.4712
N14960 X0.515 Y-1.4835
N14965 X0.4807 Y-1.495
N14970 X0.4462 Y-1.5057
N14975 X0.4114 Y-1.5156
N14980 X0.3763 Y-1.5246
N14985 X0.3411 Y-1.5329
N14990 X0.3057 Y-1.5404
N14995 X0.2701 Y-1.547
N15000 X0.2344 Y-1.5528
N15005 X0.1986 Y-1.5578
N15010 X0.1627 Y-1.562
N15015 X0.1266 Y-1.5653
N15020 X0.0905 Y-1.5678
N15025 X0.0544 Y-1.5694
N15030 X0.0182 Y-1.5703
N15035 X-0.018
N15040 X-0.0541 Y-1.5694
N15045 X-0.0903 Y-1.5677
N15050 X-0.1264 Y-1.5653
N15055 X-0.1624 Y-1.562
N15060 X-0.1984 Y-1.5578
N15065 X-0.2342 Y-1.5528
N15070 X-0.2699 Y-1.547
N15075 X-0.3055 Y-1.5404
N15080 X-0.3409 Y-1.533
N15085 X-0.3761 Y-1.5247
N15090 X-0.4111 Y-1.5156
N15095 X-0.446 Y-1.5058
N15100 X-0.4805 Y-1.4951
N15105 X-0.5148 Y-1.4836
N15110 X-0.5489 Y-1.4713
N15115 X-0.5826 Y-1.4583
N15120 X-0.6161 Y-1.4445
N15125 X-0.6492 Y-1.4299
N15130 X-0.6819 Y-1.4145
N15135 X-0.7143 Y-1.3985
N15140 X-0.7464 Y-1.3817
N15145 X-0.778 Y-1.3641
N15150 X-0.8092 Y-1.3458
N15155 X-0.84 Y-1.3268
N15160 X-0.8704 Y-1.3071
N15165 X-0.9003 Y-1.2868
N15170 X-0.9297 Y-1.2656
N15175 X-0.9586 Y-1.2439
N15180 X-0.987 Y-1.2215
N15185 X-1.0149 Y-1.1985
N15190 X-1.0422 Y-1.1747
N15195 X-1.069 Y-1.1504
N15200 X-1.0952 Y-1.1254
N15205 X-1.1209 Y-1.0999
N15210 X-1.1459 Y-1.0738
N15215 X-1.1703 Y-1.0471
N15220 X-1.1941 Y-1.0199
N15225 X-1.2173 Y-0.9921
N15230 X-1.2399 Y-0.9638
N15235 X-1.2617 Y-0.935
N15240 X-1.2829 Y-0.9056
N15245 X-1.3035 Y-0.8759
N15250 X-1.3233 Y-0.8456
N15255 X-1.3424 Y-0.8149
N15260 X-1.3608 Y-0.7837
N15265 X-1.3776 Y-0.7517
N15270 X-1.3914 Y-0.7183
N15275 X-1.4023 Y-0.6837
N15280 X-1.4109 Y-0.6486
N15285 X-1.4178 Y-0.6131
N15290 X-1.4235 Y-0.5774
N15295 X-1.4288 Y-0.5415
N15300 X-1.4338 Y-0.5057
N15305 X-1.4436 Y-0.434
N15310 X-1.4534 Y-0.3623
N15315 X-1.4582 Y-0.3265
N15320 X-1.4628 Y-0.2906
N15325 X-1.4671 Y-0.2547
N15330 X-1.4711 Y-0.2187
N15335 X-1.4745 Y-0.1827
N15340 X-1.4774 Y-0.1466
N15345 X-1.4796 Y-0.1105
N15350 X-1.4812 Y-0.0743
N15355 X-1.482 Y-0.0382
N15360 X-1.4821 Y-0.002
N15365 X-1.4814 Y0.0342
N15370 X-1.4799 Y0.0703
N15375 X-1.4776 Y0.1064
N15380 X-1.4744 Y0.1425
N15385 X-1.4704 Y0.1784
N15390 X-1.4656 Y0.2143
N15395 X-1.4598 Y0.25
N15400 X-1.4532 Y0.2856
N15405 X-1.4458 Y0.321
N15410 X-1.4375 Y0.3562
N15415 X-1.4284 Y0.3912
N15420 X-1.4184 Y0.426
N15425 X-1.4075 Y0.4605
N15430 X-1.3959 Y0.4948
N15435 X-1.3833 Y0.5287
N15440 X-1.37 Y0.5624
N15445 X-1.3558 Y0.5957
N15450 X-1.3409 Y0.6286
N15455 X-1.3252 Y0.6612
N15460 X-1.3086 Y0.6934
N15465 X-1.2913 Y0.7251
N15470 X-1.2732 Y0.7565
N15475 X-1.2543 Y0.7873
N15480 X-1.2347 Y0.8177
N15485 X-1.2143 Y0.8476
N15490 X-1.1933 Y0.8771
N15495 X-1.1715 Y0.906
N15500 X-1.149 Y0.9343
N15505 X-1.1259 Y0.9621
N15510 X-1.102 Y0.9893
N15515 X-1.0775 Y1.0159
N15520 X-1.0524 Y1.0419
N15525 X-1.0266 Y1.0673
N15530 X-1.0002 Y1.0921
N15535 X-0.9732 Y1.1162
N15540 X-0.9457 Y1.1397
N15545 X-0.9176 Y1.1624
N15550 X-0.8889 Y1.1845
N15555 X-0.8597 Y1.2059
N15560 X-0.83 Y1.2265
N15565 X-0.7998 Y1.2464
N15570 X-0.7691 Y1.2656
N15575 X-0.7379 Y1.284
N15580 X-0.7063 Y1.3017
N15585 X-0.6743 Y1.3185
N15590 X-0.6419 Y1.3346
N15595 X-0.6091 Y1.3499
N15600 X-0.576 Y1.3643
N15605 X-0.5424 Y1.378
N15610 X-0.5086 Y1.3908
N15615 X-0.4745 Y1.4029
N15620 X-0.4401 Y1.414
N15625 X-0.4054 Y1.4244
N15630 X-0.3705 Y1.4338
N15635 X-0.3354 Y1.4425
N15640 X-0.3 Y1.4502
N15645 X-0.2645 Y1.4571
N15650 X-0.2288 Y1.4632
N15655 X-0.193 Y1.4683
N15660 X-0.1571 Y1.4726
N15665 X-0.1211 Y1.476
N15670 X-0.085 Y1.4785
N15675 X-0.0488 Y1.4801
N15680 X-0.0126 Y1.4809
N15685 X0.0235 Y1.4807
N15690 X0.0597 Y1.4797
N15695 X0.0958 Y1.4778
N15700 X0.1319 Y1.4751
N15705 X0.1679 Y1.4714
N15710 X0.2038 Y1.4668
N15715 X0.2396 Y1.4614
N15720 X0.2752 Y1.4551
N15725 X0.3107 Y1.448
N15730 X0.346 Y1.44
N15735 X0.381 Y1.4311
N15740 X0.4159 Y1.4214
N15745 X0.4505 Y1.4108
N15750 X0.4848 Y1.3993
N15755 X0.5189 Y1.3871
N15760 X0.5526 Y1.374
N15765 X0.586 Y1.3601
N15770 X0.619 Y1.3453
N15775 X0.6517 Y1.3298
N15780 X0.684 Y1.3135
N15785 X0.7159 Y1.2964
N15790 X0.7474 Y1.2785
N15795 X0.7784 Y1.2599
N15800 X0.8089 Y1.2405
N15805 X0.839 Y1.2204
N15810 X0.8685 Y1.1995
N15815 X0.8976 Y1.1779
N15820 X0.9261 Y1.1557
N15825 X0.9541 Y1.1327
N15830 X0.9814 Y1.109
N15835 X1.0082 Y1.0847
N15840 X1.0344 Y1.0598
N15845 X1.06 Y1.0342
N15850 X1.085 Y1.008
N15855 X1.1093 Y0.9812
N15860 X1.1329 Y0.9538
N15865 X1.1559 Y0.9258
N15870 X1.1781 Y0.8973
N15875 X1.1997 Y0.8683
N15880 X1.2206 Y0.8387
N15885 X1.2407 Y0.8086
N15890 X1.2601 Y0.7781
N15895 X1.2787 Y0.7471
N15900 X1.2966 Y0.7156
N15905 X1.3137 Y0.6837
N15910 X1.33 Y0.6514
N15915 X1.3455 Y0.6187
N15920 X1.3602 Y0.5857
N15925 X1.3741 Y0.5523
N15930 X1.3872 Y0.5185
N15935 X1.3994 Y0.4845
N15940 X1.4109 Y0.4501
N15945 X1.4214 Y0.4155
N15950 X1.4312 Y0.3807
N15955 X1.44 Y0.3456
N15960 X1.448 Y0.3103
N15965 X1.4552 Y0.2749
N15970 X1.4615 Y0.2392
N15975 X1.4669 Y0.2035
N15980 X1.4714 Y0.1676
N15985 X1.4751 Y0.1316
N15990 X1.4779 Y0.0955
N15995 X1.4798 Y0.0594
N16000 X1.4808 Y0.0232
N16005 X1.4809 Y-0.013
N16010 X1.4801 Y-0.0492
N16015 X1.4785 Y-0.0853
N16020 X1.4759 Y-0.1214
N16025 X1.4725 Y-0.1574
N16030 X1.4682 Y-0.1934
N16035 X1.4631 Y-0.2292
N16040 X1.4571 Y-0.2648
N16045 X1.4501 Y-0.3004
N16050 X1.4424 Y-0.3357
N16055 X1.4338 Y-0.3708
N16060 X1.4243 Y-0.4058
N16065 X1.4139 Y-0.4404
N16070 X1.4028 Y-0.4748
N16075 X1.3907 Y-0.509
N16080 X1.3779 Y-0.5428
N16085 X1.3642 Y-0.5763
N16090 X1.3497 Y-0.6094
N16095 X1.3344 Y-0.6422
N16100 X1.3183 Y-0.6746
N16105 X1.3014 Y-0.7066
N16110 X1.2838 Y-0.7382
N16115 X1.2654 Y-0.7694
N16120 X1.2462 Y-0.8001
N16125 X1.2263 Y-0.8303
N16130 X1.2056 Y-0.86
N16135 X1.1843 Y-0.8892
N16140 X1.1622 Y-0.9178
N16145 X1.1394 Y-0.946
N16150 X1.116 Y-0.9735
N16155 X1.0919 Y-1.0005
N16160 X1.0671 Y-1.0269
N16165 X1.0417 Y-1.0526
N16170 X1.0157 Y-1.0778
N16175 X0.989 Y-1.1022
N16180 X0.9618 Y-1.1261
N16185 X0.934 Y-1.1492
N16190 X0.9057 Y-1.1717
N16195 X0.8768 Y-1.1935
N16200 X0.8473 Y-1.2146
N16205 X0.8174 Y-1.2349
N16210 X0.787 Y-1.2545
N16215 X0.7561 Y-1.2734
N16220 X0.7248 Y-1.2914
N16225 X0.693 Y-1.3088
N16230 X0.6609 Y-1.3253
N16235 X0.6283 Y-1.3411
N16240 X0.5953 Y-1.356
N16245 X0.562 Y-1.3701
N16250 X0.5284 Y-1.3835
N16255 X0.4944 Y-1.396
N16260 X0.4602 Y-1.4076
N16265 X0.4256 Y-1.4184
N16270 X0.3909 Y-1.4284
N16275 X0.3559 Y-1.4375
N16280 X0.3206 Y-1.4458
N16285 X0.2852 Y-1.4532
N16290 X0.2496 Y-1.4597
N16295 X0.2139 Y-1.4654
N16300 X0.178 Y-1.4702
N16305 X0.1421 Y-1.4741
N16310 X0.106 Y-1.4771
N16315 X0.0699 Y-1.4793
N16320 X0.0337 Y-1.4806
N16325 X-0.0025 Y-1.4809
N16330 X-0.0386 Y-1.4804
N16335 X-0.0748 Y-1.479
N16340 X-0.1109 Y-1.4768
N16345 X-0.1469 Y-1.4736
N16350 X-0.1829 Y-1.4696
N16355 X-0.2187 Y-1.4647
N16360 X-0.2545 Y-1.4589
N16365 X-0.29 Y-1.4522
N16370 X-0.3254 Y-1.4447
N16375 X-0.3606 Y-1.4363
N16380 X-0.3956 Y-1.4271
N16385 X-0.4304 Y-1.417
N16390 X-0.4648 Y-1.4061
N16395 X-0.4991 Y-1.3943
N16400 X-0.533 Y-1.3817
N16405 X-0.5666 Y-1.3683
N16410 X-0.5998 Y-1.354
N16415 X-0.6327 Y-1.339
N16420 X-0.6652 Y-1.3231
N16425 X-0.6974 Y-1.3064
N16430 X-0.7291 Y-1.289
N16435 X-0.7603 Y-1.2708
N16440 X-0.7912 Y-1.2519
N16445 X-0.8215 Y-1.2322
N16450 X-0.8514 Y-1.2117
N16455 X-0.8807 Y-1.1906
N16460 X-0.9095 Y-1.1687
N16465 X-0.9378 Y-1.1461
N16470 X-0.9655 Y-1.1229
N16475 X-0.9927 Y-1.099
N16480 X-1.0193 Y-1.0744
N16485 X-1.0452 Y-1.0492
N16490 X-1.0705 Y-1.0233
N16495 X-1.0952 Y-0.9969
N16500 X-1.1192 Y-0.9698
N16505 X-1.1426 Y-0.9422
N16510 X-1.1652 Y-0.914
N16515 X-1.1872 Y-0.8852
N16520 X-1.2085 Y-0.856
N16525 X-1.229 Y-0.8262
N16530 X-1.2487 Y-0.7958
N16535 X-1.2668 Y-0.7645
N16540 X-1.2828 Y-0.732
N16545 X-1.2964 Y-0.6985
N16550 X-1.308 Y-0.6642
N16555 X-1.3179 Y-0.6294
N16560 X-1.3263 Y-0.5942
N16565 X-1.3337 Y-0.5588
N16570 X-1.3404 Y-0.5233
N16575 X-1.3465 Y-0.4876
N16580 X-1.3523 Y-0.4519
N16585 X-1.3578 Y-0.4161
N16590 X-1.3631 Y-0.3803
N16595 X-1.3681 Y-0.3445
N16600 X-1.3728 Y-0.3086
N16605 X-1.3773 Y-0.2727
N16610 X-1.3813 Y-0.2368
N16615 X-1.3848 Y-0.2007
N16620 X-1.3878 Y-0.1647
N16625 X-1.3903 Y-0.1286
N16630 X-1.392 Y-0.0925
N16635 X-1.3931 Y-0.0563
N16640 X-1.3934 Y-0.0201
N16645 X-1.3929 Y0.0161
N16650 X-1.3916 Y0.0522
N16655 X-1.3895 Y0.0883
N16660 X-1.3865 Y0.1244
N16665 X-1.3826 Y0.1604
N16670 X-1.3778 Y0.1962
N16675 X-1.3721 Y0.232
N16680 X-1.3655 Y0.2676
N16685 X-1.358 Y0.303
N16690 X-1.3496 Y0.3381
N16695 X-1.3404 Y0.3731
N16700 X-1.3302 Y0.4078
N16705 X-1.3191 Y0.4423
N16710 X-1.3071 Y0.4764
N16715 X-1.2943 Y0.5103
N16720 X-1.2806 Y0.5438
N16725 X-1.266 Y0.5769
N16730 X-1.2506 Y0.6096
N16735 X-1.2343 Y0.6419
N16740 X-1.2172 Y0.6738
N16745 X-1.1993 Y0.7052
N16750 X-1.1805 Y0.7361
N16755 X-1.161 Y0.7666
N16760 X-1.1406 Y0.7965
N16765 X-1.1195 Y0.8259
N16770 X-1.0977 Y0.8547
N16775 X-1.0751 Y0.883
N16780 X-1.0518 Y0.9107
N16785 X-1.0277 Y0.9377
N16790 X-1.003 Y0.9641
N16795 X-0.9776 Y0.9899
N16800 X-0.9515 Y1.015
N16805 X-0.9248 Y1.0394
N16810 X-0.8975 Y1.0631
N16815 X-0.8695 Y1.0861
N16820 X-0.841 Y1.1083
N16825 X-0.8119 Y1.1298
N16830 X-0.7822 Y1.1505
N16835 X-0.752 Y1.1705
N16840 X-0.7213 Y1.1896
N16845 X-0.6902 Y1.208
N16850 X-0.6585 Y1.2255
N16855 X-0.6264 Y1.2422
N16860 X-0.5939 Y1.2581
N16865 X-0.561 Y1.2731
N16870 X-0.5277 Y1.2873
N16875 X-0.494 Y1.3006
N16880 X-0.4601 Y1.313
N16885 X-0.4258 Y1.3245
N16890 X-0.3912 Y1.3351
N16895 X-0.3563 Y1.3448
N16900 X-0.3212 Y1.3536
N16905 X-0.2859 Y1.3615
N16910 X-0.2504 Y1.3685
N16915 X-0.2147 Y1.3746
N16920 X-0.1789 Y1.3797
N16925 X-0.143 Y1.3839
N16930 X-0.1069 Y1.3871
N16935 X-0.0708 Y1.3894
N16940 X-0.0347 Y1.3908
N16945 X0.0015 Y1.3912
N16950 X0.0377 Y1.3907
N16955 X0.0738 Y1.3893
N16960 X0.1099 Y1.3869
N16965 X0.146 Y1.3836
N16970 X0.1819 Y1.3793
N16975 X0.2177 Y1.3741
N16980 X0.2534 Y1.368
N16985 X0.2888 Y1.3609
N16990 X0.3241 Y1.3529
N16995 X0.3592 Y1.3441
N17000 X0.394 Y1.3343
N17005 X0.4286 Y1.3236
N17010 X0.4629 Y1.312
N17015 X0.4968 Y1.2995
N17020 X0.5305 Y1.2861
N17025 X0.5637 Y1.2719
N17030 X0.5966 Y1.2568
N17035 X0.6291 Y1.2409
N17040 X0.6612 Y1.2241
N17045 X0.6928 Y1.2065
N17050 X0.7239 Y1.1881
N17055 X0.7546 Y1.1688
N17060 X0.7847 Y1.1488
N17065 X0.8143 Y1.128
N17070 X0.8434 Y1.1065
N17075 X0.8718 Y1.0842
N17080 X0.8997 Y1.0611
N17085 X0.927 Y1.0373
N17090 X0.9537 Y1.0129
N17095 X0.9797 Y0.9878
N17100 X1.0051 Y0.9619
N17105 X1.0298 Y0.9355
N17110 X1.0538 Y0.9084
N17115 X1.077 Y0.8807
N17120 X1.0996 Y0.8524
N17125 X1.1213 Y0.8235
N17130 X1.1424 Y0.7941
N17135 X1.1626 Y0.7641
N17140 X1.1821 Y0.7336
N17145 X1.2008 Y0.7026
N17150 X1.2186 Y0.6711
N17155 X1.2357 Y0.6392
N17160 X1.2519 Y0.6069
N17165 X1.2672 Y0.5741
N17170 X1.2817 Y0.541
N17175 X1.2954 Y0.5074
N17180 X1.3082 Y0.4736
N17185 X1.32 Y0.4394
N17190 X1.331 Y0.4049
N17195 X1.3411 Y0.3702
N17200 X1.3503 Y0.3352
N17205 X1.3585 Y0.3
N17210 X1.3659 Y0.2645
N17215 X1.3723 Y0.2289
N17220 X1.3777 Y0.1932
N17225 X1.3823 Y0.1573
N17230 X1.3859 Y0.1213
N17235 X1.3886 Y0.0852
N17240 X1.3903 Y0.049
N17245 X1.3912 Y0.0129
N17250 X1.391 Y-0.0233
N17255 X1.39 Y-0.0595
N17260 X1.388 Y-0.0956
N17265 X1.385 Y-0.1317
N17270 X1.3811 Y-0.1676
N17275 X1.3763 Y-0.2035
N17280 X1.3705 Y-0.2392
N17285 X1.3638 Y-0.2748
N17290 X1.3562 Y-0.3102
N17295 X1.3477 Y-0.3453
N17300 X1.3382 Y-0.3802
N17305 X1.3279 Y-0.4149
N17310 X1.3167 Y-0.4493
N17315 X1.3045 Y-0.4834
N17320 X1.2915 Y-0.5172
N17325 X1.2776 Y-0.5506
N17330 X1.2629 Y-0.5836
N17335 X1.2473 Y-0.6163
N17340 X1.2309 Y-0.6485
N17345 X1.2136 Y-0.6803
N17350 X1.1955 Y-0.7116
N17355 X1.1766 Y-0.7425
N17360 X1.1569 Y-0.7728
N17365 X1.1364 Y-0.8026
N17370 X1.1151 Y-0.8319
N17375 X1.0931 Y-0.8606
N17380 X1.0703 Y-0.8887
N17385 X1.0469 Y-0.9163
N17390 X1.0227 Y-0.9432
N17395 X0.9978 Y-0.9695
N17400 X0.9723 Y-0.9951
N17405 X0.9461 Y-1.02
N17410 X0.9192 Y-1.0443
N17415 X0.8918 Y-1.0679
N17420 X0.8637 Y-1.0907
N17425 X0.835 Y-1.1128
N17430 X0.8058 Y-1.1341
N17435 X0.776 Y-1.1547
N17440 X0.7458 Y-1.1745
N17445 X0.715 Y-1.1935
N17450 X0.6837 Y-1.2116
N17455 X0.6519 Y-1.229
N17460 X0.6198 Y-1.2455
N17465 X0.5871 Y-1.2612
N17470 X0.5542 Y-1.2761
N17475 X0.5208 Y-1.2901
N17480 X0.4871 Y-1.3032
N17485 X0.453 Y-1.3154
N17490 X0.4186 Y-1.3267
N17495 X0.384 Y-1.3372
N17500 X0.3491 Y-1.3467
N17505 X0.314 Y-1.3554
N17510 X0.2786 Y-1.3631
N17515 X0.2431 Y-1.3698
N17520 X0.2074 Y-1.3757
N17525 X0.1715 Y-1.3806
N17530 X0.1356 Y-1.3846
N17535 X0.0995 Y-1.3876
N17540 X0.0634 Y-1.3898
N17545 X0.0272 Y-1.3909
N17550 X-0.009 Y-1.3912
N17555 X-0.0451 Y-1.3905
N17560 X-0.0813 Y-1.3888
N17565 X-0.1174 Y-1.3863
N17570 X-0.1534 Y-1.3828
N17575 X-0.1893 Y-1.3783
N17580 X-0.2251 Y-1.3729
N17585 X-0.2607 Y-1.3666
N17590 X-0.2961 Y-1.3594
N17595 X-0.3314 Y-1.3512
N17600 X-0.3664 Y-1.3421
N17605 X-0.4012 Y-1.3321
N17610 X-0.4357 Y-1.3212
N17615 X-0.4699 Y-1.3094
N17620 X-0.5038 Y-1.2968
N17625 X-0.5374 Y-1.2832
N17630 X-0.5705 Y-1.2688
N17635 X-0.6033 Y-1.2536
N17640 X-0.6357 Y-1.2375
N17645 X-0.6677 Y-1.2205
N17650 X-0.6992 Y-1.2028
N17655 X-0.7303 Y-1.1842
N17660 X-0.7608 Y-1.1648
N17665 X-0.7909 Y-1.1446
N17670 X-0.8203 Y-1.1236
N17675 X-0.8493 Y-1.1019
N17680 X-0.8776 Y-1.0795
N17685 X-0.9054 Y-1.0563
N17690 X-0.9326 Y-1.0324
N17695 X-0.9591 Y-1.0078
N17700 X-0.985 Y-0.9825
N17705 X-1.0102 Y-0.9565
N17710 X-1.0347 Y-0.9299
N17715 X-1.0586 Y-0.9027
N17720 X-1.0817 Y-0.8749
N17725 X-1.1041 Y-0.8465
N17730 X-1.1257 Y-0.8174
N17735 X-1.1461 Y-0.7875
N17740 X-1.165 Y-0.7567
N17745 X-1.182 Y-0.7248
N17750 X-1.1971 Y-0.6919
N17755 X-1.2103 Y-0.6582
N17760 X-1.2219 Y-0.6239
N17765 X-1.232 Y-0.5892
N17770 X-1.241 Y-0.5541
N17775 X-1.249 Y-0.5188
N17780 X-1.2563 Y-0.4834
N17785 X-1.2629 Y-0.4478
N17790 X-1.2691 Y-0.4122
N17795 X-1.2748 Y-0.3765
N17800 X-1.2801 Y-0.3407
N17805 X-1.285 Y-0.3048
N17810 X-1.2895 Y-0.2689
N17815 X-1.2935 Y-0.2329
N17820 X-1.2969 Y-0.1969
N17825 X-1.2998 Y-0.1609
N17830 X-1.302 Y-0.1248
N17835 X-1.3036 Y-0.0886
N17840 X-1.3044 Y-0.0524
N17845 X-1.3045 Y-0.0163
N17850 X-1.3037 Y0.0199
N17855 X-1.3021 Y0.0561
N17860 X-1.2995 Y0.0922
N17865 X-1.2961 Y0.1282
N17870 X-1.2918 Y0.1641
N17875 X-1.2866 Y0.1999
N17880 X-1.2803 Y0.2355
N17885 X-1.2732 Y0.271
N17890 X-1.265 Y0.3063
N17895 X-1.256 Y0.3413
N17900 X-1.2459 Y0.3761
N17905 X-1.2349 Y0.4105
N17910 X-1.223 Y0.4447
N17915 X-1.2102 Y0.4785
N17920 X-1.1964 Y0.512
N17925 X-1.1817 Y0.545
N17930 X-1.1661 Y0.5777
N17935 X-1.1495 Y0.6099
N17940 X-1.1321 Y0.6416
N17945 X-1.1139 Y0.6728
N17950 X-1.0947 Y0.7035
N17955 X-1.0748 Y0.7337
N17960 X-1.0539 Y0.7633
N17965 X-1.0323 Y0.7923
N17970 X-1.0099 Y0.8207
N17975 X-0.9866 Y0.8484
N17980 X-0.9627 Y0.8755
N17985 X-0.938 Y0.9019
N17990 X-0.9125 Y0.9277
N17995 X-0.8864 Y0.9527
N18000 X-0.8596 Y0.977
N18005 X-0.8321 Y1.0005
N18010 X-0.8039 Y1.0232
N18015 X-0.7752 Y1.0452
N18020 X-0.7458 Y1.0664
N18025 X-0.7159 Y1.0867
N18030 X-0.6854 Y1.1062
N18035 X-0.6544 Y1.1248
N18040 X-0.6228 Y1.1425
N18045 X-0.5908 Y1.1594
N18050 X-0.5584 Y1.1754
N18055 X-0.5255 Y1.1904
N18060 X-0.4922 Y1.2046
N18065 X-0.4585 Y1.2178
N18070 X-0.4245 Y1.2301
N18075 X-0.3901 Y1.2414
N18080 X-0.3554 Y1.2518
N18085 X-0.3205 Y1.2612
N18090 X-0.2853 Y1.2696
N18095 X-0.2499 Y1.2771
N18100 X-0.2143 Y1.2835
N18105 X-0.1785 Y1.289
N18110 X-0.1426 Y1.2934
N18115 X-0.1066 Y1.2969
N18120 X-0.0705 Y1.2993
N18125 X-0.0344 Y1.3008
N18130 X0.0018 Y1.3013
N18135 X0.038 Y1.3007
N18140 X0.0741 Y1.2991
N18145 X0.1102 Y1.2966
N18150 X0.1462 Y1.293
N18155 X0.1821 Y1.2885
N18160 X0.2179 Y1.2829
N18165 X0.2535 Y1.2764
N18170 X0.2889 Y1.2688
N18175 X0.324 Y1.2603
N18180 X0.3589 Y1.2508
N18185 X0.3936 Y1.2403
N18190 X0.4279 Y1.2289
N18195 X0.4619 Y1.2165
N18200 X0.4955 Y1.2032
N18205 X0.5288 Y1.189
N18210 X0.5617 Y1.1738
N18215 X0.5941 Y1.1577
N18220 X0.626 Y1.1408
N18225 X0.6575 Y1.1229
N18230 X0.6885 Y1.1042
N18235 X0.7189 Y1.0847
N18240 X0.7488 Y1.0643
N18245 X0.7781 Y1.043
N18250 X0.8068 Y1.021
N18255 X0.8349 Y0.9982
N18260 X0.8623 Y0.9746
N18265 X0.889 Y0.9502
N18270 X0.9151 Y0.9251
N18275 X0.9405 Y0.8993
N18280 X0.9651 Y0.8728
N18285 X0.989 Y0.8457
N18290 X1.0121 Y0.8178
N18295 X1.0345 Y0.7894
N18300 X1.056 Y0.7603
N18305 X1.0768 Y0.7307
N18310 X1.0967 Y0.7005
N18315 X1.1157 Y0.6697
N18320 X1.1339 Y0.6384
N18325 X1.1512 Y0.6066
N18330 X1.1676 Y0.5744
N18335 X1.1831 Y0.5417
N18340 X1.1977 Y0.5086
N18345 X1.2114 Y0.4751
N18350 X1.2242 Y0.4412
N18355 X1.236 Y0.407
N18360 X1.2468 Y0.3725
N18365 X1.2567 Y0.3377
N18370 X1.2656 Y0.3026
N18375 X1.2735 Y0.2673
N18380 X1.2805 Y0.2318
N18385 X1.2864 Y0.1961
N18390 X1.2914 Y0.1603
N18395 X1.2953 Y0.1243
N18400 X1.2983 Y0.0883
N18405 X1.3002 Y0.0521
N18410 X1.3012 Y0.016
N18415 X1.3011 Y-0.0202
N18420 X1.3 Y-0.0564
N18425 X1.298 Y-0.0925
N18430 X1.2949 Y-0.1286
N18435 X1.2908 Y-0.1645
N18440 X1.2857 Y-0.2003
N18445 X1.2797 Y-0.236
N18450 X1.2726 Y-0.2715
N18455 X1.2646 Y-0.3068
N18460 X1.2556 Y-0.3418
N18465 X1.2456 Y-0.3766
N18470 X1.2346 Y-0.4111
N18475 X1.2227 Y-0.4452
N18480 X1.2099 Y-0.4791
N18485 X1.1961 Y-0.5125
N18490 X1.1814 Y-0.5456
N18495 X1.1657 Y-0.5782
N18500 X1.1492 Y-0.6104
N18505 X1.1318 Y-0.6421
N18510 X1.1135 Y-0.6733
N18515 X1.0944 Y-0.704
N18520 X1.0744 Y-0.7342
N18525 X1.0536 Y-0.7638
N18530 X1.0319 Y-0.7928
N18535 X1.0095 Y-0.8212
N18540 X0.9862 Y-0.8489
N18545 X0.9623 Y-0.876
N18550 X0.9375 Y-0.9024
N18555 X0.9121 Y-0.9281
N18560 X0.8859 Y-0.9531
N18565 X0.8591 Y-0.9774
N18570 X0.8316 Y-1.0009
N18575 X0.8034 Y-1.0236
N18580 X0.7747 Y-1.0456
N18585 X0.7453 Y-1.0667
N18590 X0.7153 Y-1.087
N18595 X0.6849 Y-1.1065
N18600 X0.6538 Y-1.1251
N18605 X0.6223 Y-1.1428
N18610 X0.5903 Y-1.1597
N18615 X0.5578 Y-1.1756
N18620 X0.5249 Y-1.1907
N18625 X0.4916 Y-1.2048
N18630 X0.4579 Y-1.218
N18635 X0.4239 Y-1.2303
N18640 X0.3895 Y-1.2416
N18645 X0.3548 Y-1.2519
N18650 X0.3199 Y-1.2613
N18655 X0.2847 Y-1.2697
N18660 X0.2493 Y-1.2772
N18665 X0.2137 Y-1.2836
N18670 X0.1779 Y-1.2891
N18675 X0.142 Y-1.2935
N18680 X0.106 Y-1.297
N18685 X0.0699 Y-1.2994
N18690 X0.0337 Y-1.3008
N18695 X-0.0025 Y-1.3012
N18700 X-0.0386 Y-1.3007
N18705 X-0.0748 Y-1.2991
N18710 X-0.1109 Y-1.2965
N18715 X-0.1469 Y-1.2929
N18720 X-0.1828 Y-1.2883
N18725 X-0.2185 Y-1.2828
N18730 X-0.2541 Y-1.2762
N18735 X-0.2895 Y-1.2687
N18740 X-0.3246 Y-1.2601
N18745 X-0.3596 Y-1.2506
N18750 X-0.3942 Y-1.2401
N18755 X-0.4285 Y-1.2287
N18760 X-0.4625 Y-1.2163
N18765 X-0.4961 Y-1.203
N18770 X-0.5294 Y-1.1887
N18775 X-0.5622 Y-1.1735
N18780 X-0.5946 Y-1.1574
N18785 X-0.6266 Y-1.1404
N18790 X-0.6581 Y-1.1226
N18795 X-0.689 Y-1.1039
N18800 X-0.7194 Y-1.0843
N18805 X-0.7493 Y-1.0639
N18810 X-0.7786 Y-1.0426
N18815 X-0.8073 Y-1.0206
N18820 X-0.8354 Y-0.9978
N18825 X-0.8628 Y-0.9741
N18830 X-0.8895 Y-0.9498
N18835 X-0.9156 Y-0.9247
N18840 X-0.9409 Y-0.8988
N18845 X-0.9655 Y-0.8723
N18850 X-0.9894 Y-0.8451
N18855 X-1.0124 Y-0.8172
N18860 X-1.0344 Y-0.7885
N18865 X-1.0551 Y-0.7588
N18870 X-1.0741 Y-0.728
N18875 X-1.0913 Y-0.6962
N18880 X-1.1068 Y-0.6635
N18885 X-1.1205 Y-0.63
N18890 X-1.1328 Y-0.596
N18895 X-1.1436 Y-0.5614
N18900 X-1.1533 Y-0.5266
N18905 X-1.162 Y-0.4915
N18910 X-1.1699 Y-0.4561
N18915 X-1.177 Y-0.4207
N18920 X-1.1835 Y-0.3851
N18925 X-1.1894 Y-0.3494
N18930 X-1.1948 Y-0.3136
N18935 X-1.1996 Y-0.2777
N18940 X-1.2038 Y-0.2418
N18945 X-1.2075 Y-0.2058
N18950 X-1.2106 Y-0.1698
N18955 X-1.2129 Y-0.1337
N18960 X-1.2146 Y-0.0975
N18965 X-1.2155 Y-0.0613
N18970 Y-0.0252
N18975 X-1.2147 Y0.011
N18980 X-1.2131 Y0.0472
N18985 X-1.2105 Y0.0833
N18990 X-1.2069 Y0.1193
N18995 X-1.2024 Y0.1552
N19000 X-1.197 Y0.1909
N19005 X-1.1905 Y0.2265
N19010 X-1.183 Y0.2619
N19015 X-1.1745 Y0.2971
N19020 X-1.165 Y0.332
N19025 X-1.1545 Y0.3666
N19030 X-1.143 Y0.4009
N19035 X-1.1304 Y0.4349
N19040 X-1.1169 Y0.4684
N19045 X-1.1024 Y0.5016
N19050 X-1.0869 Y0.5342
N19055 X-1.0704 Y0.5665
N19060 X-1.053 Y0.5982
N19065 X-1.0346 Y0.6294
N19070 X-1.0154 Y0.66
N19075 X-0.9952 Y0.69
N19080 X-0.9741 Y0.7195
N19085 X-0.9522 Y0.7482
N19090 X-0.9294 Y0.7764
N19095 X-0.9058 Y0.8038
N19100 X-0.8814 Y0.8305
N19105 X-0.8562 Y0.8564
N19110 X-0.8302 Y0.8816
N19115 X-0.8035 Y0.906
N19120 X-0.7761 Y0.9296
N19125 X-0.748 Y0.9524
N19130 X-0.7192 Y0.9743
N19135 X-0.6898 Y0.9954
N19140 X-0.6597 Y1.0155
N19145 X-0.6291 Y1.0348
N19150 X-0.5979 Y1.0531
N19155 X-0.5662 Y1.0705
N19160 X-0.5339 Y1.087
N19165 X-0.5012 Y1.1024
N19170 X-0.4681 Y1.1169
N19175 X-0.4345 Y1.1304
N19180 X-0.4005 Y1.1428
N19185 X-0.3662 Y1.1543
N19190 X-0.3316 Y1.1647
N19195 X-0.3069 Y1.1714
N19200 X-0.2979 Y1.1745
N19205 X-0.2894 Y1.1788
N19210 X-0.2816 Y1.1843
N19215 X-0.2523 Y1.2082
N19220 X-0.2466 Y1.2129
N19225 X-0.2421 Y1.2164
N19230 X-0.2383 Y1.2193
N19235 X-0.2306 Y1.2246
N19240 X-0.2219 Y1.2299
N19245 X-0.2164 Y1.2328
N19250 X-0.1726 Y1.2543
N19255 X-0.1661 Y1.2575
N19260 X-0.1477 Y1.2657
N19265 X-0.1397 Y1.2689
N19270 X-0.1315 Y1.2712
N19275 X-0.1233 Y1.2734
N19280 X-0.0658 Y1.2867
N19285 X-0.0575 Y1.2883
N19290 X-0.0493 Y1.2897
N19295 X-0.0411 Y1.2904
N19300 X-0.0329 Y1.2906
N19305 X-0.0082 Y1.2907
N19310 X0.0164
N19315 X0.0329 Y1.2906
N19320 X0.0411 Y1.2904
N19325 X0.0493 Y1.2897
N19330 X0.0575 Y1.2883
N19335 X0.0658 Y1.2867
N19340 X0.1233 Y1.2734
N19345 X0.1315 Y1.2712
N19350 X0.1397 Y1.2689
N19355 X0.1479 Y1.2656
N19360 X0.1661 Y1.2575
N19365 X0.1808 Y1.2503
N19370 X0.2164 Y1.2328
N19375 X0.2219 Y1.2299
N19380 X0.2301 Y1.2249
N19385 X0.2619 Y1.2076
N19390 X0.2947 Y1.1923
N19395 X0.328 Y1.1782
N19400 X0.3951 Y1.151
N19405 X0.4285 Y1.1371
N19410 X0.4617 Y1.1227
N19415 X0.4946 Y1.1076
N19420 X0.5271 Y1.0918
N19425 X0.5593 Y1.0752
N19430 X0.591 Y1.0578
N19435 X0.6222 Y1.0395
N19440 X0.6529 Y1.0204
N19445 X0.683 Y1.0003
N19450 X0.7126 Y0.9794
N19455 X0.7415 Y0.9577
N19460 X0.7697 Y0.935
N19465 X0.7973 Y0.9116
N19470 X0.8241 Y0.8874
N19475 X0.8502 Y0.8623
N19480 X0.8756 Y0.8365
N19485 X0.9002 Y0.81
N19490 X0.924 Y0.7827
N19495 X0.947 Y0.7548
N19500 X0.9691 Y0.7262
N19505 X0.9904 Y0.6969
N19510 X1.0108 Y0.667
N19515 X1.0303 Y0.6365
N19520 X1.0488 Y0.6055
N19525 X1.0664 Y0.5739
N19530 X1.0831 Y0.5417
N19535 X1.0988 Y0.5091
N19540 X1.1135 Y0.4761
N19545 X1.1272 Y0.4426
N19550 X1.1399 Y0.4087
N19555 X1.1516 Y0.3745
N19560 X1.1623 Y0.3399
N19565 X1.1719 Y0.305
N19570 X1.1806 Y0.2699
N19575 X1.1881 Y0.2345
N19580 X1.1946 Y0.1989
N19585 X1.2 Y0.1631
N19590 X1.2043 Y0.1272
N19595 X1.2076 Y0.0912
N19600 X1.2097 Y0.0551
N19605 X1.2108 Y0.0189
N19610 Y-0.0173
N19615 X1.2098 Y-0.0534
N19620 X1.2076 Y-0.0896
N19625 X1.2044 Y-0.1256
N19630 X1.2002 Y-0.1615
N19635 X1.1948 Y-0.1973
N19640 X1.1884 Y-0.2329
N19645 X1.1809 Y-0.2683
N19650 X1.1724 Y-0.3035
N19655 X1.1628 Y-0.3384
N19660 X1.1521 Y-0.373
N19665 X1.1405 Y-0.4072
N19670 X1.1278 Y-0.4411
N19675 X1.1141 Y-0.4746
N19680 X1.0994 Y-0.5077
N19685 X1.0838 Y-0.5403
N19690 X1.0671 Y-0.5724
N19695 X1.0496 Y-0.604
N19700 X1.0311 Y-0.6351
N19705 X1.0117 Y-0.6657
N19710 X0.9913 Y-0.6956
N19715 X0.9701 Y-0.7249
N19720 X0.948 Y-0.7536
N19725 X0.9251 Y-0.7815
N19730 X0.9013 Y-0.8088
N19735 X0.8767 Y-0.8354
N19740 X0.8514 Y-0.8612
N19745 X0.8253 Y-0.8862
N19750 X0.7984 Y-0.9105
N19755 X0.7709 Y-0.9339
N19760 X0.7426 Y-0.9565
N19765 X0.7137 Y-0.9783
N19770 X0.6842 Y-0.9992
N19775 X0.654 Y-1.0192
N19780 X0.6233 Y-1.0383
N19785 X0.592 Y-1.0565
N19790 X0.5602 Y-1.0737
N19795 X0.5278 Y-1.0899
N19800 X0.495 Y-1.1052
N19805 X0.4618 Y-1.1195
N19810 X0.4281 Y-1.1328
N19815 X0.3941 Y-1.145
N19820 X0.3597 Y-1.1563
N19825 X0.325 Y-1.1665
N19830 X0.3073 Y-1.1712
N19835 X0.2982 Y-1.1743
N19840 X0.2896 Y-1.1787
N19845 X0.2817 Y-1.1842
N19850 X0.2548 Y-1.2062
N19855 X0.2466 Y-1.2129
N19860 X0.2421 Y-1.2164
N19865 X0.2383 Y-1.2193
N19870 X0.2306 Y-1.2246
N19875 X0.2219 Y-1.2299
N19880 X0.2164 Y-1.2328
N19885 X0.1726 Y-1.2543
N19890 X0.1661 Y-1.2575
N19895 X0.1477 Y-1.2657
N19900 X0.1397 Y-1.2689
N19905 X0.1315 Y-1.2712
N19910 X0.1233 Y-1.2734
N19915 X0.0658 Y-1.2867
N19920 X0.0575 Y-1.2883
N19925 X0.0493 Y-1.2897
N19930 X0.0411 Y-1.2904
N19935 X0.0329 Y-1.2906
N19940 X0.0082 Y-1.2907
N19945 X-0.0164
N19950 X-0.0329 Y-1.2906
N19955 X-0.0411 Y-1.2904
N19960 X-0.0493 Y-1.2897
N19965 X-0.0575 Y-1.2883
N19970 X-0.0658 Y-1.2867
N19975 X-0.1233 Y-1.2734
N19980 X-0.1315 Y-1.2712
N19985 X-0.1397 Y-1.2689
N19990 X-0.1479 Y-1.2656
N19995 X-0.1661 Y-1.2575
N20000 X-0.1808 Y-1.2503
N20005 X-0.2164 Y-1.2328
N20010 X-0.2219 Y-1.2299
N20015 X-0.2301 Y-1.2249
N20020 X-0.2619 Y-1.2076
N20025 X-0.2947 Y-1.1923
N20030 X-0.328 Y-1.1782
N20035 X-0.3951 Y-1.151
N20040 X-0.4285 Y-1.1371
N20045 X-0.4617 Y-1.1226
N20050 X-0.4946 Y-1.1076
N20055 X-0.5271 Y-1.0918
N20060 X-0.5593 Y-1.0752
N20065 X-0.591 Y-1.0578
N20070 X-0.6222 Y-1.0395
N20075 X-0.6529 Y-1.0203
N20080 X-0.683 Y-1.0003
N20085 X-0.7126 Y-0.9794
N20090 X-0.7415 Y-0.9577
N20095 X-0.7697 Y-0.935
N20100 X-0.7973 Y-0.9116
N20105 X-0.8241 Y-0.8874
N20110 X-0.8502 Y-0.8623
N20115 X-0.8756 Y-0.8365
N20120 X-0.9001 Y-0.8099
N20125 X-0.9236 Y-0.7824
N20130 X-0.9459 Y-0.7539
N20135 X-0.9667 Y-0.7243
N20140 X-0.9859 Y-0.6936
N20145 X-1.0033 Y-0.6619
N20150 X-1.0191 Y-0.6293
N20155 X-1.0332 Y-0.596
N20160 X-1.0459 Y-0.5621
N20165 X-1.0572 Y-0.5278
N20170 X-1.0674 Y-0.493
N20175 X-1.0765 Y-0.458
N20180 X-1.0846 Y-0.4228
N20185 X-1.092 Y-0.3874
N20190 X-1.0986 Y-0.3518
N20195 X-1.1045 Y-0.3161
N20200 X-1.1098 Y-0.2803
N20205 X-1.1144 Y-0.2444
N20210 X-1.1182 Y-0.2084
N20215 X-1.1214 Y-0.1724
N20220 X-1.1238 Y-0.1363
N20225 X-1.1255 Y-0.1001
N20230 X-1.1263 Y-0.064
N20235 Y-0.0278
N20240 X-1.1253 Y0.0084
N20245 X-1.1235 Y0.0445
N20250 X-1.1206 Y0.0806
N20255 X-1.1168 Y0.1166
N20260 X-1.1119 Y0.1524
N20265 X-1.106 Y0.1881
N20270 X-1.0991 Y0.2236
N20275 X-1.091 Y0.2589
N20280 X-1.0819 Y0.2939
N20285 X-1.0717 Y0.3286
N20290 X-1.0604 Y0.363
N20295 X-1.048 Y0.397
N20300 X-1.0346 Y0.4306
N20305 X-1.0201 Y0.4637
N20310 X-1.0045 Y0.4964
N20315 X-0.9879 Y0.5286
N20320 X-0.9703 Y0.5602
N20325 X-0.9517 Y0.5912
N20330 X-0.9322 Y0.6216
N20335 X-0.9116 Y0.6514
N20340 X-0.8901 Y0.6805
N20345 X-0.8677 Y0.7089
N20350 X-0.8443 Y0.7365
N20355 X-0.8201 Y0.7634
N20360 X-0.795 Y0.7895
N20365 X-0.7691 Y0.8147
N20370 X-0.7423 Y0.8391
N20375 X-0.7149 Y0.8626
N20380 X-0.6866 Y0.8853
N20385 X-0.6577 Y0.907
N20390 X-0.6281 Y0.9278
N20395 X-0.5978 Y0.9476
N20400 X-0.5669 Y0.9664
N20405 X-0.5354 Y0.9842
N20410 X-0.5033 Y1.001
N20415 X-0.4708 Y1.0167
N20420 X-0.4377 Y1.0313
N20425 X-0.4067 Y1.0439
N20430 X-0.3971 Y1.0487
N20435 X-0.3884 Y1.055
N20440 X-0.3808 Y1.0625
N20445 X-0.3744 Y1.0712
N20450 X-0.3616 Y1.0921
N20455 X-0.3485 Y1.1095
N20460 X-0.3205 Y1.1456
N20465 X-0.3123 Y1.1559
N20470 X-0.3098 Y1.1589
N20475 X-0.3019 Y1.1671
N20480 X-0.2959 Y1.1726
N20485 X-0.2816 Y1.1843
N20490 X-0.2712 Y1.1928 Z-0.0923
N20495 X-0.2581 Y1.2035 Z-0.0888
N20500 X-0.2512 Y1.2091 Z-0.087
N20505 X-0.2466 Y1.2129
N20510 X-0.2421 Y1.2164
N20515 X-0.2383 Y1.2193
N20520 X-0.2306 Y1.2246
N20525 X-0.2219 Y1.2299
N20530 X-0.2164 Y1.2328
N20535 X-0.189 Y1.2463
N20540 X-0.1726 Y1.2543
N20545 X-0.1661 Y1.2575
N20550 X-0.1477 Y1.2657
N20555 X-0.1397 Y1.2689
N20560 X-0.1315 Y1.2712
N20565 X-0.1233 Y1.2734
N20570 X-0.0658 Y1.2867
N20575 X-0.0575 Y1.2883
N20580 X-0.0493 Y1.2897
N20585 X-0.0411 Y1.2904
N20590 X-0.0329 Y1.2906
N20595 X-0.0164 Y1.2907
N20600 X-0.0082
N20605 X0.0082
N20610 X0.0164
N20615 X0.0329 Y1.2906
N20620 X0.0411 Y1.2904
N20625 X0.0493 Y1.2897
N20630 X0.0575 Y1.2883
N20635 X0.0658 Y1.2867
N20640 X0.1233 Y1.2734
N20645 X0.1315 Y1.2712
N20650 X0.1397 Y1.2689
N20655 X0.1477 Y1.2657
N20660 X0.1661 Y1.2575
N20665 X0.1726 Y1.2543
N20670 X0.1954 Y1.2432
N20675 X0.1973 Y1.2423 Z-0.0874
N20680 X0.2035 Y1.2392 Z-0.0888
N20685 X0.2164 Y1.2328 Z-0.0918
N20690 X0.2219 Y1.2299 Z-0.093
N20695 X0.2301 Y1.2249 Z-0.095
N20700 X0.2306 Y1.2246
N20705 X0.2383 Y1.2193
N20710 X0.2421 Y1.2164
N20715 X0.2466 Y1.2129
N20720 X0.2794 Y1.1861
N20725 X0.2959 Y1.1726
N20730 X0.3019 Y1.1671
N20735 X0.3098 Y1.1589
N20740 X0.3123 Y1.1559
N20745 X0.3205 Y1.1456
N20750 X0.335 Y1.1288
N20755 X0.3483 Y1.1153
N20760 X0.3681 Y1.0981
N20765 X0.397 Y1.0763
N20770 X0.4271 Y1.0563
N20775 X0.458 Y1.0374
N20780 X0.52 Y1.0002
N20785 X0.5509 Y0.9813
N20790 X0.5814 Y0.9619
N20795 X0.6115 Y0.9418
N20800 X0.6411 Y0.921
N20805 X0.6702 Y0.8995
N20810 X0.6986 Y0.8771
N20815 X0.7264 Y0.8539
N20820 X0.7534 Y0.8298
N20825 X0.7797 Y0.805
N20830 X0.8052 Y0.7793
N20835 X0.8299 Y0.7529
N20840 X0.8537 Y0.7256
N20845 X0.8767 Y0.6977
N20850 X0.8988 Y0.669
N20855 X0.9199 Y0.6396
N20860 X0.9401 Y0.6096
N20865 X0.9593 Y0.5789
N20870 X0.9775 Y0.5477
N20875 X0.9946 Y0.5158
N20880 X1.0107 Y0.4834
N20885 X1.0258 Y0.4505
N20890 X1.0398 Y0.4171
N20895 X1.0527 Y0.3833
N20900 X1.0646 Y0.3492
N20905 X1.0753 Y0.3146
N20910 X1.0849 Y0.2797
N20915 X1.0934 Y0.2445
N20920 X1.1007 Y0.2091
N20925 X1.1069 Y0.1735
N20930 X1.1119 Y0.1376
N20935 X1.1158 Y0.1017
N20940 X1.1185 Y0.0656
N20945 X1.12 Y0.0294
N20950 X1.1203 Y-0.0068
N20955 X1.1195 Y-0.0429
N20960 X1.1175 Y-0.0791
N20965 X1.1144 Y-0.1151
N20970 X1.1101 Y-0.151
N20975 X1.1047 Y-0.1868
N20980 X1.0981 Y-0.2224
N20985 X1.0903 Y-0.2577
N20990 X1.0815 Y-0.2928
N20995 X1.0715 Y-0.3276
N21000 X1.0603 Y-0.362
N21005 X1.0481 Y-0.396
N21010 X1.0347 Y-0.4297
N21015 X1.0203 Y-0.4628
N21020 X1.0048 Y-0.4955
N21025 X0.9883 Y-0.5277
N21030 X0.9707 Y-0.5594
N21035 X0.9522 Y-0.5904
N21040 X0.9326 Y-0.6209
N21045 X0.9121 Y-0.6507
N21050 X0.8906 Y-0.6798
N21055 X0.8682 Y-0.7082
N21060 X0.8449 Y-0.7359
N21065 X0.8207 Y-0.7627
N21070 X0.7956 Y-0.7888
N21075 X0.7697 Y-0.8141
N21080 X0.743 Y-0.8385
N21085 X0.7155 Y-0.8621
N21090 X0.6873 Y-0.8847
N21095 X0.6584 Y-0.9065
N21100 X0.6288 Y-0.9273
N21105 X0.5985 Y-0.9471
N21110 X0.5676 Y-0.9659
N21115 X0.5362 Y-0.9838
N21120 X0.5041 Y-1.0006
N21125 X0.4715 Y-1.0163
N21130 X0.4385 Y-1.031
N21135 X0.4067 Y-1.0439
N21140 X0.3971 Y-1.0487
N21145 X0.3884 Y-1.055
N21150 X0.3807 Y-1.0626
N21155 X0.3744 Y-1.0712
N21160 X0.3616 Y-1.0921
N21165 X0.3485 Y-1.1095
N21170 X0.3205 Y-1.1456
N21175 X0.3123 Y-1.1559
N21180 X0.3098 Y-1.1589
N21185 X0.3019 Y-1.1671
N21190 X0.2959 Y-1.1726
N21195 X0.2817 Y-1.1842
N21200 X0.2712 Y-1.1928 Z-0.0922
N21205 X0.2582 Y-1.2034 Z-0.0888
N21210 X0.2512 Y-1.209 Z-0.087
N21215 X0.2466 Y-1.2129
N21220 X0.2421 Y-1.2164
N21225 X0.2383 Y-1.2193
N21230 X0.2306 Y-1.2246
N21235 X0.2219 Y-1.2299
N21240 X0.2164 Y-1.2328
N21245 X0.189 Y-1.2463
N21250 X0.1726 Y-1.2543
N21255 X0.1661 Y-1.2575
N21260 X0.1477 Y-1.2657
N21265 X0.1397 Y-1.2689
N21270 X0.1315 Y-1.2712
N21275 X0.1233 Y-1.2734
N21280 X0.0658 Y-1.2867
N21285 X0.0575 Y-1.2883
N21290 X0.0493 Y-1.2897
N21295 X0.0411 Y-1.2904
N21300 X0.0329 Y-1.2906
N21305 X0.0164 Y-1.2907
N21310 X0.0082
N21315 X-0.0082
N21320 X-0.0164
N21325 X-0.0329 Y-1.2906
N21330 X-0.0411 Y-1.2904
N21335 X-0.0493 Y-1.2897
N21340 X-0.0575 Y-1.2883
N21345 X-0.0658 Y-1.2867
N21350 X-0.1233 Y-1.2734
N21355 X-0.1315 Y-1.2712
N21360 X-0.1397 Y-1.2689
N21365 X-0.1477 Y-1.2657
