%
O01016
(Using high feed G1 F300. instead of G0.)
(T8 D=0.0625 CR=0. - ZMIN=-0.055 - flat end mill)
N10 G90 G94 G17
N15 G20
N20 G53 G0 Z0.

(2D Contour1)
N25 T8 M6
N30 S4000 M3
N35 G17 G90 G94
N40 G54
N45 M8
N50 G1 X-0.317 Y-0.9755 F300.
N55 G0 G43 Z0.6 H8
N60 G0 Z0.2
N65 G1 Z0.0394 F13.123
N70 Z0.025
N75 G2 X-0.2307 Y-0.9995 Z0.0003 I0.317 J0.9755
N80 X-0.1428 Y-1.0158 Z-0.0243 I0.2307 J0.9995
N85 X-0.0537 Y-1.0243 Z-0.049 I0.1428 J1.0158
N90 X-1.0258 Y0. Z-0.055 I0.0537 J1.0243
N95 X1.0258 I1.0258 J0. F8.
N100 X-1.0258 I-1.0258 J0.
N105 G0 Z0.6

(2D Contour1 2)
N110 G1 X0.3236 Y-0.996 F300.
N115 G0 Z0.6
N120 Z0.2
N125 G1 Z0.0394 F13.123
N130 Z0.025
N135 G3 X0.2356 Y-1.0204 Z0.0003 I-0.3236 J0.996
N140 X0.1457 Y-1.0371 Z-0.0243 I-0.2356 J1.0204
N145 X0.0548 Y-1.0458 Z-0.049 I-0.1457 J1.0371
N150 X1.0472 Y0. Z-0.055 I-0.0548 J1.0458
N155 X-1.0472 I-1.0472 J0. F8.
N160 X1.0472 I1.0472 J0.
N165 G0 Z0.6

N170 M5
N175 M9
N180 G53 G0 Z0.
N185 G53 G0 X0. Y0.
N190 M30

%
