%
O01018
(Using high feed G1 F300. instead of G0.)
(T2 D=0.1875 CR=0. TAPER=118deg - ZMIN=-0.42 - center drill)
(T3 D=0.25 CR=0. TAPER=118deg - ZMIN=-0.8351 - drill)
(T9 D=0.25 CR=0. - ZMIN=-0.38 - flat end mill)
N10 G90 G94 G17
N15 G20
N20 G53 G0 Z0.

(Face1)
N25 T9 M6
N30 S4000 M3
N35 G17 G90 G94
N40 G54
N45 M8
N50 G1 X8.3541 Y-0.5465 F300.
N55 G0 G43 Z0.6 H9
N60 G0 Z0.1
N65 G1 Z-0.0575 F3.
N70 G18 G3 X8.3291 Z-0.0825 I-0.025 K0. F27.6
N75 G1 X8.3254
N80 X-0.1254
N85 G17 G2 Y-0.4693 I0. J0.0386
N90 G1 X8.3254
N95 G3 Y-0.3921 I0. J0.0386
N100 G1 X-0.1254
N105 G2 Y-0.3149 I0. J0.0386
N110 G1 X8.3254
N115 G3 Y-0.2377 I0. J0.0386
N120 G1 X-0.1254
N125 G2 Y-0.1605 I0. J0.0386
N130 G1 X8.3254
N135 G3 Y-0.0833 I0. J0.0386
N140 G1 X-0.1254
N145 G2 Y-0.0061 I0. J0.0386
N150 G1 X8.3254
N155 G3 Y0.0711 I0. J0.0386
N160 G1 X-0.1254
N165 G2 Y0.1483 I0. J0.0386
N170 G1 X8.3254
N175 G3 Y0.2255 I0. J0.0386
N180 G1 X-0.1254
N185 G2 Y0.3027 I0. J0.0386
N190 G1 X8.3254
N195 G3 Y0.3799 I0. J0.0386
N200 G1 X-0.1254
N205 G18 G3 X-0.1504 Z-0.0575 I0. K0.025
N210 G0 Z0.2
N215 G1 X-0.1541 Y-0.5465 F300.
N220 G0 Z0.1
N225 G1 Z-0.14 F3.
N230 G2 X-0.1291 Z-0.165 I0.025 K0. F27.6
N235 G1 X-0.1254
N240 X8.3254
N245 G17 G3 Y-0.4693 I0. J0.0386
N250 G1 X-0.1254
N255 G2 Y-0.3921 I0. J0.0386
N260 G1 X8.3254
N265 G3 Y-0.3149 I0. J0.0386
N270 G1 X-0.1254
N275 G2 Y-0.2377 I0. J0.0386
N280 G1 X8.3254
N285 G3 Y-0.1605 I0. J0.0386
N290 G1 X-0.1254
N295 G2 Y-0.0833 I0. J0.0386
N300 G1 X8.3254
N305 G3 Y-0.0061 I0. J0.0386
N310 G1 X-0.1254
N315 G2 Y0.0711 I0. J0.0386
N320 G1 X8.3254
N325 G3 Y0.1483 I0. J0.0386
N330 G1 X-0.1254
N335 G2 Y0.2255 I0. J0.0386
N340 G1 X8.3254
N345 G3 Y0.3027 I0. J0.0386
N350 G1 X-0.1254
N355 G2 Y0.3799 I0. J0.0386
N360 G1 X8.3254
N365 G18 G2 X8.3504 Z-0.14 I0. K0.025
N370 G0 Z0.2
N375 G1 X8.3541 Y-0.5465 F300.
N380 G0 Z0.1
N385 G1 Z-0.2225 F3.
N390 G3 X8.3291 Z-0.2475 I-0.025 K0. F27.6
N395 G1 X8.3254
N400 X-0.1254
N405 G17 G2 Y-0.4693 I0. J0.0386
N410 G1 X8.3254
N415 G3 Y-0.3921 I0. J0.0386
N420 G1 X-0.1254
N425 G2 Y-0.3149 I0. J0.0386
N430 G1 X8.3254
N435 G3 Y-0.2377 I0. J0.0386
N440 G1 X-0.1254
N445 G2 Y-0.1605 I0. J0.0386
N450 G1 X8.3254
N455 G3 Y-0.0833 I0. J0.0386
N460 G1 X-0.1254
N465 G2 Y-0.0061 I0. J0.0386
N470 G1 X8.3254
N475 G3 Y0.0711 I0. J0.0386
N480 G1 X-0.1254
N485 G2 Y0.1483 I0. J0.0386
N490 G1 X8.3254
N495 G3 Y0.2255 I0. J0.0386
N500 G1 X-0.1254
N505 G2 Y0.3027 I0. J0.0386
N510 G1 X8.3254
N515 G3 Y0.3799 I0. J0.0386
N520 G1 X-0.1254
N525 G18 G3 X-0.1504 Z-0.2225 I0. K0.025
N530 G0 Z0.2
N535 G1 X-0.1541 Y-0.5465 F300.
N540 G0 Z0.1
N545 G1 Z-0.305 F3.
N550 G2 X-0.1291 Z-0.33 I0.025 K0. F27.6
N555 G1 X-0.1254
N560 X8.3254
N565 G17 G3 Y-0.4693 I0. J0.0386
N570 G1 X-0.1254
N575 G2 Y-0.3921 I0. J0.0386
N580 G1 X8.3254
N585 G3 Y-0.3149 I0. J0.0386
N590 G1 X-0.1254
N595 G2 Y-0.2377 I0. J0.0386
N600 G1 X8.3254
N605 G3 Y-0.1605 I0. J0.0386
N610 G1 X-0.1254
N615 G2 Y-0.0833 I0. J0.0386
N620 G1 X8.3254
N625 G3 Y-0.0061 I0. J0.0386
N630 G1 X-0.1254
N635 G2 Y0.0711 I0. J0.0386
N640 G1 X8.3254
N645 G3 Y0.1483 I0. J0.0386
N650 G1 X-0.1254
N655 G2 Y0.2255 I0. J0.0386
N660 G1 X8.3254
N665 G3 Y0.3027 I0. J0.0386
N670 G1 X-0.1254
N675 G2 Y0.3799 I0. J0.0386
N680 G1 X8.3254
N685 G18 G2 X8.3504 Z-0.305 I0. K0.025
N690 G0 Z0.6

(2D Pocket1)
N695 G17
N700 G1 X8.3601 Y-0.0505 F300.
N705 G0 Z0.6
N710 Z-0.23
N715 G1 Z-0.355 F3.
N720 X8.3598 Z-0.3589 F21.6
N725 X8.3588 Z-0.3627
N730 X8.3573 Z-0.3663
N735 X8.3553 Z-0.3697
N740 X8.3527 Z-0.3727
N745 X8.3498 Z-0.3752
N750 X8.3464 Z-0.3773
N755 X8.3428 Z-0.3788
N760 X8.339 Z-0.3797
N765 X8.3351 Z-0.38
N770 X8.3206
N775 X8.2
N780 X-0.1206 Y-0.0514
N785 G3 X-0.1331 Y-0.0639 I0. J-0.0125
N790 G1 X-0.1332 Y-0.1198
N795 G3 X-0.1207 Y-0.1323 I0.0125 J0.
N800 G1 X8.3209
N805 G2 X8.3334 Y-0.1448 I0. J-0.0125
N810 G1 X8.3333 Y-0.1998
N815 G2 X8.3208 Y-0.2123 I-0.0125 J0.
N820 G1 X-0.1209
N825 G3 X-0.1334 Y-0.2248 I0. J-0.0125
N830 G1 X-0.1332 Y-0.28
N835 G3 X-0.1207 Y-0.2925 I0.0125 J0.
N840 G1 X8.2
N845 X8.3206
N850 X8.3245 Y-0.2922
N855 X8.3351 Y-0.2905
N860 X8.339 Y-0.2899 Z-0.3797
N865 X8.3427 Y-0.2893 Z-0.3788
N870 X8.3463 Y-0.2887 Z-0.3773
N875 X8.3496 Y-0.2882 Z-0.3752
N880 X8.3526 Y-0.2877 Z-0.3727
N885 X8.3551 Y-0.2873 Z-0.3697
N890 X8.3571 Y-0.287 Z-0.3663
N895 X8.3586 Y-0.2868 Z-0.3627
N900 X8.3595 Y-0.2866 Z-0.3589
N905 X8.3598 Z-0.355
N910 G0 Z0.2
N915 G1 X8.3601 Y0.0523 F300.
N920 G0 Z-0.23
N925 G1 Z-0.355 F3.
N930 G18 G3 X8.3351 Z-0.38 I-0.025 K0. F21.6
N935 G1 X8.3206
N940 X-0.121
N945 G17 G2 X-0.1335 Y0.0648 I0. J0.0125
N950 G1 X-0.1334 Y0.1198
N955 G2 X-0.1209 Y0.1323 I0.0125 J0.
N960 G1 X8.3207
N965 G3 X8.3332 Y0.1448 I0. J0.0125
N970 G1 X8.3333 Y0.1998
N975 G3 X8.3209 Y0.2123 I-0.0125 J0.
N980 G1 X-0.1208
N985 G2 X-0.1333 Y0.2248 I0. J0.0125
N990 G1 X-0.1331 Y0.28
N995 G2 X-0.1206 Y0.2925 I0.0125 J0.
N1000 G1 X8.3207
N1005 X8.3246 Y0.2922
N1010 X8.3352 Y0.2905
N1015 X8.3391 Y0.2899 Z-0.3797
N1020 X8.3428 Y0.2893 Z-0.3788
N1025 X8.3464 Y0.2887 Z-0.3773
N1030 X8.3497 Y0.2882 Z-0.3752
N1035 X8.3527 Y0.2877 Z-0.3727
N1040 X8.3552 Y0.2873 Z-0.3697
N1045 X8.3572 Y0.287 Z-0.3663
N1050 X8.3587 Y0.2868 Z-0.3627
N1055 X8.3596 Y0.2866 Z-0.3589
N1060 X8.3599 Z-0.355
N1065 G0 Z0.6
N1070 M9
N1075 M5
N1080 G53 G0 Z0.

(Drill1)
N1085 M1
N1090 T2 M6
N1095 S4000 M3
N1100 G17 G90 G94
N1105 G54
N1110 M8
N1115 G1 X6.795 Y0. F300.
N1120 G0 G43 Z0.6 H2
N1125 G0 Z0.2
N1130 G98 G81 X6.795 Y0. Z-0.42 R-0.28 F4.
N1135 X4.695
N1140 X2.595
N1145 X0.495
N1150 G80
N1155 G0 Z0.6
N1160 M9
N1165 M5
N1170 G53 G0 Z0.

(Drill2)
N1175 M1
N1180 T3 M6
N1185 S4000 M3
N1190 G17 G90 G94
N1195 G54
N1200 M8
N1205 G1 X6.795 Y0. F300.
N1210 G0 G43 Z0.6 H3
N1215 G0 Z0.2
N1220 G98 G73 X6.795 Y0. Z-0.8351 R-0.28 Q0.0625 F10.4
N1225 X4.695
N1230 X2.595
N1235 X0.495
N1240 G80
N1245 G0 Z0.6

N1250 M5
N1255 M9
N1260 G53 G0 Z0.
N1265 G53 G0 X0. Y0.
N1270 M30

%
